(G-CODE GENERATED BY FLATCAM v8.99 - www.flatcam.org - Version Date: 2019/12/15)

(Name: Drill pth)
(Type: G-code from Geometry)
(Units: MM)

(Created on Saturday, 01 November 2025 at 13:55)

(TOOL DIAMETER: 0.1 mm)
(Feedrate: 150.0 mm/min)
(Feedrate_Z: 60.0 mm/min)
(Feedrate rapids 1500.0 mm/min)

(Z_Cut: -1.7 mm)
(Z_Move: 2.0 mm)
(Z Toolchange: 15.0 mm)
(X,Y Toolchange: 0.0000, 0.0000 mm)
(Z Start: None mm)
(Z End: 15.0 mm)
(Steps per circle: 64)
(Preprocessor Geometry: default)

(X range:  104.8001 ...  192.1000  mm)
(Y range: -123.9167 ...  -57.9000  mm)

(Spindle Speed: 6000 RPM)
G21
G90
G94




G01 F150.00
G00 Z2.0000

M03 S6000
G4 P1.0
G00 X106.9000 Y-63.0000
G01 F60.00
G01 Z-1.7000
G01 F150.00
G01 X106.9000 Y-108.0000
G01 X106.9242 Y-108.4950
G01 X106.9251 Y-108.5048
G01 X106.9971 Y-108.9901
G01 X106.9985 Y-108.9974
G01 X107.1183 Y-109.4757
G01 X107.1211 Y-109.4851
G01 X107.2864 Y-109.9471
G01 X107.2892 Y-109.9539
G01 X107.5000 Y-110.3997
G01 X107.5046 Y-110.4084
G01 X107.7582 Y-110.8313
G01 X107.7623 Y-110.8374
G01 X108.0546 Y-111.2316
G01 X108.0592 Y-111.2373
G01 X108.3904 Y-111.6027
G01 X108.3973 Y-111.6096
G01 X108.7609 Y-111.9392
G01 X108.7665 Y-111.9439
G01 X109.1626 Y-112.2377
G01 X109.1707 Y-112.2431
G01 X109.5937 Y-112.4966
G01 X109.6003 Y-112.5000
G01 X110.0438 Y-112.7098
G01 X110.0506 Y-112.7127
G01 X110.5149 Y-112.8789
G01 X110.5243 Y-112.8817
G01 X111.0026 Y-113.0015
G01 X111.0099 Y-113.0029
G01 X111.4952 Y-113.0749
G01 X111.5050 Y-113.0758
G01 X112.0000 Y-113.1000
G01 X187.0049 Y-113.0999
G01 X187.4974 Y-113.0756
G01 X187.5048 Y-113.0749
G01 X187.9901 Y-113.0029
G01 X187.9998 Y-113.0010
G01 X188.4781 Y-112.8811
G01 X188.4851 Y-112.8789
G01 X188.9471 Y-112.7136
G01 X188.9562 Y-112.7098
G01 X189.3997 Y-112.5000
G01 X189.4063 Y-112.4966
G01 X189.8293 Y-112.2431
G01 X189.8374 Y-112.2377
G01 X190.2335 Y-111.9439
G01 X190.2391 Y-111.9392
G01 X190.6027 Y-111.6096
G01 X190.6096 Y-111.6027
G01 X190.9392 Y-111.2391
G01 X190.9439 Y-111.2335
G01 X191.2377 Y-110.8374
G01 X191.2431 Y-110.8293
G01 X191.4966 Y-110.4063
G01 X191.5000 Y-110.3997
G01 X191.7098 Y-109.9562
G01 X191.7127 Y-109.9494
G01 X191.8789 Y-109.4851
G01 X191.8817 Y-109.4757
G01 X192.0015 Y-108.9974
G01 X192.0029 Y-108.9901
G01 X192.0749 Y-108.5048
G01 X192.0758 Y-108.4950
G01 X192.1000 Y-108.0000
G01 X192.0999 Y-62.9951
G01 X192.0756 Y-62.5026
G01 X192.0749 Y-62.4952
G01 X192.0029 Y-62.0099
G01 X192.0010 Y-62.0002
G01 X191.8811 Y-61.5219
G01 X191.8789 Y-61.5149
G01 X191.7136 Y-61.0529
G01 X191.7098 Y-61.0438
G01 X191.5000 Y-60.6003
G01 X191.4966 Y-60.5937
G01 X191.2431 Y-60.1707
G01 X191.2377 Y-60.1626
G01 X190.9439 Y-59.7665
G01 X190.9392 Y-59.7609
G01 X190.6096 Y-59.3973
G01 X190.6027 Y-59.3904
G01 X190.2391 Y-59.0608
G01 X190.2335 Y-59.0561
G01 X189.8374 Y-58.7623
G01 X189.8293 Y-58.7569
G01 X189.4063 Y-58.5034
G01 X189.3997 Y-58.5000
G01 X188.9562 Y-58.2902
G01 X188.9494 Y-58.2873
G01 X188.4851 Y-58.1211
G01 X188.4757 Y-58.1183
G01 X187.9974 Y-57.9985
G01 X187.9901 Y-57.9971
G01 X187.5048 Y-57.9251
G01 X187.4950 Y-57.9242
G01 X187.0000 Y-57.9000
G01 X112.0000 Y-57.9000
G01 X111.5050 Y-57.9242
G01 X111.4952 Y-57.9251
G01 X111.0075 Y-57.9976
G01 X111.0002 Y-57.9990
G01 X110.5219 Y-58.1189
G01 X110.5149 Y-58.1211
G01 X110.0506 Y-58.2873
G01 X110.0438 Y-58.2902
G01 X109.6003 Y-58.5000
G01 X109.5916 Y-58.5046
G01 X109.1687 Y-58.7582
G01 X109.1626 Y-58.7623
G01 X108.7684 Y-59.0546
G01 X108.7609 Y-59.0608
G01 X108.3973 Y-59.3904
G01 X108.3904 Y-59.3973
G01 X108.0608 Y-59.7609
G01 X108.0561 Y-59.7665
G01 X107.7623 Y-60.1626
G01 X107.7582 Y-60.1687
G01 X107.5046 Y-60.5916
G01 X107.5011 Y-60.5981
G01 X107.2902 Y-61.0438
G01 X107.2873 Y-61.0506
G01 X107.1211 Y-61.5149
G01 X107.1189 Y-61.5219
G01 X106.9990 Y-62.0002
G01 X106.9976 Y-62.0075
G01 X106.9251 Y-62.4952
G01 X106.9244 Y-62.5026
G01 X106.9000 Y-63.0000
G00 Z2.0000
G00 X110.5751 Y-63.0086
G01 F60.00
G01 Z-1.7000
G01 F150.00
G01 X110.5812 Y-63.1311
G01 X110.5826 Y-63.1458
G01 X110.6009 Y-63.2695
G01 X110.6037 Y-63.2840
G01 X110.6340 Y-63.4054
G01 X110.6382 Y-63.4195
G01 X110.6803 Y-63.5373
G01 X110.6859 Y-63.5510
G01 X110.7393 Y-63.6641
G01 X110.7462 Y-63.6771
G01 X110.8105 Y-63.7845
G01 X110.8186 Y-63.7967
G01 X110.8931 Y-63.8973
G01 X110.9024 Y-63.9087
G01 X110.9864 Y-64.0014
G01 X110.9968 Y-64.0119
G01 X111.0894 Y-64.0960
G01 X111.1008 Y-64.1054
G01 X111.2013 Y-64.1799
G01 X111.2135 Y-64.1882
G01 X111.3208 Y-64.2526
G01 X111.3337 Y-64.2596
G01 X111.4468 Y-64.3131
G01 X111.4604 Y-64.3188
G01 X111.5782 Y-64.3610
G01 X111.5922 Y-64.3653
G01 X111.7136 Y-64.3958
G01 X111.7280 Y-64.3987
G01 X111.8518 Y-64.4171
G01 X111.8664 Y-64.4187
G01 X111.9914 Y-64.4249
G01 X112.0061 Y-64.4249
G01 X112.1311 Y-64.4188
G01 X112.1458 Y-64.4174
G01 X112.2695 Y-64.3991
G01 X112.2840 Y-64.3963
G01 X112.4054 Y-64.3660
G01 X112.4195 Y-64.3618
G01 X112.5373 Y-64.3197
G01 X112.5510 Y-64.3141
G01 X112.6641 Y-64.2607
G01 X112.6771 Y-64.2538
G01 X112.7845 Y-64.1895
G01 X112.7967 Y-64.1814
G01 X112.8973 Y-64.1069
G01 X112.9087 Y-64.0976
G01 X113.0014 Y-64.0136
G01 X113.0119 Y-64.0032
G01 X113.0960 Y-63.9106
G01 X113.1054 Y-63.8992
G01 X113.1799 Y-63.7987
G01 X113.1882 Y-63.7865
G01 X113.2526 Y-63.6792
G01 X113.2596 Y-63.6663
G01 X113.3131 Y-63.5532
G01 X113.3188 Y-63.5396
G01 X113.3610 Y-63.4218
G01 X113.3653 Y-63.4078
G01 X113.3958 Y-63.2864
G01 X113.3987 Y-63.2720
G01 X113.4171 Y-63.1482
G01 X113.4187 Y-63.1336
G01 X113.4249 Y-63.0086
G01 X113.4249 Y-62.9939
G01 X113.4188 Y-62.8689
G01 X113.4174 Y-62.8542
G01 X113.3991 Y-62.7305
G01 X113.3963 Y-62.7160
G01 X113.3660 Y-62.5946
G01 X113.3618 Y-62.5805
G01 X113.3197 Y-62.4627
G01 X113.3141 Y-62.4490
G01 X113.2607 Y-62.3359
G01 X113.2538 Y-62.3229
G01 X113.1895 Y-62.2155
G01 X113.1814 Y-62.2033
G01 X113.1069 Y-62.1027
G01 X113.0976 Y-62.0913
G01 X113.0136 Y-61.9986
G01 X113.0032 Y-61.9881
G01 X112.9106 Y-61.9040
G01 X112.8992 Y-61.8946
G01 X112.7987 Y-61.8201
G01 X112.7865 Y-61.8118
G01 X112.6792 Y-61.7474
G01 X112.6663 Y-61.7404
G01 X112.5532 Y-61.6869
G01 X112.5396 Y-61.6812
G01 X112.4218 Y-61.6390
G01 X112.4078 Y-61.6347
G01 X112.2864 Y-61.6042
G01 X112.2720 Y-61.6013
G01 X112.1482 Y-61.5829
G01 X112.1336 Y-61.5813
G01 X112.0086 Y-61.5751
G01 X111.9939 Y-61.5751
G01 X111.8689 Y-61.5812
G01 X111.8542 Y-61.5826
G01 X111.7305 Y-61.6009
G01 X111.7160 Y-61.6037
G01 X111.5946 Y-61.6340
G01 X111.5805 Y-61.6382
G01 X111.4627 Y-61.6803
G01 X111.4490 Y-61.6859
G01 X111.3359 Y-61.7393
G01 X111.3229 Y-61.7462
G01 X111.2155 Y-61.8105
G01 X111.2033 Y-61.8186
G01 X111.1027 Y-61.8931
G01 X111.0913 Y-61.9024
G01 X110.9986 Y-61.9864
G01 X110.9881 Y-61.9968
G01 X110.9040 Y-62.0894
G01 X110.8946 Y-62.1008
G01 X110.8201 Y-62.2013
G01 X110.8118 Y-62.2135
G01 X110.7474 Y-62.3208
G01 X110.7404 Y-62.3337
G01 X110.6869 Y-62.4468
G01 X110.6812 Y-62.4604
G01 X110.6390 Y-62.5782
G01 X110.6347 Y-62.5922
G01 X110.6042 Y-62.7136
G01 X110.6013 Y-62.7280
G01 X110.5829 Y-62.8518
G01 X110.5813 Y-62.8664
G01 X110.5751 Y-62.9914
G01 X110.5751 Y-63.0086
G00 Z2.0000
G00 X110.9253 Y-63.0000
G01 F60.00
G01 Z-1.7000
G01 F150.00
G01 X110.9304 Y-63.1053
G01 X110.9459 Y-63.2097
G01 X110.9716 Y-63.3120
G01 X111.0071 Y-63.4113
G01 X111.0522 Y-63.5066
G01 X111.1064 Y-63.5971
G01 X111.1692 Y-63.6818
G01 X111.2401 Y-63.7599
G01 X111.3182 Y-63.8308
G01 X111.4029 Y-63.8936
G01 X111.4934 Y-63.9478
G01 X111.5887 Y-63.9929
G01 X111.6880 Y-64.0284
G01 X111.7903 Y-64.0541
G01 X111.8947 Y-64.0696
G01 X112.0000 Y-64.0747
G01 X112.1053 Y-64.0696
G01 X112.2097 Y-64.0541
G01 X112.3120 Y-64.0284
G01 X112.4113 Y-63.9929
G01 X112.5066 Y-63.9478
G01 X112.5971 Y-63.8936
G01 X112.6818 Y-63.8308
G01 X112.7599 Y-63.7599
G01 X112.8308 Y-63.6818
G01 X112.8936 Y-63.5971
G01 X112.9478 Y-63.5066
G01 X112.9929 Y-63.4113
G01 X113.0284 Y-63.3120
G01 X113.0541 Y-63.2097
G01 X113.0696 Y-63.1053
G01 X113.0747 Y-63.0000
G01 X113.0696 Y-62.8947
G01 X113.0541 Y-62.7903
G01 X113.0284 Y-62.6880
G01 X112.9929 Y-62.5887
G01 X112.9478 Y-62.4934
G01 X112.8936 Y-62.4029
G01 X112.8308 Y-62.3182
G01 X112.7599 Y-62.2401
G01 X112.6818 Y-62.1692
G01 X112.5971 Y-62.1064
G01 X112.5066 Y-62.0522
G01 X112.4113 Y-62.0071
G01 X112.3120 Y-61.9716
G01 X112.2097 Y-61.9459
G01 X112.1053 Y-61.9304
G01 X112.0000 Y-61.9253
G01 X111.8947 Y-61.9304
G01 X111.7903 Y-61.9459
G01 X111.6880 Y-61.9716
G01 X111.5887 Y-62.0071
G01 X111.4934 Y-62.0522
G01 X111.4029 Y-62.1064
G01 X111.3182 Y-62.1692
G01 X111.2401 Y-62.2401
G01 X111.1692 Y-62.3182
G01 X111.1064 Y-62.4029
G01 X111.0522 Y-62.4934
G01 X111.0071 Y-62.5887
G01 X110.9716 Y-62.6880
G01 X110.9459 Y-62.7903
G01 X110.9304 Y-62.8947
G01 X110.9253 Y-63.0000
G00 Z2.0000
G00 X115.6804 Y-77.5675
G01 F60.00
G01 Z-1.7000
G01 F150.00
G01 X115.6800 Y-77.5773
G01 X115.6808 Y-77.5871
G01 X115.6824 Y-77.5968
G01 X115.6851 Y-77.6062
G01 X115.6886 Y-77.6154
G01 X115.6930 Y-77.6242
G01 X115.6980 Y-77.6321
G01 X115.7043 Y-77.6402
G01 X115.7093 Y-77.6456
G01 X116.0635 Y-77.9999
G01 X115.7093 Y-78.3542
G01 X115.7043 Y-78.3596
G01 X115.6982 Y-78.3673
G01 X115.6930 Y-78.3756
G01 X115.6886 Y-78.3844
G01 X115.6851 Y-78.3935
G01 X115.6824 Y-78.4030
G01 X115.6808 Y-78.4126
G01 X115.6800 Y-78.4224
G01 X115.6808 Y-78.4371
G01 X115.6824 Y-78.4468
G01 X115.6851 Y-78.4562
G01 X115.6886 Y-78.4654
G01 X115.6930 Y-78.4742
G01 X115.6980 Y-78.4821
G01 X115.7043 Y-78.4902
G01 X115.7147 Y-78.5006
G01 X115.7265 Y-78.5094
G01 X115.7395 Y-78.5163
G01 X115.7486 Y-78.5198
G01 X115.7581 Y-78.5224
G01 X115.7726 Y-78.5246
G01 X115.7874 Y-78.5246
G01 X115.7971 Y-78.5234
G01 X115.8067 Y-78.5213
G01 X115.8205 Y-78.5163
G01 X115.8293 Y-78.5119
G01 X115.8372 Y-78.5069
G01 X115.8453 Y-78.5006
G01 X115.8507 Y-78.4956
G01 X116.2050 Y-78.1413
G01 X116.5593 Y-78.4956
G01 X116.5647 Y-78.5006
G01 X116.5724 Y-78.5066
G01 X116.5807 Y-78.5119
G01 X116.5895 Y-78.5163
G01 X116.5986 Y-78.5198
G01 X116.6081 Y-78.5224
G01 X116.6178 Y-78.5241
G01 X116.6275 Y-78.5248
G01 X116.6422 Y-78.5241
G01 X116.6519 Y-78.5224
G01 X116.6614 Y-78.5198
G01 X116.6705 Y-78.5163
G01 X116.6793 Y-78.5119
G01 X116.6872 Y-78.5069
G01 X116.6953 Y-78.5006
G01 X116.7057 Y-78.4902
G01 X116.7145 Y-78.4784
G01 X116.7214 Y-78.4654
G01 X116.7249 Y-78.4562
G01 X116.7276 Y-78.4468
G01 X116.7297 Y-78.4322
G01 X116.7297 Y-78.4175
G01 X116.7285 Y-78.4078
G01 X116.7264 Y-78.3982
G01 X116.7214 Y-78.3844
G01 X116.7170 Y-78.3756
G01 X116.7120 Y-78.3676
G01 X116.7057 Y-78.3596
G01 X116.7007 Y-78.3542
G01 X116.3465 Y-77.9999
G01 X116.7007 Y-77.6456
G01 X116.7057 Y-77.6402
G01 X116.7118 Y-77.6325
G01 X116.7170 Y-77.6242
G01 X116.7214 Y-77.6154
G01 X116.7249 Y-77.6062
G01 X116.7276 Y-77.5968
G01 X116.7292 Y-77.5871
G01 X116.7300 Y-77.5773
G01 X116.7292 Y-77.5626
G01 X116.7276 Y-77.5530
G01 X116.7249 Y-77.5435
G01 X116.7214 Y-77.5344
G01 X116.7170 Y-77.5256
G01 X116.7120 Y-77.5176
G01 X116.7057 Y-77.5096
G01 X116.6953 Y-77.4992
G01 X116.6835 Y-77.4904
G01 X116.6705 Y-77.4835
G01 X116.6614 Y-77.4799
G01 X116.6519 Y-77.4773
G01 X116.6374 Y-77.4752
G01 X116.6226 Y-77.4752
G01 X116.6129 Y-77.4764
G01 X116.6033 Y-77.4785
G01 X116.5895 Y-77.4835
G01 X116.5807 Y-77.4879
G01 X116.5728 Y-77.4929
G01 X116.5647 Y-77.4992
G01 X116.5593 Y-77.5042
G01 X116.2050 Y-77.8584
G01 X115.8507 Y-77.5042
G01 X115.8415 Y-77.4960
G01 X115.8293 Y-77.4879
G01 X115.8160 Y-77.4816
G01 X115.8019 Y-77.4773
G01 X115.7874 Y-77.4752
G01 X115.7775 Y-77.4749
G01 X115.7629 Y-77.4764
G01 X115.7533 Y-77.4785
G01 X115.7395 Y-77.4835
G01 X115.7307 Y-77.4879
G01 X115.7224 Y-77.4931
G01 X115.7110 Y-77.5025
G01 X115.7043 Y-77.5096
G01 X115.6955 Y-77.5214
G01 X115.6907 Y-77.5299
G01 X115.6851 Y-77.5435
G01 X115.6816 Y-77.5572
G01 X115.6804 Y-77.5675
G00 Z2.0000
G00 X136.1804 Y-77.5675
G01 F60.00
G01 Z-1.7000
G01 F150.00
G01 X136.1800 Y-77.5773
G01 X136.1808 Y-77.5871
G01 X136.1824 Y-77.5968
G01 X136.1851 Y-77.6062
G01 X136.1886 Y-77.6154
G01 X136.1930 Y-77.6242
G01 X136.1980 Y-77.6321
G01 X136.2043 Y-77.6402
G01 X136.2093 Y-77.6456
G01 X136.5635 Y-77.9999
G01 X136.2093 Y-78.3542
G01 X136.2043 Y-78.3596
G01 X136.1982 Y-78.3673
G01 X136.1930 Y-78.3756
G01 X136.1886 Y-78.3844
G01 X136.1851 Y-78.3935
G01 X136.1824 Y-78.4030
G01 X136.1808 Y-78.4126
G01 X136.1800 Y-78.4224
G01 X136.1808 Y-78.4371
G01 X136.1824 Y-78.4468
G01 X136.1851 Y-78.4562
G01 X136.1886 Y-78.4654
G01 X136.1930 Y-78.4742
G01 X136.1980 Y-78.4821
G01 X136.2043 Y-78.4902
G01 X136.2147 Y-78.5006
G01 X136.2265 Y-78.5094
G01 X136.2395 Y-78.5163
G01 X136.2486 Y-78.5198
G01 X136.2581 Y-78.5224
G01 X136.2726 Y-78.5246
G01 X136.2874 Y-78.5246
G01 X136.2971 Y-78.5234
G01 X136.3067 Y-78.5213
G01 X136.3205 Y-78.5163
G01 X136.3293 Y-78.5119
G01 X136.3372 Y-78.5069
G01 X136.3453 Y-78.5006
G01 X136.3507 Y-78.4956
G01 X136.7050 Y-78.1413
G01 X137.0593 Y-78.4956
G01 X137.0647 Y-78.5006
G01 X137.0724 Y-78.5066
G01 X137.0807 Y-78.5119
G01 X137.0895 Y-78.5163
G01 X137.0986 Y-78.5198
G01 X137.1081 Y-78.5224
G01 X137.1178 Y-78.5241
G01 X137.1275 Y-78.5248
G01 X137.1422 Y-78.5241
G01 X137.1519 Y-78.5224
G01 X137.1614 Y-78.5198
G01 X137.1705 Y-78.5163
G01 X137.1793 Y-78.5119
G01 X137.1872 Y-78.5069
G01 X137.1953 Y-78.5006
G01 X137.2057 Y-78.4902
G01 X137.2145 Y-78.4784
G01 X137.2214 Y-78.4654
G01 X137.2249 Y-78.4562
G01 X137.2276 Y-78.4468
G01 X137.2297 Y-78.4322
G01 X137.2297 Y-78.4175
G01 X137.2285 Y-78.4078
G01 X137.2264 Y-78.3982
G01 X137.2214 Y-78.3844
G01 X137.2170 Y-78.3756
G01 X137.2120 Y-78.3676
G01 X137.2057 Y-78.3596
G01 X137.2007 Y-78.3542
G01 X136.8465 Y-77.9999
G01 X137.2007 Y-77.6456
G01 X137.2057 Y-77.6402
G01 X137.2118 Y-77.6325
G01 X137.2170 Y-77.6242
G01 X137.2214 Y-77.6154
G01 X137.2249 Y-77.6062
G01 X137.2276 Y-77.5968
G01 X137.2292 Y-77.5871
G01 X137.2300 Y-77.5773
G01 X137.2292 Y-77.5626
G01 X137.2276 Y-77.5530
G01 X137.2249 Y-77.5435
G01 X137.2214 Y-77.5344
G01 X137.2170 Y-77.5256
G01 X137.2120 Y-77.5176
G01 X137.2057 Y-77.5096
G01 X137.1953 Y-77.4992
G01 X137.1835 Y-77.4904
G01 X137.1705 Y-77.4835
G01 X137.1614 Y-77.4799
G01 X137.1519 Y-77.4773
G01 X137.1374 Y-77.4752
G01 X137.1226 Y-77.4752
G01 X137.1129 Y-77.4764
G01 X137.1033 Y-77.4785
G01 X137.0895 Y-77.4835
G01 X137.0807 Y-77.4879
G01 X137.0728 Y-77.4929
G01 X137.0647 Y-77.4992
G01 X137.0593 Y-77.5042
G01 X136.7050 Y-77.8584
G01 X136.3507 Y-77.5042
G01 X136.3415 Y-77.4960
G01 X136.3293 Y-77.4879
G01 X136.3160 Y-77.4816
G01 X136.3019 Y-77.4773
G01 X136.2874 Y-77.4752
G01 X136.2775 Y-77.4749
G01 X136.2629 Y-77.4764
G01 X136.2533 Y-77.4785
G01 X136.2395 Y-77.4835
G01 X136.2307 Y-77.4879
G01 X136.2224 Y-77.4931
G01 X136.2110 Y-77.5025
G01 X136.2043 Y-77.5096
G01 X136.1955 Y-77.5214
G01 X136.1907 Y-77.5299
G01 X136.1851 Y-77.5435
G01 X136.1816 Y-77.5572
G01 X136.1804 Y-77.5675
G00 Z2.0000
G00 X123.0268 Y-115.0220
G01 F60.00
G01 Z-1.7000
G01 F150.00
G01 X123.0275 Y-115.0367
G01 X123.0297 Y-115.0512
G01 X123.0332 Y-115.0655
G01 X123.0382 Y-115.0794
G01 X123.0445 Y-115.0927
G01 X123.0521 Y-115.1053
G01 X123.0608 Y-115.1172
G01 X123.0707 Y-115.1281
G01 X123.1659 Y-115.2233
G01 X123.1769 Y-115.2332
G01 X123.1887 Y-115.2420
G01 X123.2035 Y-115.2507
G01 X123.2146 Y-115.2558
G01 X123.2285 Y-115.2608
G01 X123.2428 Y-115.2644
G01 X123.2549 Y-115.2662
G01 X123.2721 Y-115.2673
G01 X123.2868 Y-115.2665
G01 X123.2989 Y-115.2648
G01 X123.3156 Y-115.2608
G01 X123.3317 Y-115.2549
G01 X123.3428 Y-115.2496
G01 X123.3554 Y-115.2420
G01 X123.3672 Y-115.2332
G01 X123.3781 Y-115.2233
G01 X123.4734 Y-115.1281
G01 X123.4848 Y-115.1152
G01 X123.4934 Y-115.1033
G01 X123.5007 Y-115.0905
G01 X123.5068 Y-115.0771
G01 X123.5115 Y-115.0632
G01 X123.5148 Y-115.0494
G01 X123.5168 Y-115.0342
G01 X123.5173 Y-115.0195
G01 X123.5163 Y-115.0048
G01 X123.5149 Y-114.9951
G01 X123.5101 Y-114.9761
G01 X123.5068 Y-114.9668
G01 X123.5007 Y-114.9534
G01 X123.4909 Y-114.9369
G01 X123.4817 Y-114.9249
G01 X123.4734 Y-114.9159
G01 X123.3781 Y-114.8206
G01 X123.3672 Y-114.8107
G01 X123.3554 Y-114.8020
G01 X123.3428 Y-114.7944
G01 X123.3295 Y-114.7881
G01 X123.3156 Y-114.7831
G01 X123.3013 Y-114.7796
G01 X123.2868 Y-114.7774
G01 X123.2720 Y-114.7767
G01 X123.2573 Y-114.7774
G01 X123.2452 Y-114.7792
G01 X123.2285 Y-114.7832
G01 X123.2146 Y-114.7881
G01 X123.2035 Y-114.7933
G01 X123.1887 Y-114.8020
G01 X123.1769 Y-114.8108
G01 X123.1659 Y-114.8206
G01 X123.0707 Y-114.9159
G01 X123.0608 Y-114.9268
G01 X123.0521 Y-114.9386
G01 X123.0445 Y-114.9512
G01 X123.0382 Y-114.9646
G01 X123.0332 Y-114.9784
G01 X123.0297 Y-114.9927
G01 X123.0275 Y-115.0073
G01 X123.0268 Y-115.0220
G00 Z2.0000
G00 X123.0268 Y-116.0696
G01 F60.00
G01 Z-1.7000
G01 F150.00
G01 X123.0275 Y-116.0843
G01 X123.0297 Y-116.0989
G01 X123.0332 Y-116.1132
G01 X123.0382 Y-116.1270
G01 X123.0445 Y-116.1403
G01 X123.0521 Y-116.1530
G01 X123.0608 Y-116.1648
G01 X123.0707 Y-116.1757
G01 X123.1659 Y-116.2709
G01 X123.1769 Y-116.2808
G01 X123.1887 Y-116.2896
G01 X123.2035 Y-116.2983
G01 X123.2146 Y-116.3035
G01 X123.2285 Y-116.3084
G01 X123.2428 Y-116.3120
G01 X123.2549 Y-116.3139
G01 X123.2721 Y-116.3149
G01 X123.2868 Y-116.3142
G01 X123.2989 Y-116.3124
G01 X123.3156 Y-116.3084
G01 X123.3317 Y-116.3025
G01 X123.3428 Y-116.2972
G01 X123.3554 Y-116.2896
G01 X123.3672 Y-116.2808
G01 X123.3781 Y-116.2709
G01 X123.4734 Y-116.1757
G01 X123.4848 Y-116.1629
G01 X123.4934 Y-116.1509
G01 X123.5007 Y-116.1381
G01 X123.5068 Y-116.1247
G01 X123.5115 Y-116.1108
G01 X123.5148 Y-116.0971
G01 X123.5168 Y-116.0819
G01 X123.5173 Y-116.0671
G01 X123.5163 Y-116.0525
G01 X123.5149 Y-116.0427
G01 X123.5101 Y-116.0237
G01 X123.5068 Y-116.0145
G01 X123.5007 Y-116.0011
G01 X123.4909 Y-115.9846
G01 X123.4817 Y-115.9726
G01 X123.4734 Y-115.9635
G01 X123.3781 Y-115.8683
G01 X123.3672 Y-115.8584
G01 X123.3554 Y-115.8496
G01 X123.3428 Y-115.8420
G01 X123.3295 Y-115.8357
G01 X123.3156 Y-115.8308
G01 X123.3013 Y-115.8272
G01 X123.2868 Y-115.8250
G01 X123.2720 Y-115.8243
G01 X123.2573 Y-115.8250
G01 X123.2452 Y-115.8268
G01 X123.2285 Y-115.8308
G01 X123.2146 Y-115.8357
G01 X123.2035 Y-115.8409
G01 X123.1887 Y-115.8496
G01 X123.1769 Y-115.8584
G01 X123.1659 Y-115.8683
G01 X123.0707 Y-115.9635
G01 X123.0608 Y-115.9744
G01 X123.0521 Y-115.9862
G01 X123.0445 Y-115.9989
G01 X123.0382 Y-116.0122
G01 X123.0332 Y-116.0260
G01 X123.0297 Y-116.0403
G01 X123.0275 Y-116.0549
G01 X123.0268 Y-116.0696
G00 Z2.0000
G00 X121.6884 Y-116.0148
G01 F60.00
G01 Z-1.7000
G01 F150.00
G01 X121.9985 Y-116.0148
G01 X122.1355 Y-115.9463
G01 X122.1964 Y-115.8855
G01 X122.2649 Y-115.7485
G01 X122.2649 Y-115.2479
G01 X122.1964 Y-115.1109
G01 X122.1355 Y-115.0501
G01 X121.9985 Y-114.9816
G01 X121.6884 Y-114.9816
G01 X121.6126 Y-115.0195
G01 X121.6126 Y-115.9769
G01 X121.6884 Y-116.0148
G00 Z2.0000
G00 X121.3131 Y-114.8192
G01 F60.00
G01 Z-1.7000
G01 F150.00
G01 X121.3125 Y-114.8315
G01 X121.3125 Y-116.8315
G01 X121.3130 Y-116.8438
G01 X121.3150 Y-116.8590
G01 X121.3183 Y-116.8727
G01 X121.3230 Y-116.8866
G01 X121.3291 Y-116.9000
G01 X121.3365 Y-116.9128
G01 X121.3450 Y-116.9248
G01 X121.3547 Y-116.9358
G01 X121.3655 Y-116.9459
G01 X121.3772 Y-116.9548
G01 X121.3897 Y-116.9626
G01 X121.4029 Y-116.9691
G01 X121.4166 Y-116.9743
G01 X121.4309 Y-116.9781
G01 X121.4454 Y-116.9805
G01 X121.4601 Y-116.9815
G01 X121.4748 Y-116.9810
G01 X121.4894 Y-116.9791
G01 X121.5037 Y-116.9757
G01 X121.5222 Y-116.9691
G01 X121.5311 Y-116.9649
G01 X121.5438 Y-116.9576
G01 X121.5596 Y-116.9459
G01 X121.5703 Y-116.9358
G01 X121.5800 Y-116.9248
G01 X121.5859 Y-116.9169
G01 X121.5937 Y-116.9044
G01 X121.6020 Y-116.8866
G01 X121.6068 Y-116.8727
G01 X121.6100 Y-116.8590
G01 X121.6120 Y-116.8438
G01 X121.6126 Y-116.8315
G01 X121.6126 Y-116.3093
G01 X121.6292 Y-116.3130
G01 X121.6407 Y-116.3143
G01 X121.6530 Y-116.3149
G01 X122.0340 Y-116.3149
G01 X122.0462 Y-116.3143
G01 X122.0568 Y-116.3131
G01 X122.0656 Y-116.3115
G01 X122.0798 Y-116.3077
G01 X122.0899 Y-116.3040
G01 X122.1011 Y-116.2990
G01 X122.2915 Y-116.2038
G01 X122.3023 Y-116.1978
G01 X122.3095 Y-116.1932
G01 X122.3183 Y-116.1866
G01 X122.3288 Y-116.1774
G01 X122.4258 Y-116.0805
G01 X122.4372 Y-116.0676
G01 X122.4430 Y-116.0597
G01 X122.4479 Y-116.0522
G01 X122.4539 Y-116.0415
G01 X122.5491 Y-115.8510
G01 X122.5541 Y-115.8398
G01 X122.5577 Y-115.8298
G01 X122.5601 Y-115.8215
G01 X122.5630 Y-115.8077
G01 X122.5644 Y-115.7961
G01 X122.5650 Y-115.7839
G01 X122.5650 Y-115.2125
G01 X122.5644 Y-115.2002
G01 X122.5625 Y-115.1856
G01 X122.5592 Y-115.1713
G01 X122.5544 Y-115.1573
G01 X122.5491 Y-115.1454
G01 X122.4527 Y-114.9527
G01 X122.4479 Y-114.9442
G01 X122.4433 Y-114.9369
G01 X122.4367 Y-114.9281
G01 X122.4275 Y-114.9176
G01 X122.3305 Y-114.8206
G01 X122.3183 Y-114.8098
G01 X122.3064 Y-114.8011
G01 X122.2915 Y-114.7925
G01 X122.1011 Y-114.6973
G01 X122.0891 Y-114.6920
G01 X122.0759 Y-114.6875
G01 X122.0656 Y-114.6849
G01 X122.0577 Y-114.6834
G01 X122.0462 Y-114.6820
G01 X122.0340 Y-114.6814
G01 X121.6530 Y-114.6814
G01 X121.6448 Y-114.6817
G01 X121.6359 Y-114.6825
G01 X121.6213 Y-114.6849
G01 X121.6118 Y-114.6873
G01 X121.6017 Y-114.6905
G01 X121.5859 Y-114.6973
G01 X121.5545 Y-114.7130
G01 X121.5438 Y-114.7054
G01 X121.5354 Y-114.7004
G01 X121.5222 Y-114.6939
G01 X121.5084 Y-114.6887
G01 X121.4942 Y-114.6849
G01 X121.4797 Y-114.6825
G01 X121.4650 Y-114.6815
G01 X121.4503 Y-114.6820
G01 X121.4357 Y-114.6839
G01 X121.4166 Y-114.6887
G01 X121.4029 Y-114.6939
G01 X121.3897 Y-114.7004
G01 X121.3775 Y-114.7079
G01 X121.3693 Y-114.7140
G01 X121.3582 Y-114.7237
G01 X121.3481 Y-114.7345
G01 X121.3365 Y-114.7502
G01 X121.3291 Y-114.7630
G01 X121.3230 Y-114.7764
G01 X121.3197 Y-114.7856
G01 X121.3159 Y-114.7998
G01 X121.3135 Y-114.8144
G01 X121.3131 Y-114.8192
G00 Z2.0000
G00 X119.7078 Y-115.8437
G01 F60.00
G01 Z-1.7000
G01 F150.00
G01 X119.7649 Y-115.9578
G01 X119.8789 Y-116.0148
G01 X120.2842 Y-116.0148
G01 X120.3601 Y-115.9769
G01 X120.3601 Y-115.5474
G01 X120.3513 Y-115.5496
G01 X120.3425 Y-115.5512
G01 X120.3319 Y-115.5524
G01 X120.3197 Y-115.5530
G01 X119.8789 Y-115.5530
G01 X119.7649 Y-115.6100
G01 X119.7078 Y-115.7241
G01 X119.7078 Y-115.8437
G00 Z2.0000
G00 X119.4077 Y-115.6887
G01 F60.00
G01 Z-1.7000
G01 F150.00
G01 X119.4077 Y-115.8791
G01 X119.4087 Y-115.8963
G01 X119.4102 Y-115.9060
G01 X119.4125 Y-115.9164
G01 X119.4168 Y-115.9304
G01 X119.4236 Y-115.9462
G01 X119.5188 Y-116.1367
G01 X119.5236 Y-116.1456
G01 X119.5330 Y-116.1596
G01 X119.5381 Y-116.1660
G01 X119.5452 Y-116.1739
G01 X119.5517 Y-116.1802
G01 X119.5591 Y-116.1866
G01 X119.5683 Y-116.1934
G01 X119.5752 Y-116.1978
G01 X119.5859 Y-116.2038
G01 X119.7764 Y-116.2990
G01 X119.7922 Y-116.3058
G01 X119.8058 Y-116.3101
G01 X119.8197 Y-116.3130
G01 X119.8304 Y-116.3143
G01 X119.8410 Y-116.3148
G01 X120.3197 Y-116.3149
G01 X120.3319 Y-116.3143
G01 X120.3425 Y-116.3131
G01 X120.3513 Y-116.3115
G01 X120.3656 Y-116.3077
G01 X120.3756 Y-116.3040
G01 X120.3846 Y-116.3001
G01 X120.4182 Y-116.2833
G01 X120.4289 Y-116.2909
G01 X120.4416 Y-116.2983
G01 X120.4505 Y-116.3025
G01 X120.4643 Y-116.3077
G01 X120.4833 Y-116.3124
G01 X120.4979 Y-116.3143
G01 X120.5126 Y-116.3148
G01 X120.5273 Y-116.3139
G01 X120.5370 Y-116.3124
G01 X120.5560 Y-116.3077
G01 X120.5698 Y-116.3025
G01 X120.5830 Y-116.2960
G01 X120.5952 Y-116.2884
G01 X120.6034 Y-116.2823
G01 X120.6145 Y-116.2726
G01 X120.6277 Y-116.2581
G01 X120.6362 Y-116.2461
G01 X120.6436 Y-116.2334
G01 X120.6478 Y-116.2245
G01 X120.6530 Y-116.2107
G01 X120.6568 Y-116.1965
G01 X120.6592 Y-116.1820
G01 X120.6601 Y-116.1673
G01 X120.6602 Y-115.1172
G01 X120.6599 Y-115.1090
G01 X120.6584 Y-115.0944
G01 X120.6555 Y-115.0800
G01 X120.6511 Y-115.0659
G01 X120.6454 Y-115.0523
G01 X120.5491 Y-114.8596
G01 X120.5432 Y-114.8489
G01 X120.5349 Y-114.8367
G01 X120.5298 Y-114.8303
G01 X120.5227 Y-114.8224
G01 X120.5113 Y-114.8118
G01 X120.5049 Y-114.8067
G01 X120.4969 Y-114.8011
G01 X120.4820 Y-114.7925
G01 X120.2915 Y-114.6973
G01 X120.2841 Y-114.6939
G01 X120.2703 Y-114.6887
G01 X120.2561 Y-114.6849
G01 X120.2416 Y-114.6825
G01 X120.2269 Y-114.6815
G01 X119.8435 Y-114.6814
G01 X119.8304 Y-114.6821
G01 X119.8158 Y-114.6841
G01 X119.8062 Y-114.6862
G01 X119.7976 Y-114.6887
G01 X119.7876 Y-114.6923
G01 X119.7764 Y-114.6973
G01 X119.5859 Y-114.7925
G01 X119.5752 Y-114.7985
G01 X119.5630 Y-114.8067
G01 X119.5487 Y-114.8189
G01 X119.5381 Y-114.8303
G01 X119.5292 Y-114.8421
G01 X119.5239 Y-114.8503
G01 X119.5171 Y-114.8634
G01 X119.5099 Y-114.8816
G01 X119.5062 Y-114.8959
G01 X119.5045 Y-114.9055
G01 X119.5031 Y-114.9202
G01 X119.5036 Y-114.9398
G01 X119.5056 Y-114.9544
G01 X119.5077 Y-114.9640
G01 X119.5121 Y-114.9781
G01 X119.5178 Y-114.9916
G01 X119.5273 Y-115.0085
G01 X119.5360 Y-115.0206
G01 X119.5452 Y-115.0311
G01 X119.5529 Y-115.0384
G01 X119.5643 Y-115.0477
G01 X119.5809 Y-115.0583
G01 X119.5941 Y-115.0647
G01 X119.6079 Y-115.0698
G01 X119.6215 Y-115.0734
G01 X119.6367 Y-115.0759
G01 X119.6503 Y-115.0768
G01 X119.6612 Y-115.0765
G01 X119.6758 Y-115.0750
G01 X119.6903 Y-115.0721
G01 X119.7043 Y-115.0677
G01 X119.7201 Y-115.0609
G01 X119.8789 Y-114.9816
G01 X120.1890 Y-114.9816
G01 X120.3031 Y-115.0386
G01 X120.3601 Y-115.1526
G01 X120.3601 Y-115.2150
G01 X120.2842 Y-115.2529
G01 X119.8410 Y-115.2529
G01 X119.8312 Y-115.2534
G01 X119.8206 Y-115.2547
G01 X119.8062 Y-115.2576
G01 X119.7922 Y-115.2620
G01 X119.7764 Y-115.2687
G01 X119.5809 Y-115.3666
G01 X119.5712 Y-115.3724
G01 X119.5591 Y-115.3812
G01 X119.5487 Y-115.3904
G01 X119.5413 Y-115.3980
G01 X119.5360 Y-115.4043
G01 X119.5292 Y-115.4135
G01 X119.5239 Y-115.4218
G01 X119.5188 Y-115.4311
G01 X119.4225 Y-115.6238
G01 X119.4168 Y-115.6373
G01 X119.4135 Y-115.6475
G01 X119.4111 Y-115.6570
G01 X119.4087 Y-115.6715
G01 X119.4077 Y-115.6887
G00 Z2.0000
G00 X117.2172 Y-114.1648
G01 F60.00
G01 Z-1.7000
G01 F150.00
G01 X117.2172 Y-116.1648
G01 X117.2178 Y-116.1771
G01 X117.2197 Y-116.1917
G01 X117.2245 Y-116.2107
G01 X117.2297 Y-116.2245
G01 X117.2362 Y-116.2377
G01 X117.2437 Y-116.2499
G01 X117.2498 Y-116.2581
G01 X117.2630 Y-116.2726
G01 X117.2740 Y-116.2823
G01 X117.2819 Y-116.2882
G01 X117.2987 Y-116.2983
G01 X117.3076 Y-116.3025
G01 X117.3214 Y-116.3077
G01 X117.3398 Y-116.3123
G01 X117.3550 Y-116.3143
G01 X117.3697 Y-116.3148
G01 X117.3795 Y-116.3143
G01 X117.3990 Y-116.3115
G01 X117.4085 Y-116.3091
G01 X117.4224 Y-116.3044
G01 X117.4402 Y-116.2960
G01 X117.4523 Y-116.2884
G01 X117.4605 Y-116.2823
G01 X117.4751 Y-116.2692
G01 X117.4848 Y-116.2581
G01 X117.4906 Y-116.2502
G01 X117.5007 Y-116.2334
G01 X117.5049 Y-116.2245
G01 X117.5101 Y-116.2107
G01 X117.5148 Y-116.1923
G01 X117.5168 Y-116.1771
G01 X117.5173 Y-116.1648
G01 X117.5173 Y-114.8412
G01 X117.8980 Y-115.6569
G01 X117.9037 Y-115.6677
G01 X117.9125 Y-115.6814
G01 X117.9207 Y-115.6917
G01 X117.9248 Y-115.6963
G01 X117.9320 Y-115.7034
G01 X117.9420 Y-115.7119
G01 X117.9554 Y-115.7212
G01 X117.9669 Y-115.7276
G01 X117.9728 Y-115.7304
G01 X117.9818 Y-115.7341
G01 X117.9944 Y-115.7381
G01 X118.0001 Y-115.7396
G01 X118.0125 Y-115.7419
G01 X118.0296 Y-115.7434
G01 X118.0396 Y-115.7433
G01 X118.0528 Y-115.7422
G01 X118.0688 Y-115.7393
G01 X118.0814 Y-115.7357
G01 X118.0875 Y-115.7335
G01 X118.0966 Y-115.7297
G01 X118.1083 Y-115.7237
G01 X118.1220 Y-115.7149
G01 X118.1323 Y-115.7067
G01 X118.1369 Y-115.7025
G01 X118.1440 Y-115.6954
G01 X118.1525 Y-115.6853
G01 X118.1563 Y-115.6802
G01 X118.1635 Y-115.6691
G01 X118.1699 Y-115.6569
G01 X118.5506 Y-114.8412
G01 X118.5506 Y-116.1648
G01 X118.5511 Y-116.1771
G01 X118.5530 Y-116.1917
G01 X118.5564 Y-116.2060
G01 X118.5630 Y-116.2245
G01 X118.5672 Y-116.2334
G01 X118.5745 Y-116.2461
G01 X118.5831 Y-116.2581
G01 X118.5963 Y-116.2726
G01 X118.6074 Y-116.2823
G01 X118.6153 Y-116.2882
G01 X118.6278 Y-116.2960
G01 X118.6455 Y-116.3044
G01 X118.6594 Y-116.3091
G01 X118.6732 Y-116.3123
G01 X118.6835 Y-116.3139
G01 X118.7031 Y-116.3148
G01 X118.7178 Y-116.3139
G01 X118.7275 Y-116.3124
G01 X118.7418 Y-116.3091
G01 X118.7603 Y-116.3025
G01 X118.7692 Y-116.2983
G01 X118.7819 Y-116.2909
G01 X118.7939 Y-116.2823
G01 X118.8049 Y-116.2726
G01 X118.8181 Y-116.2581
G01 X118.8267 Y-116.2461
G01 X118.8341 Y-116.2334
G01 X118.8383 Y-116.2245
G01 X118.8434 Y-116.2107
G01 X118.8472 Y-116.1965
G01 X118.8496 Y-116.1820
G01 X118.8507 Y-116.1648
G01 X118.8507 Y-114.1648
G01 X118.8501 Y-114.1526
G01 X118.8485 Y-114.1396
G01 X118.8465 Y-114.1300
G01 X118.8434 Y-114.1190
G01 X118.8401 Y-114.1097
G01 X118.8341 Y-114.0963
G01 X118.8277 Y-114.0850
G01 X118.8221 Y-114.0768
G01 X118.8150 Y-114.0678
G01 X118.8098 Y-114.0619
G01 X118.7977 Y-114.0505
G01 X118.7913 Y-114.0454
G01 X118.7819 Y-114.0388
G01 X118.7750 Y-114.0345
G01 X118.7663 Y-114.0300
G01 X118.7527 Y-114.0242
G01 X118.7418 Y-114.0206
G01 X118.7345 Y-114.0187
G01 X118.7178 Y-114.0158
G01 X118.7097 Y-114.0151
G01 X118.6982 Y-114.0149
G01 X118.6900 Y-114.0152
G01 X118.6803 Y-114.0162
G01 X118.6658 Y-114.0189
G01 X118.6547 Y-114.0220
G01 X118.6471 Y-114.0247
G01 X118.6321 Y-114.0314
G01 X118.6249 Y-114.0353
G01 X118.6156 Y-114.0412
G01 X118.6087 Y-114.0463
G01 X118.6011 Y-114.0526
G01 X118.5928 Y-114.0605
G01 X118.5873 Y-114.0665
G01 X118.5773 Y-114.0795
G01 X118.5703 Y-114.0905
G01 X118.5646 Y-114.1014
G01 X118.0340 Y-115.2386
G01 X117.5033 Y-114.1014
G01 X117.4951 Y-114.0863
G01 X117.4868 Y-114.0741
G01 X117.4773 Y-114.0629
G01 X117.4702 Y-114.0557
G01 X117.4605 Y-114.0473
G01 X117.4527 Y-114.0415
G01 X117.4430 Y-114.0353
G01 X117.4343 Y-114.0306
G01 X117.4224 Y-114.0253
G01 X117.4132 Y-114.0220
G01 X117.4026 Y-114.0190
G01 X117.3888 Y-114.0163
G01 X117.3779 Y-114.0152
G01 X117.3648 Y-114.0149
G01 X117.3501 Y-114.0158
G01 X117.3404 Y-114.0173
G01 X117.3292 Y-114.0197
G01 X117.3198 Y-114.0225
G01 X117.3076 Y-114.0272
G01 X117.2987 Y-114.0314
G01 X117.2887 Y-114.0370
G01 X117.2766 Y-114.0454
G01 X117.2690 Y-114.0515
G01 X117.2595 Y-114.0605
G01 X117.2529 Y-114.0678
G01 X117.2458 Y-114.0768
G01 X117.2403 Y-114.0850
G01 X117.2339 Y-114.0963
G01 X117.2278 Y-114.1097
G01 X117.2245 Y-114.1190
G01 X117.2215 Y-114.1295
G01 X117.2188 Y-114.1433
G01 X117.2177 Y-114.1543
G01 X117.2172 Y-114.1648
G00 Z2.0000
G00 X114.6458 Y-114.1648
G01 F60.00
G01 Z-1.7000
G01 F150.00
G01 X114.6458 Y-115.8791
G01 X114.6468 Y-115.8963
G01 X114.6492 Y-115.9108
G01 X114.6516 Y-115.9203
G01 X114.6549 Y-115.9304
G01 X114.6617 Y-115.9462
G01 X114.7580 Y-116.1389
G01 X114.7653 Y-116.1514
G01 X114.7741 Y-116.1635
G01 X114.7833 Y-116.1739
G01 X114.7947 Y-116.1845
G01 X114.8011 Y-116.1896
G01 X114.8091 Y-116.1952
G01 X114.8240 Y-116.2038
G01 X115.0145 Y-116.2990
G01 X115.0257 Y-116.3040
G01 X115.0439 Y-116.3101
G01 X115.0578 Y-116.3130
G01 X115.0685 Y-116.3143
G01 X115.0881 Y-116.3147
G01 X115.0979 Y-116.3140
G01 X115.1124 Y-116.3116
G01 X115.1267 Y-116.3079
G01 X115.1405 Y-116.3028
G01 X115.1580 Y-116.2939
G01 X115.1703 Y-116.2858
G01 X115.1817 Y-116.2765
G01 X115.1922 Y-116.2662
G01 X115.2016 Y-116.2549
G01 X115.2098 Y-116.2427
G01 X115.2168 Y-116.2297
G01 X115.2225 Y-116.2162
G01 X115.2268 Y-116.2025
G01 X115.2297 Y-116.1886
G01 X115.2310 Y-116.1779
G01 X115.2316 Y-116.1621
G01 X115.2307 Y-116.1485
G01 X115.2284 Y-116.1340
G01 X115.2246 Y-116.1197
G01 X115.2195 Y-116.1059
G01 X115.2131 Y-116.0927
G01 X115.2054 Y-116.0801
G01 X115.1965 Y-116.0684
G01 X115.1865 Y-116.0576
G01 X115.1755 Y-116.0479
G01 X115.1636 Y-116.0392
G01 X115.1487 Y-116.0306
G01 X115.0029 Y-115.9578
G01 X114.9459 Y-115.8437
G01 X114.9459 Y-114.1648
G01 X114.9449 Y-114.1477
G01 X114.9425 Y-114.1332
G01 X114.9387 Y-114.1190
G01 X114.9335 Y-114.1052
G01 X114.9270 Y-114.0920
G01 X114.9195 Y-114.0798
G01 X114.9134 Y-114.0716
G01 X114.9037 Y-114.0605
G01 X114.8929 Y-114.0505
G01 X114.8812 Y-114.0415
G01 X114.8644 Y-114.0314
G01 X114.8510 Y-114.0253
G01 X114.8371 Y-114.0206
G01 X114.8233 Y-114.0173
G01 X114.8081 Y-114.0153
G01 X114.7934 Y-114.0149
G01 X114.7787 Y-114.0158
G01 X114.7642 Y-114.0182
G01 X114.7500 Y-114.0220
G01 X114.7362 Y-114.0272
G01 X114.7230 Y-114.0337
G01 X114.7108 Y-114.0412
G01 X114.7026 Y-114.0473
G01 X114.6915 Y-114.0570
G01 X114.6815 Y-114.0678
G01 X114.6698 Y-114.0836
G01 X114.6624 Y-114.0963
G01 X114.6563 Y-114.1097
G01 X114.6516 Y-114.1236
G01 X114.6484 Y-114.1374
G01 X114.6464 Y-114.1526
G01 X114.6458 Y-114.1648
G00 Z2.0000
G00 X113.5982 Y-114.1648
G01 F60.00
G01 Z-1.7000
G01 F150.00
G01 X113.5982 Y-115.8791
G01 X113.5992 Y-115.8963
G01 X113.6016 Y-115.9108
G01 X113.6040 Y-115.9203
G01 X113.6073 Y-115.9304
G01 X113.6140 Y-115.9462
G01 X113.7104 Y-116.1389
G01 X113.7177 Y-116.1514
G01 X113.7265 Y-116.1635
G01 X113.7357 Y-116.1739
G01 X113.7471 Y-116.1845
G01 X113.7535 Y-116.1896
G01 X113.7615 Y-116.1952
G01 X113.7764 Y-116.2038
G01 X113.9669 Y-116.2990
G01 X113.9781 Y-116.3040
G01 X113.9963 Y-116.3101
G01 X114.0102 Y-116.3130
G01 X114.0209 Y-116.3143
G01 X114.0405 Y-116.3147
G01 X114.0503 Y-116.3140
G01 X114.0648 Y-116.3116
G01 X114.0791 Y-116.3079
G01 X114.0929 Y-116.3028
G01 X114.1104 Y-116.2939
G01 X114.1227 Y-116.2858
G01 X114.1341 Y-116.2765
G01 X114.1446 Y-116.2662
G01 X114.1540 Y-116.2549
G01 X114.1622 Y-116.2427
G01 X114.1692 Y-116.2297
G01 X114.1749 Y-116.2162
G01 X114.1792 Y-116.2025
G01 X114.1821 Y-116.1886
G01 X114.1834 Y-116.1779
G01 X114.1840 Y-116.1621
G01 X114.1831 Y-116.1485
G01 X114.1808 Y-116.1340
G01 X114.1770 Y-116.1197
G01 X114.1719 Y-116.1059
G01 X114.1655 Y-116.0927
G01 X114.1578 Y-116.0801
G01 X114.1489 Y-116.0684
G01 X114.1389 Y-116.0576
G01 X114.1279 Y-116.0479
G01 X114.1159 Y-116.0392
G01 X114.1011 Y-116.0306
G01 X113.9553 Y-115.9578
G01 X113.8983 Y-115.8437
G01 X113.8983 Y-114.1648
G01 X113.8973 Y-114.1477
G01 X113.8949 Y-114.1332
G01 X113.8911 Y-114.1190
G01 X113.8859 Y-114.1052
G01 X113.8794 Y-114.0920
G01 X113.8718 Y-114.0798
G01 X113.8657 Y-114.0716
G01 X113.8560 Y-114.0605
G01 X113.8453 Y-114.0505
G01 X113.8336 Y-114.0415
G01 X113.8168 Y-114.0314
G01 X113.8034 Y-114.0253
G01 X113.7894 Y-114.0206
G01 X113.7757 Y-114.0173
G01 X113.7605 Y-114.0153
G01 X113.7458 Y-114.0149
G01 X113.7311 Y-114.0158
G01 X113.7166 Y-114.0182
G01 X113.7024 Y-114.0220
G01 X113.6886 Y-114.0272
G01 X113.6754 Y-114.0337
G01 X113.6632 Y-114.0412
G01 X113.6550 Y-114.0473
G01 X113.6439 Y-114.0570
G01 X113.6339 Y-114.0678
G01 X113.6222 Y-114.0836
G01 X113.6148 Y-114.0963
G01 X113.6087 Y-114.1097
G01 X113.6040 Y-114.1236
G01 X113.6007 Y-114.1374
G01 X113.5987 Y-114.1526
G01 X113.5982 Y-114.1648
G00 Z2.0000
G00 X112.5506 Y-114.2576
G01 F60.00
G01 Z-1.7000
G01 F150.00
G01 X112.5513 Y-114.2748
G01 X112.5535 Y-114.2894
G01 X112.5570 Y-114.3036
G01 X112.5620 Y-114.3175
G01 X112.5683 Y-114.3308
G01 X112.5759 Y-114.3435
G01 X112.5846 Y-114.3553
G01 X112.5945 Y-114.3662
G01 X112.6898 Y-114.4614
G01 X112.7007 Y-114.4713
G01 X112.7125 Y-114.4801
G01 X112.7273 Y-114.4887
G01 X112.7384 Y-114.4939
G01 X112.7523 Y-114.4989
G01 X112.7690 Y-114.5029
G01 X112.7812 Y-114.5046
G01 X112.7959 Y-114.5054
G01 X112.8106 Y-114.5046
G01 X112.8227 Y-114.5029
G01 X112.8394 Y-114.4989
G01 X112.8533 Y-114.4939
G01 X112.8644 Y-114.4887
G01 X112.8792 Y-114.4801
G01 X112.8911 Y-114.4713
G01 X112.9020 Y-114.4614
G01 X112.9972 Y-114.3662
G01 X113.0071 Y-114.3553
G01 X113.0159 Y-114.3435
G01 X113.0234 Y-114.3308
G01 X113.0297 Y-114.3175
G01 X113.0347 Y-114.3036
G01 X113.0383 Y-114.2894
G01 X113.0404 Y-114.2748
G01 X113.0412 Y-114.2601
G01 X113.0404 Y-114.2454
G01 X113.0383 Y-114.2308
G01 X113.0347 Y-114.2165
G01 X113.0297 Y-114.2027
G01 X113.0234 Y-114.1894
G01 X113.0159 Y-114.1767
G01 X113.0071 Y-114.1649
G01 X112.9972 Y-114.1540
G01 X112.9020 Y-114.0587
G01 X112.8929 Y-114.0505
G01 X112.8812 Y-114.0415
G01 X112.8644 Y-114.0314
G01 X112.8555 Y-114.0272
G01 X112.8417 Y-114.0220
G01 X112.8233 Y-114.0173
G01 X112.8130 Y-114.0158
G01 X112.7983 Y-114.0149
G01 X112.7836 Y-114.0153
G01 X112.7690 Y-114.0173
G01 X112.7547 Y-114.0206
G01 X112.7407 Y-114.0253
G01 X112.7273 Y-114.0314
G01 X112.7146 Y-114.0388
G01 X112.7026 Y-114.0473
G01 X112.6898 Y-114.0587
G01 X112.5945 Y-114.1540
G01 X112.5846 Y-114.1649
G01 X112.5759 Y-114.1767
G01 X112.5683 Y-114.1893
G01 X112.5630 Y-114.2004
G01 X112.5570 Y-114.2165
G01 X112.5530 Y-114.2332
G01 X112.5513 Y-114.2454
G01 X112.5506 Y-114.2576
G00 Z2.0000
G00 X112.6458 Y-114.8315
G01 F60.00
G01 Z-1.7000
G01 F150.00
G01 X112.6458 Y-116.1648
G01 X112.6468 Y-116.1820
G01 X112.6492 Y-116.1965
G01 X112.6530 Y-116.2107
G01 X112.6582 Y-116.2245
G01 X112.6647 Y-116.2377
G01 X112.6723 Y-116.2499
G01 X112.6815 Y-116.2619
G01 X112.6915 Y-116.2726
G01 X112.7026 Y-116.2823
G01 X112.7146 Y-116.2909
G01 X112.7273 Y-116.2983
G01 X112.7407 Y-116.3044
G01 X112.7547 Y-116.3091
G01 X112.7684 Y-116.3123
G01 X112.7836 Y-116.3143
G01 X112.7983 Y-116.3148
G01 X112.8130 Y-116.3139
G01 X112.8227 Y-116.3124
G01 X112.8371 Y-116.3091
G01 X112.8510 Y-116.3044
G01 X112.8644 Y-116.2983
G01 X112.8812 Y-116.2882
G01 X112.8929 Y-116.2792
G01 X112.9037 Y-116.2692
G01 X112.9134 Y-116.2581
G01 X112.9219 Y-116.2461
G01 X112.9270 Y-116.2377
G01 X112.9335 Y-116.2245
G01 X112.9401 Y-116.2060
G01 X112.9434 Y-116.1923
G01 X112.9454 Y-116.1771
G01 X112.9459 Y-116.1648
G01 X112.9459 Y-114.8315
G01 X112.9449 Y-114.8144
G01 X112.9425 Y-114.7998
G01 X112.9387 Y-114.7856
G01 X112.9335 Y-114.7718
G01 X112.9270 Y-114.7586
G01 X112.9195 Y-114.7465
G01 X112.9102 Y-114.7345
G01 X112.9002 Y-114.7237
G01 X112.8891 Y-114.7140
G01 X112.8771 Y-114.7054
G01 X112.8644 Y-114.6981
G01 X112.8510 Y-114.6920
G01 X112.8371 Y-114.6873
G01 X112.8233 Y-114.6840
G01 X112.8130 Y-114.6825
G01 X112.7983 Y-114.6815
G01 X112.7836 Y-114.6820
G01 X112.7690 Y-114.6839
G01 X112.7547 Y-114.6873
G01 X112.7407 Y-114.6920
G01 X112.7273 Y-114.6981
G01 X112.7105 Y-114.7082
G01 X112.6988 Y-114.7171
G01 X112.6881 Y-114.7272
G01 X112.6784 Y-114.7382
G01 X112.6698 Y-114.7502
G01 X112.6624 Y-114.7630
G01 X112.6563 Y-114.7764
G01 X112.6516 Y-114.7903
G01 X112.6484 Y-114.8040
G01 X112.6464 Y-114.8192
G01 X112.6458 Y-114.8315
G00 Z2.0000
G00 X111.4077 Y-114.8315
G01 F60.00
G01 Z-1.7000
G01 F150.00
G01 X111.4077 Y-116.1648
G01 X111.4087 Y-116.1820
G01 X111.4111 Y-116.1965
G01 X111.4150 Y-116.2107
G01 X111.4201 Y-116.2245
G01 X111.4266 Y-116.2377
G01 X111.4342 Y-116.2499
G01 X111.4434 Y-116.2619
G01 X111.4534 Y-116.2726
G01 X111.4645 Y-116.2823
G01 X111.4765 Y-116.2909
G01 X111.4892 Y-116.2983
G01 X111.5026 Y-116.3044
G01 X111.5166 Y-116.3091
G01 X111.5303 Y-116.3123
G01 X111.5455 Y-116.3143
G01 X111.5602 Y-116.3148
G01 X111.5749 Y-116.3139
G01 X111.5846 Y-116.3124
G01 X111.5990 Y-116.3091
G01 X111.6129 Y-116.3044
G01 X111.6263 Y-116.2983
G01 X111.6431 Y-116.2882
G01 X111.6548 Y-116.2792
G01 X111.6656 Y-116.2692
G01 X111.6753 Y-116.2581
G01 X111.6811 Y-116.2502
G01 X111.6912 Y-116.2334
G01 X111.6973 Y-116.2200
G01 X111.7020 Y-116.2060
G01 X111.7053 Y-116.1923
G01 X111.7068 Y-116.1820
G01 X111.7078 Y-116.1648
G01 X111.7078 Y-115.2479
G01 X111.7763 Y-115.1109
G01 X111.8371 Y-115.0501
G01 X111.9741 Y-114.9816
G01 X112.1292 Y-114.9816
G01 X112.1415 Y-114.9810
G01 X112.1561 Y-114.9791
G01 X112.1704 Y-114.9757
G01 X112.1843 Y-114.9710
G01 X112.1977 Y-114.9649
G01 X112.2142 Y-114.9551
G01 X112.2225 Y-114.9490
G01 X112.2335 Y-114.9393
G01 X112.2467 Y-114.9248
G01 X112.2525 Y-114.9169
G01 X112.2603 Y-114.9044
G01 X112.2687 Y-114.8866
G01 X112.2734 Y-114.8727
G01 X112.2767 Y-114.8590
G01 X112.2782 Y-114.8486
G01 X112.2792 Y-114.8340
G01 X112.2782 Y-114.8144
G01 X112.2768 Y-114.8046
G01 X112.2734 Y-114.7903
G01 X112.2687 Y-114.7764
G01 X112.2626 Y-114.7630
G01 X112.2528 Y-114.7465
G01 X112.2467 Y-114.7382
G01 X112.2370 Y-114.7272
G01 X112.2225 Y-114.7140
G01 X112.2146 Y-114.7082
G01 X112.2021 Y-114.7004
G01 X112.1843 Y-114.6920
G01 X112.1704 Y-114.6873
G01 X112.1567 Y-114.6840
G01 X112.1415 Y-114.6820
G01 X112.1292 Y-114.6814
G01 X111.9387 Y-114.6814
G01 X111.9216 Y-114.6825
G01 X111.9071 Y-114.6849
G01 X111.8975 Y-114.6873
G01 X111.8874 Y-114.6905
G01 X111.8716 Y-114.6973
G01 X111.6997 Y-114.7832
G01 X111.6954 Y-114.7718
G01 X111.6889 Y-114.7586
G01 X111.6814 Y-114.7465
G01 X111.6753 Y-114.7382
G01 X111.6621 Y-114.7237
G01 X111.6510 Y-114.7140
G01 X111.6431 Y-114.7082
G01 X111.6263 Y-114.6981
G01 X111.6129 Y-114.6920
G01 X111.5990 Y-114.6873
G01 X111.5852 Y-114.6840
G01 X111.5749 Y-114.6825
G01 X111.5553 Y-114.6815
G01 X111.5406 Y-114.6825
G01 X111.5261 Y-114.6849
G01 X111.5119 Y-114.6887
G01 X111.4981 Y-114.6939
G01 X111.4849 Y-114.7004
G01 X111.4727 Y-114.7079
G01 X111.4607 Y-114.7171
G01 X111.4500 Y-114.7272
G01 X111.4403 Y-114.7382
G01 X111.4317 Y-114.7502
G01 X111.4243 Y-114.7630
G01 X111.4183 Y-114.7764
G01 X111.4135 Y-114.7903
G01 X111.4103 Y-114.8040
G01 X111.4083 Y-114.8192
G01 X111.4077 Y-114.8315
G00 Z2.0000
G00 X109.7078 Y-116.0148
G01 F60.00
G01 Z-1.7000
G01 F150.00
G01 X110.0096 Y-116.0148
G01 X110.2386 Y-115.9385
G01 X110.3868 Y-115.7902
G01 X110.4638 Y-115.6363
G01 X110.5506 Y-115.2892
G01 X110.5506 Y-115.0405
G01 X110.4638 Y-114.6934
G01 X110.3868 Y-114.5394
G01 X110.2386 Y-114.3912
G01 X110.0096 Y-114.3149
G01 X109.7078 Y-114.3149
G01 X109.7078 Y-116.0148
G00 Z2.0000
G00 X109.4078 Y-116.1673
G01 F60.00
G01 Z-1.7000
G01 F150.00
G01 X109.4087 Y-116.1820
G01 X109.4102 Y-116.1917
G01 X109.4150 Y-116.2107
G01 X109.4201 Y-116.2245
G01 X109.4266 Y-116.2377
G01 X109.4342 Y-116.2499
G01 X109.4403 Y-116.2581
G01 X109.4500 Y-116.2692
G01 X109.4607 Y-116.2792
G01 X109.4765 Y-116.2909
G01 X109.4849 Y-116.2960
G01 X109.4981 Y-116.3025
G01 X109.5119 Y-116.3077
G01 X109.5261 Y-116.3115
G01 X109.5406 Y-116.3139
G01 X109.5578 Y-116.3149
G01 X110.0340 Y-116.3149
G01 X110.0462 Y-116.3143
G01 X110.0608 Y-116.3124
G01 X110.0696 Y-116.3106
G01 X110.0814 Y-116.3072
G01 X110.3694 Y-116.2111
G01 X110.3831 Y-116.2056
G01 X110.3956 Y-116.1990
G01 X110.4047 Y-116.1932
G01 X110.4161 Y-116.1845
G01 X110.4258 Y-116.1757
G01 X110.6163 Y-115.9852
G01 X110.6245 Y-115.9762
G01 X110.6301 Y-115.9691
G01 X110.6384 Y-115.9570
G01 X110.6444 Y-115.9462
G01 X110.7396 Y-115.7558
G01 X110.7458 Y-115.7414
G01 X110.7510 Y-115.7250
G01 X110.8462 Y-115.3441
G01 X110.8492 Y-115.3284
G01 X110.8503 Y-115.3174
G01 X110.8507 Y-115.3077
G01 X110.8507 Y-115.0220
G01 X110.8497 Y-115.0048
G01 X110.8473 Y-114.9903
G01 X110.7510 Y-114.6046
G01 X110.7475 Y-114.5929
G01 X110.7446 Y-114.5851
G01 X110.7396 Y-114.5739
G01 X110.6432 Y-114.3813
G01 X110.6384 Y-114.3727
G01 X110.6337 Y-114.3655
G01 X110.6271 Y-114.3567
G01 X110.6180 Y-114.3462
G01 X110.4258 Y-114.1540
G01 X110.4161 Y-114.1452
G01 X110.4050 Y-114.1367
G01 X110.3961 Y-114.1310
G01 X110.3831 Y-114.1241
G01 X110.3671 Y-114.1177
G01 X110.0814 Y-114.0225
G01 X110.0696 Y-114.0191
G01 X110.0614 Y-114.0173
G01 X110.0503 Y-114.0157
G01 X110.0367 Y-114.0148
G01 X109.5578 Y-114.0148
G01 X109.5406 Y-114.0158
G01 X109.5309 Y-114.0173
G01 X109.5166 Y-114.0206
G01 X109.5026 Y-114.0253
G01 X109.4892 Y-114.0314
G01 X109.4727 Y-114.0412
G01 X109.4607 Y-114.0505
G01 X109.4500 Y-114.0605
G01 X109.4434 Y-114.0678
G01 X109.4317 Y-114.0836
G01 X109.4243 Y-114.0963
G01 X109.4201 Y-114.1052
G01 X109.4150 Y-114.1190
G01 X109.4111 Y-114.1332
G01 X109.4087 Y-114.1477
G01 X109.4077 Y-114.1648
G01 X109.4078 Y-116.1673
G00 Z2.0000
G00 X109.3125 Y-119.1267
G01 F60.00
G01 Z-1.7000
G01 F150.00
G01 X109.3125 Y-119.6029
G01 X109.3130 Y-119.6152
G01 X109.3149 Y-119.6298
G01 X109.3170 Y-119.6393
G01 X109.4122 Y-120.0203
G01 X109.4157 Y-120.0320
G01 X109.4186 Y-120.0398
G01 X109.4236 Y-120.0510
G01 X109.5188 Y-120.2415
G01 X109.5273 Y-120.2562
G01 X109.5330 Y-120.2644
G01 X109.5386 Y-120.2714
G01 X109.5469 Y-120.2805
G01 X109.6421 Y-120.3757
G01 X109.6543 Y-120.3866
G01 X109.6669 Y-120.3957
G01 X109.6811 Y-120.4038
G01 X109.8738 Y-120.5001
G01 X109.8874 Y-120.5058
G01 X109.8975 Y-120.5091
G01 X109.9111 Y-120.5123
G01 X109.9216 Y-120.5139
G01 X109.9387 Y-120.5149
G01 X110.1292 Y-120.5149
G01 X110.1463 Y-120.5139
G01 X110.1561 Y-120.5124
G01 X110.1665 Y-120.5102
G01 X110.1805 Y-120.5058
G01 X110.1963 Y-120.4990
G01 X110.3868 Y-120.4038
G01 X110.4015 Y-120.3954
G01 X110.4097 Y-120.3896
G01 X110.4167 Y-120.3840
G01 X110.4258 Y-120.3757
G01 X110.5210 Y-120.2805
G01 X110.5293 Y-120.2714
G01 X110.5383 Y-120.2597
G01 X110.5432 Y-120.2522
G01 X110.5491 Y-120.2415
G01 X110.6468 Y-120.0457
G01 X110.6522 Y-120.0320
G01 X110.6557 Y-120.0203
G01 X110.7510 Y-119.6393
G01 X110.7540 Y-119.6236
G01 X110.7551 Y-119.6127
G01 X110.7554 Y-119.6029
G01 X110.7554 Y-119.1267
G01 X110.7549 Y-119.1145
G01 X110.7530 Y-119.0999
G01 X110.7510 Y-119.0903
G01 X110.6557 Y-118.7094
G01 X110.6522 Y-118.6976
G01 X110.6494 Y-118.6899
G01 X110.6444 Y-118.6787
G01 X110.5491 Y-118.4882
G01 X110.5407 Y-118.4735
G01 X110.5349 Y-118.4653
G01 X110.5293 Y-118.4583
G01 X110.5210 Y-118.4492
G01 X110.4258 Y-118.3540
G01 X110.4136 Y-118.3431
G01 X110.4010 Y-118.3340
G01 X110.3868 Y-118.3259
G01 X110.1963 Y-118.2306
G01 X110.1851 Y-118.2256
G01 X110.1751 Y-118.2220
G01 X110.1668 Y-118.2196
G01 X110.1530 Y-118.2167
G01 X110.1415 Y-118.2153
G01 X110.1292 Y-118.2148
G01 X109.9387 Y-118.2148
G01 X109.9216 Y-118.2158
G01 X109.9071 Y-118.2182
G01 X109.8975 Y-118.2206
G01 X109.8874 Y-118.2239
G01 X109.8716 Y-118.2306
G01 X109.6754 Y-118.3290
G01 X109.6664 Y-118.3343
G01 X109.6582 Y-118.3401
G01 X109.6512 Y-118.3457
G01 X109.6439 Y-118.3523
G01 X109.5469 Y-118.4492
G01 X109.5386 Y-118.4583
G01 X109.5297 Y-118.4699
G01 X109.5248 Y-118.4775
G01 X109.5188 Y-118.4882
G01 X109.4211 Y-118.6839
G01 X109.4157 Y-118.6976
G01 X109.4122 Y-118.7094
G01 X109.3170 Y-119.0903
G01 X109.3139 Y-119.1060
G01 X109.3128 Y-119.1170
G01 X109.3125 Y-119.1267
G00 Z2.0000
G00 X109.6126 Y-119.5845
G01 F60.00
G01 Z-1.7000
G01 F150.00
G01 X109.6993 Y-119.9315
G01 X109.7763 Y-120.0855
G01 X109.8371 Y-120.1463
G01 X109.9741 Y-120.2148
G01 X110.0938 Y-120.2148
G01 X110.2308 Y-120.1463
G01 X110.2916 Y-120.0855
G01 X110.3686 Y-119.9315
G01 X110.4553 Y-119.5845
G01 X110.4553 Y-119.1452
G01 X110.3686 Y-118.7982
G01 X110.2916 Y-118.6442
G01 X110.2308 Y-118.5834
G01 X110.0938 Y-118.5149
G01 X109.9741 Y-118.5149
G01 X109.8371 Y-118.5834
G01 X109.7763 Y-118.6442
G01 X109.6993 Y-118.7982
G01 X109.6126 Y-119.1452
G01 X109.6126 Y-119.5845
G00 Z2.0000
G00 X111.2173 Y-120.2721
G01 F60.00
G01 Z-1.7000
G01 F150.00
G01 X111.2183 Y-120.2867
G01 X111.2197 Y-120.2965
G01 X111.2245 Y-120.3155
G01 X111.2278 Y-120.3247
G01 X111.2339 Y-120.3381
G01 X111.2437 Y-120.3546
G01 X111.2529 Y-120.3666
G01 X111.2612 Y-120.3757
G01 X111.3564 Y-120.4709
G01 X111.3693 Y-120.4823
G01 X111.3812 Y-120.4909
G01 X111.3940 Y-120.4983
G01 X111.4074 Y-120.5044
G01 X111.4213 Y-120.5091
G01 X111.4351 Y-120.5123
G01 X111.4503 Y-120.5143
G01 X111.4650 Y-120.5148
G01 X111.4797 Y-120.5139
G01 X111.4894 Y-120.5124
G01 X111.5084 Y-120.5077
G01 X111.5177 Y-120.5044
G01 X111.5311 Y-120.4983
G01 X111.5476 Y-120.4884
G01 X111.5596 Y-120.4792
G01 X111.5686 Y-120.4709
G01 X111.6639 Y-120.3757
G01 X111.6753 Y-120.3629
G01 X111.6838 Y-120.3509
G01 X111.6912 Y-120.3381
G01 X111.6973 Y-120.3247
G01 X111.7020 Y-120.3108
G01 X111.7053 Y-120.2971
G01 X111.7073 Y-120.2819
G01 X111.7078 Y-120.2671
G01 X111.7068 Y-120.2525
G01 X111.7054 Y-120.2427
G01 X111.7006 Y-120.2237
G01 X111.6973 Y-120.2145
G01 X111.6912 Y-120.2011
G01 X111.6814 Y-120.1846
G01 X111.6722 Y-120.1726
G01 X111.6639 Y-120.1635
G01 X111.5686 Y-120.0683
G01 X111.5558 Y-120.0569
G01 X111.5438 Y-120.0483
G01 X111.5311 Y-120.0409
G01 X111.5177 Y-120.0348
G01 X111.5037 Y-120.0301
G01 X111.4900 Y-120.0269
G01 X111.4748 Y-120.0249
G01 X111.4601 Y-120.0244
G01 X111.4454 Y-120.0253
G01 X111.4357 Y-120.0268
G01 X111.4166 Y-120.0315
G01 X111.4074 Y-120.0348
G01 X111.3940 Y-120.0409
G01 X111.3775 Y-120.0508
G01 X111.3655 Y-120.0600
G01 X111.3564 Y-120.0683
G01 X111.2612 Y-120.1635
G01 X111.2498 Y-120.1763
G01 X111.2412 Y-120.1883
G01 X111.2339 Y-120.2011
G01 X111.2278 Y-120.2145
G01 X111.2230 Y-120.2284
G01 X111.2198 Y-120.2421
G01 X111.2178 Y-120.2573
G01 X111.2173 Y-120.2721
G00 Z2.0000
G00 X112.7360 Y-119.3720
G01 F60.00
G01 Z-1.7000
G01 F150.00
G01 X112.5990 Y-119.4405
G01 X112.5382 Y-119.5013
G01 X112.4697 Y-119.6384
G01 X112.4697 Y-119.9485
G01 X112.5382 Y-120.0855
G01 X112.5990 Y-120.1463
G01 X112.7360 Y-120.2148
G01 X113.0462 Y-120.2148
G01 X113.1832 Y-120.1463
G01 X113.2440 Y-120.0855
G01 X113.3125 Y-119.9485
G01 X113.3125 Y-119.6384
G01 X113.2440 Y-119.5013
G01 X113.1832 Y-119.4405
G01 X113.0462 Y-119.3720
G01 X112.7360 Y-119.3720
G00 Z2.0000
G00 X112.4697 Y-118.8056
G01 F60.00
G01 Z-1.7000
G01 F150.00
G01 X112.5382 Y-118.9426
G01 X112.5990 Y-119.0034
G01 X112.7360 Y-119.0719
G01 X113.0462 Y-119.0719
G01 X113.1832 Y-119.0034
G01 X113.2440 Y-118.9426
G01 X113.3125 Y-118.8056
G01 X113.3125 Y-118.7812
G01 X113.2440 Y-118.6442
G01 X113.1832 Y-118.5834
G01 X113.0462 Y-118.5149
G01 X112.7360 Y-118.5149
G01 X112.5990 Y-118.5834
G01 X112.5382 Y-118.6442
G01 X112.4697 Y-118.7812
G01 X112.4697 Y-118.8056
G00 Z2.0000
G00 X112.1696 Y-118.7458
G01 F60.00
G01 Z-1.7000
G01 F150.00
G01 X112.1696 Y-118.8410
G01 X112.1702 Y-118.8541
G01 X112.1721 Y-118.8679
G01 X112.1754 Y-118.8822
G01 X112.1802 Y-118.8962
G01 X112.1844 Y-118.9059
G01 X112.2807 Y-119.0986
G01 X112.2892 Y-119.1133
G01 X112.2974 Y-119.1248
G01 X112.3071 Y-119.1358
G01 X112.3932 Y-119.2220
G01 X112.3071 Y-119.3081
G01 X112.3005 Y-119.3154
G01 X112.2949 Y-119.3224
G01 X112.2867 Y-119.3346
G01 X112.2807 Y-119.3454
G01 X112.1855 Y-119.5358
G01 X112.1820 Y-119.5433
G01 X112.1787 Y-119.5516
G01 X112.1744 Y-119.5653
G01 X112.1715 Y-119.5792
G01 X112.1702 Y-119.5898
G01 X112.1696 Y-119.6029
G01 X112.1696 Y-119.9839
G01 X112.1702 Y-119.9970
G01 X112.1722 Y-120.0115
G01 X112.1744 Y-120.0211
G01 X112.1769 Y-120.0298
G01 X112.1805 Y-120.0398
G01 X112.1855 Y-120.0510
G01 X112.2807 Y-120.2415
G01 X112.2867 Y-120.2522
G01 X112.2949 Y-120.2644
G01 X112.3005 Y-120.2714
G01 X112.3088 Y-120.2805
G01 X112.4040 Y-120.3757
G01 X112.4162 Y-120.3866
G01 X112.4289 Y-120.3957
G01 X112.4430 Y-120.4038
G01 X112.6357 Y-120.5001
G01 X112.6455 Y-120.5044
G01 X112.6594 Y-120.5091
G01 X112.6732 Y-120.5123
G01 X112.6835 Y-120.5139
G01 X112.7006 Y-120.5149
G01 X113.0816 Y-120.5149
G01 X113.0947 Y-120.5143
G01 X113.1084 Y-120.5124
G01 X113.1188 Y-120.5102
G01 X113.1275 Y-120.5077
G01 X113.1375 Y-120.5040
G01 X113.1487 Y-120.4990
G01 X113.3392 Y-120.4038
G01 X113.3499 Y-120.3978
G01 X113.3621 Y-120.3896
G01 X113.3691 Y-120.3840
G01 X113.3782 Y-120.3757
G01 X113.4734 Y-120.2805
G01 X113.4843 Y-120.2683
G01 X113.4934 Y-120.2556
G01 X113.5015 Y-120.2415
G01 X113.5967 Y-120.0510
G01 X113.6002 Y-120.0435
G01 X113.6035 Y-120.0352
G01 X113.6078 Y-120.0215
G01 X113.6107 Y-120.0077
G01 X113.6123 Y-119.9921
G01 X113.6126 Y-119.9839
G01 X113.6126 Y-119.6029
G01 X113.6120 Y-119.5907
G01 X113.6108 Y-119.5801
G01 X113.6092 Y-119.5713
G01 X113.6065 Y-119.5609
G01 X113.6020 Y-119.5478
G01 X113.5967 Y-119.5358
G01 X113.5015 Y-119.3454
G01 X113.4930 Y-119.3307
G01 X113.4848 Y-119.3192
G01 X113.4751 Y-119.3081
G01 X113.3890 Y-119.2220
G01 X113.4751 Y-119.1358
G01 X113.4817 Y-119.1285
G01 X113.4873 Y-119.1215
G01 X113.4955 Y-119.1093
G01 X113.5015 Y-119.0986
G01 X113.5978 Y-118.9059
G01 X113.6020 Y-118.8962
G01 X113.6068 Y-118.8822
G01 X113.6100 Y-118.8685
G01 X113.6116 Y-118.8582
G01 X113.6126 Y-118.8410
G01 X113.6123 Y-118.7376
G01 X113.6116 Y-118.7286
G01 X113.6101 Y-118.7189
G01 X113.6078 Y-118.7085
G01 X113.6053 Y-118.6999
G01 X113.6017 Y-118.6899
G01 X113.5967 Y-118.6787
G01 X113.5015 Y-118.4882
G01 X113.4955 Y-118.4775
G01 X113.4873 Y-118.4653
G01 X113.4817 Y-118.4583
G01 X113.4734 Y-118.4492
G01 X113.3781 Y-118.3540
G01 X113.3660 Y-118.3431
G01 X113.3540 Y-118.3345
G01 X113.3392 Y-118.3259
G01 X113.1487 Y-118.2306
G01 X113.1367 Y-118.2253
G01 X113.1236 Y-118.2208
G01 X113.1132 Y-118.2182
G01 X113.1054 Y-118.2167
G01 X113.0938 Y-118.2153
G01 X113.0816 Y-118.2148
G01 X112.7006 Y-118.2148
G01 X112.6835 Y-118.2158
G01 X112.6690 Y-118.2182
G01 X112.6594 Y-118.2206
G01 X112.6493 Y-118.2239
G01 X112.6335 Y-118.2306
G01 X112.4430 Y-118.3259
G01 X112.4283 Y-118.3343
G01 X112.4169 Y-118.3426
G01 X112.4058 Y-118.3523
G01 X112.3071 Y-118.4510
G01 X112.2979 Y-118.4614
G01 X112.2916 Y-118.4699
G01 X112.2867 Y-118.4775
G01 X112.2819 Y-118.4860
G01 X112.1844 Y-118.6809
G01 X112.1787 Y-118.6945
G01 X112.1754 Y-118.7046
G01 X112.1730 Y-118.7141
G01 X112.1706 Y-118.7286
G01 X112.1696 Y-118.7458
G00 Z2.0000
G00 X114.0744 Y-119.3195
G01 F60.00
G01 Z-1.7000
G01 F150.00
G01 X114.0751 Y-119.3319
G01 X114.0773 Y-119.3465
G01 X114.0808 Y-119.3607
G01 X114.0858 Y-119.3746
G01 X114.0921 Y-119.3879
G01 X114.0996 Y-119.4006
G01 X114.1084 Y-119.4124
G01 X114.1201 Y-119.4250
G01 X114.1292 Y-119.4332
G01 X114.1431 Y-119.4433
G01 X114.1559 Y-119.4507
G01 X114.1670 Y-119.4558
G01 X114.1783 Y-119.4600
G01 X114.1950 Y-119.4644
G01 X114.2095 Y-119.4665
G01 X114.2242 Y-119.4673
G01 X114.2365 Y-119.4667
G01 X114.2537 Y-119.4644
G01 X114.2703 Y-119.4600
G01 X114.2818 Y-119.4559
G01 X114.2928 Y-119.4508
G01 X114.3055 Y-119.4434
G01 X114.3195 Y-119.4333
G01 X114.3304 Y-119.4235
G01 X114.4086 Y-119.3453
G01 X114.5456 Y-119.2768
G01 X114.9509 Y-119.2768
G01 X115.0879 Y-119.3453
G01 X115.1487 Y-119.4061
G01 X115.2172 Y-119.5431
G01 X115.2172 Y-119.9485
G01 X115.1487 Y-120.0855
G01 X115.0879 Y-120.1463
G01 X114.9509 Y-120.2148
G01 X114.5456 Y-120.2148
G01 X114.4086 Y-120.1463
G01 X114.3288 Y-120.0666
G01 X114.3177 Y-120.0569
G01 X114.3098 Y-120.0510
G01 X114.2930 Y-120.0409
G01 X114.2796 Y-120.0348
G01 X114.2656 Y-120.0301
G01 X114.2519 Y-120.0269
G01 X114.2416 Y-120.0253
G01 X114.2269 Y-120.0244
G01 X114.2122 Y-120.0249
G01 X114.1976 Y-120.0268
G01 X114.1832 Y-120.0301
G01 X114.1693 Y-120.0348
G01 X114.1559 Y-120.0409
G01 X114.1391 Y-120.0510
G01 X114.1274 Y-120.0600
G01 X114.1166 Y-120.0700
G01 X114.1069 Y-120.0811
G01 X114.0984 Y-120.0931
G01 X114.0933 Y-120.1015
G01 X114.0868 Y-120.1147
G01 X114.0816 Y-120.1285
G01 X114.0778 Y-120.1427
G01 X114.0749 Y-120.1621
G01 X114.0744 Y-120.1768
G01 X114.0754 Y-120.1915
G01 X114.0768 Y-120.2012
G01 X114.0802 Y-120.2156
G01 X114.0868 Y-120.2340
G01 X114.0910 Y-120.2429
G01 X114.0984 Y-120.2556
G01 X114.1069 Y-120.2676
G01 X114.1183 Y-120.2805
G01 X114.2183 Y-120.3802
G01 X114.2264 Y-120.3871
G01 X114.2343 Y-120.3929
G01 X114.2418 Y-120.3978
G01 X114.2526 Y-120.4038
G01 X114.4453 Y-120.5001
G01 X114.4588 Y-120.5058
G01 X114.4690 Y-120.5091
G01 X114.4785 Y-120.5115
G01 X114.4930 Y-120.5139
G01 X114.5102 Y-120.5149
G01 X114.9863 Y-120.5149
G01 X114.9994 Y-120.5143
G01 X115.0132 Y-120.5124
G01 X115.0236 Y-120.5102
G01 X115.0322 Y-120.5077
G01 X115.0422 Y-120.5040
G01 X115.0534 Y-120.4990
G01 X115.2439 Y-120.4038
G01 X115.2586 Y-120.3954
G01 X115.2701 Y-120.3871
G01 X115.2829 Y-120.3757
G01 X115.3782 Y-120.2805
G01 X115.3890 Y-120.2683
G01 X115.3981 Y-120.2556
G01 X115.4063 Y-120.2415
G01 X115.5025 Y-120.0488
G01 X115.5083 Y-120.0352
G01 X115.5115 Y-120.0251
G01 X115.5147 Y-120.0115
G01 X115.5163 Y-120.0010
G01 X115.5173 Y-119.9839
G01 X115.5173 Y-119.5077
G01 X115.5168 Y-119.4954
G01 X115.5156 Y-119.4849
G01 X115.5139 Y-119.4760
G01 X115.5101 Y-119.4618
G01 X115.5065 Y-119.4518
G01 X115.5015 Y-119.4406
G01 X115.4063 Y-119.2501
G01 X115.3981 Y-119.2359
G01 X115.3890 Y-119.2233
G01 X115.3782 Y-119.2111
G01 X115.2829 Y-119.1159
G01 X115.2739 Y-119.1076
G01 X115.2622 Y-119.0986
G01 X115.2546 Y-119.0937
G01 X115.2439 Y-119.0878
G01 X115.0534 Y-118.9925
G01 X115.0377 Y-118.9858
G01 X115.0275 Y-118.9825
G01 X115.0180 Y-118.9801
G01 X115.0035 Y-118.9777
G01 X114.9863 Y-118.9767
G01 X114.5102 Y-118.9767
G01 X114.5020 Y-118.9770
G01 X114.4930 Y-118.9777
G01 X114.4785 Y-118.9801
G01 X114.4690 Y-118.9825
G01 X114.4588 Y-118.9858
G01 X114.4430 Y-118.9925
G01 X114.4058 Y-119.0111
G01 X114.4555 Y-118.5149
G01 X115.2720 Y-118.5149
G01 X115.2892 Y-118.5139
G01 X115.2989 Y-118.5124
G01 X115.3132 Y-118.5091
G01 X115.3317 Y-118.5025
G01 X115.3449 Y-118.4960
G01 X115.3574 Y-118.4882
G01 X115.3653 Y-118.4823
G01 X115.3764 Y-118.4726
G01 X115.3896 Y-118.4581
G01 X115.3981 Y-118.4461
G01 X115.4055 Y-118.4334
G01 X115.4097 Y-118.4245
G01 X115.4149 Y-118.4107
G01 X115.4195 Y-118.3923
G01 X115.4216 Y-118.3771
G01 X115.4220 Y-118.3624
G01 X115.4216 Y-118.3526
G01 X115.4196 Y-118.3380
G01 X115.4163 Y-118.3236
G01 X115.4097 Y-118.3052
G01 X115.4055 Y-118.2963
G01 X115.3981 Y-118.2836
G01 X115.3896 Y-118.2716
G01 X115.3798 Y-118.2605
G01 X115.3653 Y-118.2473
G01 X115.3533 Y-118.2388
G01 X115.3406 Y-118.2314
G01 X115.3317 Y-118.2272
G01 X115.3179 Y-118.2220
G01 X115.3037 Y-118.2182
G01 X115.2892 Y-118.2158
G01 X115.2720 Y-118.2148
G01 X114.3172 Y-118.2149
G01 X114.3050 Y-118.2155
G01 X114.2904 Y-118.2177
G01 X114.2763 Y-118.2212
G01 X114.2647 Y-118.2252
G01 X114.2513 Y-118.2313
G01 X114.2468 Y-118.2337
G01 X114.2363 Y-118.2401
G01 X114.2246 Y-118.2487
G01 X114.2137 Y-118.2586
G01 X114.2038 Y-118.2695
G01 X114.1950 Y-118.2813
G01 X114.1874 Y-118.2939
G01 X114.1811 Y-118.3072
G01 X114.1761 Y-118.3211
G01 X114.1725 Y-118.3354
G01 X114.1707 Y-118.3475
G01 X114.0751 Y-119.3025
G01 X114.0744 Y-119.3195
G00 Z2.0000
G00 X115.9791 Y-119.1267
G01 F60.00
G01 Z-1.7000
G01 F150.00
G01 X115.9791 Y-119.6029
G01 X115.9797 Y-119.6152
G01 X115.9816 Y-119.6298
G01 X115.9836 Y-119.6393
G01 X116.0789 Y-120.0203
G01 X116.0824 Y-120.0320
G01 X116.0852 Y-120.0398
G01 X116.0902 Y-120.0510
G01 X116.1855 Y-120.2415
G01 X116.1939 Y-120.2562
G01 X116.1997 Y-120.2644
G01 X116.2053 Y-120.2714
G01 X116.2136 Y-120.2805
G01 X116.3088 Y-120.3757
G01 X116.3210 Y-120.3866
G01 X116.3336 Y-120.3957
G01 X116.3478 Y-120.4038
G01 X116.5405 Y-120.5001
G01 X116.5541 Y-120.5058
G01 X116.5642 Y-120.5091
G01 X116.5777 Y-120.5123
G01 X116.5882 Y-120.5139
G01 X116.6054 Y-120.5149
G01 X116.7959 Y-120.5149
G01 X116.8130 Y-120.5139
G01 X116.8227 Y-120.5124
G01 X116.8331 Y-120.5102
G01 X116.8472 Y-120.5058
G01 X116.8630 Y-120.4990
G01 X117.0534 Y-120.4038
G01 X117.0681 Y-120.3954
G01 X117.0764 Y-120.3896
G01 X117.0834 Y-120.3840
G01 X117.0924 Y-120.3757
G01 X117.1877 Y-120.2805
G01 X117.1960 Y-120.2714
G01 X117.2049 Y-120.2597
G01 X117.2098 Y-120.2522
G01 X117.2158 Y-120.2415
G01 X117.3135 Y-120.0457
G01 X117.3189 Y-120.0320
G01 X117.3224 Y-120.0203
G01 X117.4176 Y-119.6393
G01 X117.4207 Y-119.6236
G01 X117.4217 Y-119.6127
G01 X117.4221 Y-119.6029
G01 X117.4221 Y-119.1267
G01 X117.4216 Y-119.1145
G01 X117.4196 Y-119.0999
G01 X117.4176 Y-119.0904
G01 X117.3224 Y-118.7094
G01 X117.3189 Y-118.6976
G01 X117.3160 Y-118.6899
G01 X117.3110 Y-118.6787
G01 X117.2158 Y-118.4882
G01 X117.2073 Y-118.4735
G01 X117.2016 Y-118.4653
G01 X117.1960 Y-118.4583
G01 X117.1877 Y-118.4492
G01 X117.0924 Y-118.3540
G01 X117.0802 Y-118.3431
G01 X117.0676 Y-118.3340
G01 X117.0534 Y-118.3259
G01 X116.8630 Y-118.2306
G01 X116.8518 Y-118.2256
G01 X116.8417 Y-118.2220
G01 X116.8335 Y-118.2196
G01 X116.8196 Y-118.2167
G01 X116.8081 Y-118.2153
G01 X116.7959 Y-118.2148
G01 X116.6054 Y-118.2148
G01 X116.5882 Y-118.2158
G01 X116.5737 Y-118.2182
G01 X116.5642 Y-118.2206
G01 X116.5541 Y-118.2239
G01 X116.5383 Y-118.2306
G01 X116.3420 Y-118.3290
G01 X116.3331 Y-118.3343
G01 X116.3249 Y-118.3401
G01 X116.3179 Y-118.3457
G01 X116.3106 Y-118.3523
G01 X116.2136 Y-118.4492
G01 X116.2053 Y-118.4583
G01 X116.1963 Y-118.4699
G01 X116.1914 Y-118.4775
G01 X116.1855 Y-118.4882
G01 X116.0878 Y-118.6839
G01 X116.0824 Y-118.6976
G01 X116.0789 Y-118.7094
G01 X115.9836 Y-119.0904
G01 X115.9806 Y-119.1060
G01 X115.9795 Y-119.1170
G01 X115.9791 Y-119.1267
G00 Z2.0000
G00 X116.2793 Y-119.5845
G01 F60.00
G01 Z-1.7000
G01 F150.00
G01 X116.3660 Y-119.9315
G01 X116.4430 Y-120.0855
G01 X116.5038 Y-120.1463
G01 X116.6408 Y-120.2148
G01 X116.7604 Y-120.2148
G01 X116.8975 Y-120.1463
G01 X116.9583 Y-120.0855
G01 X117.0352 Y-119.9315
G01 X117.1220 Y-119.5845
G01 X117.1220 Y-119.1452
G01 X117.0352 Y-118.7982
G01 X116.9583 Y-118.6442
G01 X116.8975 Y-118.5834
G01 X116.7604 Y-118.5149
G01 X116.6408 Y-118.5149
G01 X116.5038 Y-118.5834
G01 X116.4430 Y-118.6442
G01 X116.3660 Y-118.7982
G01 X116.2793 Y-119.1452
G01 X116.2793 Y-119.5845
G00 Z2.0000
G00 X117.9791 Y-119.0315
G01 F60.00
G01 Z-1.7000
G01 F150.00
G01 X117.9792 Y-120.3673
G01 X117.9802 Y-120.3820
G01 X117.9816 Y-120.3917
G01 X117.9850 Y-120.4060
G01 X117.9916 Y-120.4245
G01 X117.9981 Y-120.4377
G01 X118.0056 Y-120.4499
G01 X118.0148 Y-120.4619
G01 X118.0249 Y-120.4726
G01 X118.0359 Y-120.4823
G01 X118.0438 Y-120.4882
G01 X118.0563 Y-120.4960
G01 X118.0695 Y-120.5025
G01 X118.0880 Y-120.5091
G01 X118.1023 Y-120.5124
G01 X118.1169 Y-120.5143
G01 X118.1317 Y-120.5148
G01 X118.1415 Y-120.5143
G01 X118.1609 Y-120.5115
G01 X118.1751 Y-120.5077
G01 X118.1843 Y-120.5044
G01 X118.1977 Y-120.4983
G01 X118.2105 Y-120.4909
G01 X118.2225 Y-120.4823
G01 X118.2335 Y-120.4726
G01 X118.2467 Y-120.4581
G01 X118.2553 Y-120.4461
G01 X118.2626 Y-120.4334
G01 X118.2668 Y-120.4245
G01 X118.2720 Y-120.4107
G01 X118.2767 Y-120.3923
G01 X118.2787 Y-120.3771
G01 X118.2793 Y-120.3648
G01 X118.2793 Y-119.2841
G01 X118.3133 Y-119.2501
G01 X118.4503 Y-119.1816
G01 X118.6652 Y-119.1816
G01 X118.7793 Y-119.2386
G01 X118.8363 Y-119.3526
G01 X118.8363 Y-120.3648
G01 X118.8373 Y-120.3820
G01 X118.8397 Y-120.3965
G01 X118.8435 Y-120.4107
G01 X118.8487 Y-120.4245
G01 X118.8552 Y-120.4377
G01 X118.8627 Y-120.4499
G01 X118.8688 Y-120.4581
G01 X118.8785 Y-120.4692
G01 X118.8893 Y-120.4792
G01 X118.9051 Y-120.4909
G01 X118.9178 Y-120.4983
G01 X118.9312 Y-120.5044
G01 X118.9451 Y-120.5091
G01 X118.9589 Y-120.5123
G01 X118.9692 Y-120.5139
G01 X118.9839 Y-120.5148
G01 X118.9986 Y-120.5143
G01 X119.0132 Y-120.5124
G01 X119.0322 Y-120.5077
G01 X119.0460 Y-120.5025
G01 X119.0592 Y-120.4960
G01 X119.0714 Y-120.4884
G01 X119.0796 Y-120.4823
G01 X119.0907 Y-120.4726
G01 X119.1007 Y-120.4619
G01 X119.1124 Y-120.4461
G01 X119.1198 Y-120.4334
G01 X119.1259 Y-120.4200
G01 X119.1306 Y-120.4060
G01 X119.1338 Y-120.3923
G01 X119.1358 Y-120.3771
G01 X119.1364 Y-120.3648
G01 X119.1364 Y-119.3526
G01 X119.1934 Y-119.2386
G01 X119.3075 Y-119.1816
G01 X119.5223 Y-119.1816
G01 X119.6364 Y-119.2386
G01 X119.6934 Y-119.3526
G01 X119.6934 Y-120.3648
G01 X119.6945 Y-120.3820
G01 X119.6959 Y-120.3917
G01 X119.6992 Y-120.4060
G01 X119.7058 Y-120.4245
G01 X119.7100 Y-120.4334
G01 X119.7174 Y-120.4461
G01 X119.7260 Y-120.4581
G01 X119.7392 Y-120.4726
G01 X119.7502 Y-120.4823
G01 X119.7581 Y-120.4882
G01 X119.7749 Y-120.4983
G01 X119.7838 Y-120.5025
G01 X119.7976 Y-120.5077
G01 X119.8160 Y-120.5123
G01 X119.8312 Y-120.5143
G01 X119.8459 Y-120.5148
G01 X119.8557 Y-120.5143
G01 X119.8751 Y-120.5115
G01 X119.8847 Y-120.5091
G01 X119.8986 Y-120.5044
G01 X119.9163 Y-120.4960
G01 X119.9285 Y-120.4884
G01 X119.9367 Y-120.4823
G01 X119.9513 Y-120.4692
G01 X119.9610 Y-120.4581
G01 X119.9668 Y-120.4502
G01 X119.9769 Y-120.4334
G01 X119.9811 Y-120.4245
G01 X119.9863 Y-120.4107
G01 X119.9910 Y-120.3923
G01 X119.9930 Y-120.3771
G01 X119.9935 Y-120.3648
G01 X119.9935 Y-119.3172
G01 X119.9929 Y-119.3041
G01 X119.9911 Y-119.2904
G01 X119.9888 Y-119.2800
G01 X119.9844 Y-119.2659
G01 X119.9811 Y-119.2576
G01 X119.9777 Y-119.2501
G01 X119.8824 Y-119.0596
G01 X119.8740 Y-119.0449
G01 X119.8692 Y-119.0380
G01 X119.8632 Y-119.0303
G01 X119.8560 Y-119.0224
G01 X119.8496 Y-119.0161
G01 X119.8369 Y-119.0058
G01 X119.8261 Y-118.9985
G01 X119.8153 Y-118.9925
G01 X119.6227 Y-118.8962
G01 X119.6091 Y-118.8905
G01 X119.5954 Y-118.8863
G01 X119.5815 Y-118.8834
G01 X119.5700 Y-118.8820
G01 X119.5578 Y-118.8814
G01 X119.2721 Y-118.8814
G01 X119.2549 Y-118.8825
G01 X119.2404 Y-118.8849
G01 X119.2309 Y-118.8873
G01 X119.2207 Y-118.8905
G01 X119.2049 Y-118.8973
G01 X119.0145 Y-118.9925
G01 X118.9998 Y-119.0010
G01 X118.9863 Y-119.0109
G01 X118.9731 Y-119.0011
G01 X118.9582 Y-118.9925
G01 X118.7677 Y-118.8973
G01 X118.7565 Y-118.8923
G01 X118.7465 Y-118.8887
G01 X118.7383 Y-118.8863
G01 X118.7244 Y-118.8834
G01 X118.7129 Y-118.8820
G01 X118.7006 Y-118.8814
G01 X118.4149 Y-118.8814
G01 X118.3978 Y-118.8825
G01 X118.3881 Y-118.8839
G01 X118.3777 Y-118.8862
G01 X118.3636 Y-118.8905
G01 X118.3552 Y-118.8939
G01 X118.2519 Y-118.9452
G01 X118.2436 Y-118.9345
G01 X118.2370 Y-118.9272
G01 X118.2262 Y-118.9171
G01 X118.2105 Y-118.9054
G01 X118.1977 Y-118.8981
G01 X118.1889 Y-118.8939
G01 X118.1751 Y-118.8887
G01 X118.1609 Y-118.8849
G01 X118.1463 Y-118.8825
G01 X118.1267 Y-118.8815
G01 X118.1121 Y-118.8825
G01 X118.0975 Y-118.8849
G01 X118.0833 Y-118.8887
G01 X118.0695 Y-118.8939
G01 X118.0563 Y-118.9004
G01 X118.0442 Y-118.9079
G01 X118.0322 Y-118.9171
G01 X118.0214 Y-118.9272
G01 X118.0117 Y-118.9382
G01 X118.0031 Y-118.9502
G01 X117.9958 Y-118.9630
G01 X117.9897 Y-118.9764
G01 X117.9850 Y-118.9903
G01 X117.9817 Y-119.0040
G01 X117.9797 Y-119.0192
G01 X117.9791 Y-119.0315
G00 Z2.0000
G00 X117.9791 Y-121.6715
G01 F60.00
G01 Z-1.7000
G01 F150.00
G01 X117.9792 Y-123.0073
G01 X117.9802 Y-123.0220
G01 X117.9816 Y-123.0317
G01 X117.9850 Y-123.0460
G01 X117.9916 Y-123.0645
G01 X117.9981 Y-123.0777
G01 X118.0056 Y-123.0899
G01 X118.0148 Y-123.1019
G01 X118.0249 Y-123.1126
G01 X118.0359 Y-123.1223
G01 X118.0438 Y-123.1282
G01 X118.0563 Y-123.1360
G01 X118.0695 Y-123.1425
G01 X118.0880 Y-123.1491
G01 X118.1023 Y-123.1524
G01 X118.1169 Y-123.1543
G01 X118.1317 Y-123.1548
G01 X118.1415 Y-123.1543
G01 X118.1609 Y-123.1515
G01 X118.1751 Y-123.1477
G01 X118.1843 Y-123.1444
G01 X118.1977 Y-123.1383
G01 X118.2105 Y-123.1309
G01 X118.2225 Y-123.1223
G01 X118.2335 Y-123.1126
G01 X118.2467 Y-123.0981
G01 X118.2553 Y-123.0861
G01 X118.2626 Y-123.0734
G01 X118.2668 Y-123.0645
G01 X118.2720 Y-123.0507
G01 X118.2767 Y-123.0323
G01 X118.2787 Y-123.0171
G01 X118.2793 Y-123.0048
G01 X118.2793 Y-121.9241
G01 X118.3133 Y-121.8901
G01 X118.4503 Y-121.8216
G01 X118.6652 Y-121.8216
G01 X118.7793 Y-121.8786
G01 X118.8363 Y-121.9926
G01 X118.8363 Y-123.0048
G01 X118.8373 Y-123.0220
G01 X118.8397 Y-123.0365
G01 X118.8435 Y-123.0507
G01 X118.8487 Y-123.0645
G01 X118.8552 Y-123.0777
G01 X118.8627 Y-123.0899
G01 X118.8688 Y-123.0981
G01 X118.8785 Y-123.1092
G01 X118.8893 Y-123.1192
G01 X118.9051 Y-123.1309
G01 X118.9178 Y-123.1383
G01 X118.9312 Y-123.1444
G01 X118.9451 Y-123.1491
G01 X118.9589 Y-123.1523
G01 X118.9692 Y-123.1539
G01 X118.9839 Y-123.1548
G01 X118.9986 Y-123.1543
G01 X119.0132 Y-123.1524
G01 X119.0322 Y-123.1477
G01 X119.0460 Y-123.1425
G01 X119.0592 Y-123.1360
G01 X119.0714 Y-123.1284
G01 X119.0796 Y-123.1223
G01 X119.0907 Y-123.1126
G01 X119.1007 Y-123.1019
G01 X119.1124 Y-123.0861
G01 X119.1198 Y-123.0734
G01 X119.1259 Y-123.0600
G01 X119.1306 Y-123.0460
G01 X119.1338 Y-123.0323
G01 X119.1358 Y-123.0171
G01 X119.1364 Y-123.0048
G01 X119.1364 Y-121.9926
G01 X119.1934 Y-121.8786
G01 X119.3075 Y-121.8216
G01 X119.5223 Y-121.8216
G01 X119.6364 Y-121.8786
G01 X119.6934 Y-121.9926
G01 X119.6934 Y-123.0048
G01 X119.6945 Y-123.0220
G01 X119.6959 Y-123.0317
G01 X119.6992 Y-123.0460
G01 X119.7058 Y-123.0645
G01 X119.7100 Y-123.0734
G01 X119.7174 Y-123.0861
G01 X119.7260 Y-123.0981
G01 X119.7392 Y-123.1126
G01 X119.7502 Y-123.1223
G01 X119.7581 Y-123.1282
G01 X119.7749 Y-123.1383
G01 X119.7838 Y-123.1425
G01 X119.7976 Y-123.1477
G01 X119.8160 Y-123.1523
G01 X119.8312 Y-123.1543
G01 X119.8459 Y-123.1548
G01 X119.8557 Y-123.1543
G01 X119.8751 Y-123.1515
G01 X119.8847 Y-123.1491
G01 X119.8986 Y-123.1444
G01 X119.9163 Y-123.1360
G01 X119.9285 Y-123.1284
G01 X119.9367 Y-123.1223
G01 X119.9513 Y-123.1092
G01 X119.9610 Y-123.0981
G01 X119.9668 Y-123.0902
G01 X119.9769 Y-123.0734
G01 X119.9811 Y-123.0645
G01 X119.9863 Y-123.0507
G01 X119.9910 Y-123.0323
G01 X119.9930 Y-123.0171
G01 X119.9935 Y-123.0048
G01 X119.9935 Y-121.9572
G01 X119.9929 Y-121.9441
G01 X119.9911 Y-121.9304
G01 X119.9888 Y-121.9200
G01 X119.9844 Y-121.9059
G01 X119.9811 Y-121.8976
G01 X119.9777 Y-121.8901
G01 X119.8824 Y-121.6996
G01 X119.8740 Y-121.6849
G01 X119.8692 Y-121.6780
G01 X119.8632 Y-121.6703
G01 X119.8560 Y-121.6624
G01 X119.8496 Y-121.6561
G01 X119.8369 Y-121.6458
G01 X119.8261 Y-121.6385
G01 X119.8153 Y-121.6325
G01 X119.6227 Y-121.5362
G01 X119.6091 Y-121.5305
G01 X119.5954 Y-121.5263
G01 X119.5815 Y-121.5234
G01 X119.5700 Y-121.5220
G01 X119.5578 Y-121.5214
G01 X119.2721 Y-121.5214
G01 X119.2549 Y-121.5225
G01 X119.2404 Y-121.5249
G01 X119.2309 Y-121.5273
G01 X119.2207 Y-121.5305
G01 X119.2049 Y-121.5373
G01 X119.0145 Y-121.6325
G01 X118.9998 Y-121.6410
G01 X118.9863 Y-121.6509
G01 X118.9731 Y-121.6411
G01 X118.9582 Y-121.6325
G01 X118.7677 Y-121.5373
G01 X118.7565 Y-121.5323
G01 X118.7465 Y-121.5287
G01 X118.7383 Y-121.5263
G01 X118.7244 Y-121.5234
G01 X118.7129 Y-121.5220
G01 X118.7006 Y-121.5214
G01 X118.4149 Y-121.5214
G01 X118.3978 Y-121.5225
G01 X118.3881 Y-121.5239
G01 X118.3777 Y-121.5262
G01 X118.3636 Y-121.5305
G01 X118.3552 Y-121.5339
G01 X118.2519 Y-121.5852
G01 X118.2436 Y-121.5745
G01 X118.2370 Y-121.5672
G01 X118.2262 Y-121.5571
G01 X118.2105 Y-121.5454
G01 X118.1977 Y-121.5381
G01 X118.1889 Y-121.5339
G01 X118.1751 Y-121.5287
G01 X118.1609 Y-121.5249
G01 X118.1463 Y-121.5225
G01 X118.1267 Y-121.5215
G01 X118.1121 Y-121.5225
G01 X118.0975 Y-121.5249
G01 X118.0833 Y-121.5287
G01 X118.0695 Y-121.5339
G01 X118.0563 Y-121.5404
G01 X118.0442 Y-121.5479
G01 X118.0322 Y-121.5571
G01 X118.0214 Y-121.5672
G01 X118.0117 Y-121.5782
G01 X118.0031 Y-121.5902
G01 X117.9958 Y-121.6030
G01 X117.9897 Y-121.6164
G01 X117.9850 Y-121.6303
G01 X117.9817 Y-121.6440
G01 X117.9797 Y-121.6592
G01 X117.9791 Y-121.6715
G00 Z2.0000
G00 X116.2793 Y-122.2245
G01 F60.00
G01 Z-1.7000
G01 F150.00
G01 X116.3660 Y-122.5715
G01 X116.4430 Y-122.7255
G01 X116.5038 Y-122.7863
G01 X116.6408 Y-122.8548
G01 X116.7604 Y-122.8548
G01 X116.8975 Y-122.7863
G01 X116.9583 Y-122.7255
G01 X117.0352 Y-122.5715
G01 X117.1220 Y-122.2245
G01 X117.1220 Y-121.7852
G01 X117.0352 Y-121.4382
G01 X116.9583 Y-121.2842
G01 X116.8975 Y-121.2234
G01 X116.7604 Y-121.1549
G01 X116.6408 Y-121.1549
G01 X116.5038 Y-121.2234
G01 X116.4430 Y-121.2842
G01 X116.3660 Y-121.4382
G01 X116.2793 Y-121.7852
G01 X116.2793 Y-122.2245
G00 Z2.0000
G00 X115.9791 Y-121.7667
G01 F60.00
G01 Z-1.7000
G01 F150.00
G01 X115.9791 Y-122.2429
G01 X115.9797 Y-122.2552
G01 X115.9816 Y-122.2698
G01 X115.9836 Y-122.2793
G01 X116.0789 Y-122.6603
G01 X116.0824 Y-122.6720
G01 X116.0852 Y-122.6798
G01 X116.0902 Y-122.6910
G01 X116.1855 Y-122.8815
G01 X116.1939 Y-122.8962
G01 X116.1997 Y-122.9044
G01 X116.2053 Y-122.9114
G01 X116.2136 Y-122.9205
G01 X116.3088 Y-123.0157
G01 X116.3210 Y-123.0266
G01 X116.3336 Y-123.0357
G01 X116.3478 Y-123.0438
G01 X116.5405 Y-123.1401
G01 X116.5541 Y-123.1458
G01 X116.5642 Y-123.1491
G01 X116.5777 Y-123.1523
G01 X116.5882 Y-123.1539
G01 X116.6054 Y-123.1549
G01 X116.7959 Y-123.1549
G01 X116.8130 Y-123.1539
G01 X116.8227 Y-123.1524
G01 X116.8331 Y-123.1502
G01 X116.8472 Y-123.1458
G01 X116.8630 Y-123.1390
G01 X117.0534 Y-123.0438
G01 X117.0681 Y-123.0354
G01 X117.0764 Y-123.0296
G01 X117.0834 Y-123.0240
G01 X117.0924 Y-123.0157
G01 X117.1877 Y-122.9205
G01 X117.1960 Y-122.9114
G01 X117.2049 Y-122.8997
G01 X117.2098 Y-122.8922
G01 X117.2158 Y-122.8815
G01 X117.3135 Y-122.6857
G01 X117.3189 Y-122.6720
G01 X117.3224 Y-122.6603
G01 X117.4176 Y-122.2793
G01 X117.4207 Y-122.2636
G01 X117.4217 Y-122.2527
G01 X117.4221 Y-122.2429
G01 X117.4221 Y-121.7667
G01 X117.4216 Y-121.7545
G01 X117.4196 Y-121.7399
G01 X117.4176 Y-121.7304
G01 X117.3224 Y-121.3494
G01 X117.3189 Y-121.3376
G01 X117.3160 Y-121.3299
G01 X117.3110 Y-121.3187
G01 X117.2158 Y-121.1282
G01 X117.2073 Y-121.1135
G01 X117.2016 Y-121.1053
G01 X117.1960 Y-121.0983
G01 X117.1877 Y-121.0892
G01 X117.0924 Y-120.9940
G01 X117.0802 Y-120.9831
G01 X117.0676 Y-120.9740
G01 X117.0534 Y-120.9659
G01 X116.8630 Y-120.8706
G01 X116.8518 Y-120.8656
G01 X116.8417 Y-120.8620
G01 X116.8335 Y-120.8596
G01 X116.8196 Y-120.8567
G01 X116.8081 Y-120.8553
G01 X116.7959 Y-120.8548
G01 X116.6054 Y-120.8548
G01 X116.5882 Y-120.8558
G01 X116.5737 Y-120.8582
G01 X116.5642 Y-120.8606
G01 X116.5541 Y-120.8639
G01 X116.5383 Y-120.8706
G01 X116.3420 Y-120.9690
G01 X116.3331 Y-120.9743
G01 X116.3249 Y-120.9801
G01 X116.3179 Y-120.9857
G01 X116.3106 Y-120.9923
G01 X116.2136 Y-121.0892
G01 X116.2053 Y-121.0983
G01 X116.1963 Y-121.1099
G01 X116.1914 Y-121.1175
G01 X116.1855 Y-121.1282
G01 X116.0878 Y-121.3239
G01 X116.0824 Y-121.3376
G01 X116.0789 Y-121.3494
G01 X115.9836 Y-121.7304
G01 X115.9806 Y-121.7460
G01 X115.9795 Y-121.7570
G01 X115.9791 Y-121.7667
G00 Z2.0000
G00 X114.3745 Y-122.2245
G01 F60.00
G01 Z-1.7000
G01 F150.00
G01 X114.4612 Y-122.5715
G01 X114.5382 Y-122.7255
G01 X114.5990 Y-122.7863
G01 X114.7360 Y-122.8548
G01 X114.8557 Y-122.8548
G01 X114.9927 Y-122.7863
G01 X115.0535 Y-122.7255
G01 X115.1305 Y-122.5715
G01 X115.2172 Y-122.2245
G01 X115.2172 Y-121.7852
G01 X115.1305 Y-121.4382
G01 X115.0535 Y-121.2842
G01 X114.9927 Y-121.2234
G01 X114.8557 Y-121.1549
G01 X114.7360 Y-121.1549
G01 X114.5990 Y-121.2234
G01 X114.5382 Y-121.2842
G01 X114.4612 Y-121.4382
G01 X114.3745 Y-121.7852
G01 X114.3745 Y-122.2245
G00 Z2.0000
G00 X114.0744 Y-121.7667
G01 F60.00
G01 Z-1.7000
G01 F150.00
G01 X114.0744 Y-122.2429
G01 X114.0749 Y-122.2552
G01 X114.0768 Y-122.2698
G01 X114.0789 Y-122.2793
G01 X114.1741 Y-122.6603
G01 X114.1776 Y-122.6720
G01 X114.1805 Y-122.6798
G01 X114.1855 Y-122.6910
G01 X114.2807 Y-122.8815
G01 X114.2892 Y-122.8962
G01 X114.2949 Y-122.9044
G01 X114.3005 Y-122.9114
G01 X114.3088 Y-122.9205
G01 X114.4040 Y-123.0157
G01 X114.4162 Y-123.0266
G01 X114.4289 Y-123.0357
G01 X114.4430 Y-123.0438
G01 X114.6357 Y-123.1401
G01 X114.6455 Y-123.1444
G01 X114.6594 Y-123.1491
G01 X114.6732 Y-123.1523
G01 X114.6835 Y-123.1539
G01 X114.7006 Y-123.1549
G01 X114.8911 Y-123.1549
G01 X114.9082 Y-123.1539
G01 X114.9180 Y-123.1524
G01 X114.9283 Y-123.1502
G01 X114.9424 Y-123.1458
G01 X114.9582 Y-123.1390
G01 X115.1487 Y-123.0438
G01 X115.1634 Y-123.0354
G01 X115.1716 Y-123.0296
G01 X115.1786 Y-123.0240
G01 X115.1877 Y-123.0157
G01 X115.2829 Y-122.9205
G01 X115.2912 Y-122.9114
G01 X115.3002 Y-122.8997
G01 X115.3051 Y-122.8922
G01 X115.3110 Y-122.8815
G01 X115.4087 Y-122.6857
G01 X115.4141 Y-122.6720
G01 X115.4176 Y-122.6603
G01 X115.5129 Y-122.2793
G01 X115.5159 Y-122.2636
G01 X115.5170 Y-122.2527
G01 X115.5173 Y-122.2429
G01 X115.5173 Y-121.7667
G01 X115.5168 Y-121.7545
G01 X115.5149 Y-121.7399
G01 X115.5129 Y-121.7303
G01 X115.4176 Y-121.3494
G01 X115.4141 Y-121.3376
G01 X115.4113 Y-121.3299
G01 X115.4063 Y-121.3187
G01 X115.3110 Y-121.1282
G01 X115.3026 Y-121.1135
G01 X115.2968 Y-121.1053
G01 X115.2912 Y-121.0983
G01 X115.2829 Y-121.0892
G01 X115.1877 Y-120.9940
G01 X115.1755 Y-120.9831
G01 X115.1629 Y-120.9740
G01 X115.1487 Y-120.9659
G01 X114.9582 Y-120.8706
G01 X114.9470 Y-120.8656
G01 X114.9370 Y-120.8620
G01 X114.9287 Y-120.8596
G01 X114.9149 Y-120.8567
G01 X114.9034 Y-120.8553
G01 X114.8911 Y-120.8548
G01 X114.7006 Y-120.8548
G01 X114.6835 Y-120.8558
G01 X114.6690 Y-120.8582
G01 X114.6594 Y-120.8606
G01 X114.6493 Y-120.8639
G01 X114.6335 Y-120.8706
G01 X114.4373 Y-120.9690
G01 X114.4283 Y-120.9743
G01 X114.4201 Y-120.9801
G01 X114.4131 Y-120.9857
G01 X114.4058 Y-120.9923
G01 X114.3088 Y-121.0892
G01 X114.3005 Y-121.0983
G01 X114.2916 Y-121.1099
G01 X114.2867 Y-121.1175
G01 X114.2807 Y-121.1282
G01 X114.1830 Y-121.3239
G01 X114.1776 Y-121.3376
G01 X114.1741 Y-121.3494
G01 X114.0789 Y-121.7303
G01 X114.0758 Y-121.7460
G01 X114.0747 Y-121.7570
G01 X114.0744 Y-121.7667
G00 Z2.0000
G00 X112.1697 Y-121.9595
G01 F60.00
G01 Z-1.7000
G01 F150.00
G01 X112.1703 Y-121.9719
G01 X112.1725 Y-121.9865
G01 X112.1761 Y-122.0007
G01 X112.1810 Y-122.0146
G01 X112.1873 Y-122.0279
G01 X112.1949 Y-122.0406
G01 X112.2037 Y-122.0524
G01 X112.2153 Y-122.0650
G01 X112.2245 Y-122.0732
G01 X112.2384 Y-122.0833
G01 X112.2511 Y-122.0907
G01 X112.2622 Y-122.0958
G01 X112.2736 Y-122.1000
G01 X112.2902 Y-122.1044
G01 X112.3048 Y-122.1065
G01 X112.3195 Y-122.1073
G01 X112.3317 Y-122.1067
G01 X112.3489 Y-122.1044
G01 X112.3656 Y-122.1000
G01 X112.3771 Y-122.0959
G01 X112.3880 Y-122.0908
G01 X112.4008 Y-122.0834
G01 X112.4147 Y-122.0733
G01 X112.4256 Y-122.0635
G01 X112.5038 Y-121.9853
G01 X112.6408 Y-121.9168
G01 X113.0462 Y-121.9168
G01 X113.1832 Y-121.9853
G01 X113.2440 Y-122.0461
G01 X113.3125 Y-122.1831
G01 X113.3125 Y-122.5885
G01 X113.2440 Y-122.7255
G01 X113.1832 Y-122.7863
G01 X113.0462 Y-122.8548
G01 X112.6408 Y-122.8548
G01 X112.5038 Y-122.7863
G01 X112.4240 Y-122.7066
G01 X112.4129 Y-122.6969
G01 X112.4050 Y-122.6910
G01 X112.3882 Y-122.6809
G01 X112.3748 Y-122.6748
G01 X112.3609 Y-122.6701
G01 X112.3471 Y-122.6669
G01 X112.3368 Y-122.6653
G01 X112.3221 Y-122.6644
G01 X112.3074 Y-122.6649
G01 X112.2928 Y-122.6668
G01 X112.2785 Y-122.6701
G01 X112.2645 Y-122.6748
G01 X112.2511 Y-122.6809
G01 X112.2343 Y-122.6910
G01 X112.2226 Y-122.7000
G01 X112.2119 Y-122.7100
G01 X112.2022 Y-122.7211
G01 X112.1936 Y-122.7331
G01 X112.1885 Y-122.7415
G01 X112.1820 Y-122.7547
G01 X112.1769 Y-122.7685
G01 X112.1730 Y-122.7827
G01 X112.1702 Y-122.8021
G01 X112.1697 Y-122.8168
G01 X112.1706 Y-122.8315
G01 X112.1721 Y-122.8412
G01 X112.1754 Y-122.8556
G01 X112.1820 Y-122.8740
G01 X112.1862 Y-122.8829
G01 X112.1936 Y-122.8956
G01 X112.2022 Y-122.9076
G01 X112.2136 Y-122.9205
G01 X112.3136 Y-123.0202
G01 X112.3217 Y-123.0271
G01 X112.3295 Y-123.0329
G01 X112.3371 Y-123.0378
G01 X112.3478 Y-123.0438
G01 X112.5405 Y-123.1401
G01 X112.5541 Y-123.1458
G01 X112.5642 Y-123.1491
G01 X112.5737 Y-123.1515
G01 X112.5882 Y-123.1539
G01 X112.6054 Y-123.1549
G01 X113.0816 Y-123.1549
G01 X113.0947 Y-123.1543
G01 X113.1084 Y-123.1524
G01 X113.1188 Y-123.1502
G01 X113.1275 Y-123.1477
G01 X113.1375 Y-123.1440
G01 X113.1487 Y-123.1390
G01 X113.3392 Y-123.0438
G01 X113.3539 Y-123.0354
G01 X113.3653 Y-123.0271
G01 X113.3782 Y-123.0157
G01 X113.4734 Y-122.9205
G01 X113.4843 Y-122.9083
G01 X113.4934 Y-122.8956
G01 X113.5015 Y-122.8815
G01 X113.5978 Y-122.6888
G01 X113.6035 Y-122.6752
G01 X113.6068 Y-122.6651
G01 X113.6100 Y-122.6515
G01 X113.6116 Y-122.6410
G01 X113.6126 Y-122.6239
G01 X113.6126 Y-122.1477
G01 X113.6120 Y-122.1354
G01 X113.6108 Y-122.1249
G01 X113.6092 Y-122.1160
G01 X113.6053 Y-122.1018
G01 X113.6017 Y-122.0918
G01 X113.5967 Y-122.0806
G01 X113.5015 Y-121.8901
G01 X113.4934 Y-121.8759
G01 X113.4843 Y-121.8633
G01 X113.4734 Y-121.8511
G01 X113.3782 Y-121.7559
G01 X113.3691 Y-121.7476
G01 X113.3574 Y-121.7386
G01 X113.3499 Y-121.7337
G01 X113.3392 Y-121.7278
G01 X113.1487 Y-121.6325
G01 X113.1329 Y-121.6258
G01 X113.1228 Y-121.6225
G01 X113.1132 Y-121.6201
G01 X113.0987 Y-121.6177
G01 X113.0816 Y-121.6167
G01 X112.6054 Y-121.6167
G01 X112.5972 Y-121.6170
G01 X112.5882 Y-121.6177
G01 X112.5737 Y-121.6201
G01 X112.5642 Y-121.6225
G01 X112.5541 Y-121.6258
G01 X112.5383 Y-121.6325
G01 X112.5011 Y-121.6511
G01 X112.5507 Y-121.1549
G01 X113.3673 Y-121.1549
G01 X113.3844 Y-121.1539
G01 X113.3941 Y-121.1524
G01 X113.4085 Y-121.1491
G01 X113.4270 Y-121.1425
G01 X113.4402 Y-121.1360
G01 X113.4527 Y-121.1282
G01 X113.4605 Y-121.1223
G01 X113.4716 Y-121.1126
G01 X113.4848 Y-121.0981
G01 X113.4934 Y-121.0861
G01 X113.5007 Y-121.0734
G01 X113.5049 Y-121.0645
G01 X113.5101 Y-121.0507
G01 X113.5148 Y-121.0323
G01 X113.5168 Y-121.0171
G01 X113.5173 Y-121.0024
G01 X113.5168 Y-120.9926
G01 X113.5149 Y-120.9780
G01 X113.5115 Y-120.9636
G01 X113.5049 Y-120.9452
G01 X113.5007 Y-120.9363
G01 X113.4934 Y-120.9236
G01 X113.4848 Y-120.9116
G01 X113.4751 Y-120.9005
G01 X113.4605 Y-120.8873
G01 X113.4486 Y-120.8788
G01 X113.4358 Y-120.8714
G01 X113.4270 Y-120.8672
G01 X113.4132 Y-120.8620
G01 X113.3990 Y-120.8582
G01 X113.3844 Y-120.8558
G01 X113.3673 Y-120.8548
G01 X112.4125 Y-120.8549
G01 X112.4002 Y-120.8555
G01 X112.3857 Y-120.8577
G01 X112.3715 Y-120.8612
G01 X112.3600 Y-120.8652
G01 X112.3466 Y-120.8713
G01 X112.3420 Y-120.8737
G01 X112.3316 Y-120.8801
G01 X112.3199 Y-120.8887
G01 X112.3089 Y-120.8986
G01 X112.2990 Y-120.9095
G01 X112.2903 Y-120.9213
G01 X112.2827 Y-120.9339
G01 X112.2764 Y-120.9472
G01 X112.2714 Y-120.9611
G01 X112.2678 Y-120.9754
G01 X112.2659 Y-120.9875
G01 X112.1703 Y-121.9425
G01 X112.1697 Y-121.9595
G00 Z2.0000
G00 X111.2173 Y-122.9121
G01 F60.00
G01 Z-1.7000
G01 F150.00
G01 X111.2183 Y-122.9267
G01 X111.2197 Y-122.9365
G01 X111.2245 Y-122.9555
G01 X111.2278 Y-122.9647
G01 X111.2339 Y-122.9781
G01 X111.2437 Y-122.9946
G01 X111.2529 Y-123.0066
G01 X111.2612 Y-123.0157
G01 X111.3564 Y-123.1109
G01 X111.3693 Y-123.1223
G01 X111.3812 Y-123.1309
G01 X111.3940 Y-123.1383
G01 X111.4074 Y-123.1444
G01 X111.4213 Y-123.1491
G01 X111.4351 Y-123.1523
G01 X111.4503 Y-123.1543
G01 X111.4650 Y-123.1548
G01 X111.4797 Y-123.1539
G01 X111.4894 Y-123.1524
G01 X111.5084 Y-123.1477
G01 X111.5177 Y-123.1444
G01 X111.5311 Y-123.1383
G01 X111.5476 Y-123.1284
G01 X111.5596 Y-123.1192
G01 X111.5686 Y-123.1109
G01 X111.6639 Y-123.0157
G01 X111.6753 Y-123.0029
G01 X111.6838 Y-122.9909
G01 X111.6912 Y-122.9781
G01 X111.6973 Y-122.9647
G01 X111.7020 Y-122.9508
G01 X111.7053 Y-122.9371
G01 X111.7073 Y-122.9219
G01 X111.7078 Y-122.9071
G01 X111.7068 Y-122.8925
G01 X111.7054 Y-122.8827
G01 X111.7006 Y-122.8637
G01 X111.6973 Y-122.8545
G01 X111.6912 Y-122.8411
G01 X111.6814 Y-122.8246
G01 X111.6722 Y-122.8126
G01 X111.6639 Y-122.8035
G01 X111.5686 Y-122.7083
G01 X111.5558 Y-122.6969
G01 X111.5438 Y-122.6883
G01 X111.5311 Y-122.6809
G01 X111.5177 Y-122.6748
G01 X111.5037 Y-122.6701
G01 X111.4900 Y-122.6669
G01 X111.4748 Y-122.6649
G01 X111.4601 Y-122.6644
G01 X111.4454 Y-122.6653
G01 X111.4357 Y-122.6668
G01 X111.4166 Y-122.6715
G01 X111.4074 Y-122.6748
G01 X111.3940 Y-122.6809
G01 X111.3775 Y-122.6908
G01 X111.3655 Y-122.7000
G01 X111.3564 Y-122.7083
G01 X111.2612 Y-122.8035
G01 X111.2498 Y-122.8163
G01 X111.2412 Y-122.8283
G01 X111.2339 Y-122.8411
G01 X111.2278 Y-122.8545
G01 X111.2230 Y-122.8684
G01 X111.2198 Y-122.8821
G01 X111.2178 Y-122.8973
G01 X111.2173 Y-122.9121
G00 Z2.0000
G00 X109.2173 Y-123.0073
G01 F60.00
G01 Z-1.7000
G01 F150.00
G01 X109.2183 Y-123.0220
G01 X109.2207 Y-123.0365
G01 X109.2245 Y-123.0507
G01 X109.2297 Y-123.0645
G01 X109.2362 Y-123.0777
G01 X109.2437 Y-123.0899
G01 X109.2498 Y-123.0981
G01 X109.2595 Y-123.1092
G01 X109.2702 Y-123.1192
G01 X109.2819 Y-123.1282
G01 X109.2987 Y-123.1383
G01 X109.3122 Y-123.1444
G01 X109.3261 Y-123.1491
G01 X109.3398 Y-123.1523
G01 X109.3550 Y-123.1543
G01 X109.3673 Y-123.1549
G01 X110.6054 Y-123.1549
G01 X110.6176 Y-123.1543
G01 X110.6371 Y-123.1515
G01 X110.6513 Y-123.1477
G01 X110.6605 Y-123.1444
G01 X110.6739 Y-123.1383
G01 X110.6867 Y-123.1309
G01 X110.6986 Y-123.1223
G01 X110.7132 Y-123.1092
G01 X110.7229 Y-123.0981
G01 X110.7315 Y-123.0861
G01 X110.7388 Y-123.0734
G01 X110.7430 Y-123.0645
G01 X110.7482 Y-123.0507
G01 X110.7529 Y-123.0323
G01 X110.7549 Y-123.0171
G01 X110.7554 Y-123.0024
G01 X110.7549 Y-122.9926
G01 X110.7530 Y-122.9780
G01 X110.7496 Y-122.9636
G01 X110.7430 Y-122.9452
G01 X110.7388 Y-122.9363
G01 X110.7315 Y-122.9236
G01 X110.7229 Y-122.9116
G01 X110.7132 Y-122.9005
G01 X110.6986 Y-122.8873
G01 X110.6867 Y-122.8788
G01 X110.6739 Y-122.8714
G01 X110.6651 Y-122.8672
G01 X110.6513 Y-122.8620
G01 X110.6371 Y-122.8582
G01 X110.6225 Y-122.8558
G01 X110.6054 Y-122.8548
G01 X109.7295 Y-122.8548
G01 X110.6163 Y-121.9681
G01 X110.6277 Y-121.9552
G01 X110.6362 Y-121.9433
G01 X110.6436 Y-121.9305
G01 X110.6497 Y-121.9171
G01 X110.6525 Y-121.9094
G01 X110.7477 Y-121.6237
G01 X110.7511 Y-121.6119
G01 X110.7529 Y-121.6037
G01 X110.7549 Y-121.5885
G01 X110.7554 Y-121.5763
G01 X110.7554 Y-121.3858
G01 X110.7549 Y-121.3735
G01 X110.7537 Y-121.3630
G01 X110.7520 Y-121.3541
G01 X110.7482 Y-121.3399
G01 X110.7446 Y-121.3299
G01 X110.7396 Y-121.3187
G01 X110.6444 Y-121.1282
G01 X110.6359 Y-121.1135
G01 X110.6276 Y-121.1020
G01 X110.6180 Y-121.0910
G01 X110.5210 Y-120.9940
G01 X110.5088 Y-120.9831
G01 X110.4962 Y-120.9740
G01 X110.4820 Y-120.9659
G01 X110.2915 Y-120.8706
G01 X110.2803 Y-120.8656
G01 X110.2703 Y-120.8620
G01 X110.2621 Y-120.8596
G01 X110.2482 Y-120.8567
G01 X110.2367 Y-120.8553
G01 X110.2244 Y-120.8548
G01 X109.7482 Y-120.8548
G01 X109.7311 Y-120.8558
G01 X109.7206 Y-120.8574
G01 X109.7070 Y-120.8606
G01 X109.6931 Y-120.8653
G01 X109.6834 Y-120.8696
G01 X109.4907 Y-120.9659
G01 X109.4760 Y-120.9743
G01 X109.4645 Y-120.9826
G01 X109.4534 Y-120.9923
G01 X109.3564 Y-121.0892
G01 X109.3450 Y-121.1020
G01 X109.3365 Y-121.1140
G01 X109.3314 Y-121.1224
G01 X109.3249 Y-121.1356
G01 X109.3183 Y-121.1541
G01 X109.3151 Y-121.1676
G01 X109.3135 Y-121.1782
G01 X109.3125 Y-121.1928
G01 X109.3135 Y-121.2124
G01 X109.3149 Y-121.2222
G01 X109.3183 Y-121.2365
G01 X109.3249 Y-121.2550
G01 X109.3314 Y-121.2682
G01 X109.3389 Y-121.2803
G01 X109.3450 Y-121.2886
G01 X109.3582 Y-121.3031
G01 X109.3693 Y-121.3128
G01 X109.3772 Y-121.3187
G01 X109.3897 Y-121.3264
G01 X109.4029 Y-121.3329
G01 X109.4213 Y-121.3396
G01 X109.4349 Y-121.3428
G01 X109.4454 Y-121.3443
G01 X109.4601 Y-121.3453
G01 X109.4797 Y-121.3443
G01 X109.4894 Y-121.3429
G01 X109.5037 Y-121.3396
G01 X109.5222 Y-121.3329
G01 X109.5354 Y-121.3264
G01 X109.5479 Y-121.3187
G01 X109.5558 Y-121.3128
G01 X109.5668 Y-121.3031
G01 X109.6467 Y-121.2234
G01 X109.7837 Y-121.1549
G01 X110.1890 Y-121.1549
G01 X110.3260 Y-121.2234
G01 X110.3868 Y-121.2842
G01 X110.4553 Y-121.4212
G01 X110.4553 Y-121.5519
G01 X110.3790 Y-121.7809
G01 X109.2595 Y-122.9005
G01 X109.2498 Y-122.9116
G01 X109.2412 Y-122.9236
G01 X109.2339 Y-122.9363
G01 X109.2278 Y-122.9497
G01 X109.2230 Y-122.9636
G01 X109.2198 Y-122.9774
G01 X109.2178 Y-122.9926
G01 X109.2173 Y-123.0073
G00 Z2.0000
G00 X105.1002 Y-122.0900
G01 F60.00
G01 Z-1.7000
G01 F150.00
G01 X105.1043 Y-122.1733
G01 X105.1166 Y-122.2558
G01 X105.1368 Y-122.3367
G01 X105.1649 Y-122.4152
G01 X105.2006 Y-122.4906
G01 X105.2434 Y-122.5621
G01 X105.2931 Y-122.6291
G01 X105.3491 Y-122.6909
G01 X105.4109 Y-122.7469
G01 X105.4779 Y-122.7966
G01 X105.5494 Y-122.8394
G01 X105.6248 Y-122.8751
G01 X105.7033 Y-122.9032
G01 X105.7842 Y-122.9234
G01 X105.8667 Y-122.9357
G01 X105.9500 Y-122.9398
G01 X106.0333 Y-122.9357
G01 X106.1158 Y-122.9234
G01 X106.1967 Y-122.9032
G01 X106.2752 Y-122.8751
G01 X106.3506 Y-122.8394
G01 X106.4221 Y-122.7966
G01 X106.4891 Y-122.7469
G01 X106.5509 Y-122.6909
G01 X106.6069 Y-122.6291
G01 X106.6566 Y-122.5621
G01 X106.6994 Y-122.4906
G01 X106.7351 Y-122.4152
G01 X106.7632 Y-122.3367
G01 X106.7834 Y-122.2558
G01 X106.7957 Y-122.1733
G01 X106.7998 Y-122.0900
G01 X106.7957 Y-122.0067
G01 X106.7834 Y-121.9242
G01 X106.7632 Y-121.8433
G01 X106.7351 Y-121.7648
G01 X106.6994 Y-121.6894
G01 X106.6566 Y-121.6179
G01 X106.6069 Y-121.5509
G01 X106.5509 Y-121.4891
G01 X106.4891 Y-121.4331
G01 X106.4221 Y-121.3834
G01 X106.3506 Y-121.3406
G01 X106.2752 Y-121.3049
G01 X106.1967 Y-121.2768
G01 X106.1158 Y-121.2566
G01 X106.0333 Y-121.2443
G01 X105.9500 Y-121.2402
G01 X105.8667 Y-121.2443
G01 X105.7842 Y-121.2566
G01 X105.7033 Y-121.2768
G01 X105.6248 Y-121.3049
G01 X105.5494 Y-121.3406
G01 X105.4779 Y-121.3834
G01 X105.4109 Y-121.4331
G01 X105.3491 Y-121.4891
G01 X105.2931 Y-121.5509
G01 X105.2434 Y-121.6179
G01 X105.2006 Y-121.6894
G01 X105.1649 Y-121.7648
G01 X105.1368 Y-121.8433
G01 X105.1166 Y-121.9242
G01 X105.1043 Y-122.0067
G01 X105.1002 Y-122.0900
G00 Z2.0000
G00 X104.8001 Y-122.0974
G01 F60.00
G01 Z-1.7000
G01 F150.00
G01 X104.8049 Y-122.1954
G01 X104.8061 Y-122.2076
G01 X104.8208 Y-122.3071
G01 X104.8231 Y-122.3192
G01 X104.8475 Y-122.4167
G01 X104.8510 Y-122.4285
G01 X104.8848 Y-122.5232
G01 X104.8895 Y-122.5346
G01 X104.9324 Y-122.6256
G01 X104.9382 Y-122.6364
G01 X104.9898 Y-122.7227
G01 X104.9966 Y-122.7329
G01 X105.0565 Y-122.8138
G01 X105.0642 Y-122.8233
G01 X105.1317 Y-122.8979
G01 X105.1403 Y-122.9066
G01 X105.2148 Y-122.9742
G01 X105.2243 Y-122.9820
G01 X105.3050 Y-123.0420
G01 X105.3152 Y-123.0489
G01 X105.4015 Y-123.1006
G01 X105.4123 Y-123.1065
G01 X105.5032 Y-123.1495
G01 X105.5145 Y-123.1543
G01 X105.6092 Y-123.1882
G01 X105.6209 Y-123.1918
G01 X105.7185 Y-123.2163
G01 X105.7305 Y-123.2188
G01 X105.8300 Y-123.2336
G01 X105.8422 Y-123.2349
G01 X105.9426 Y-123.2399
G01 X105.9549 Y-123.2399
G01 X106.0554 Y-123.2351
G01 X106.0676 Y-123.2339
G01 X106.1671 Y-123.2192
G01 X106.1792 Y-123.2169
G01 X106.2767 Y-123.1925
G01 X106.2885 Y-123.1890
G01 X106.3832 Y-123.1552
G01 X106.3946 Y-123.1505
G01 X106.4856 Y-123.1076
G01 X106.4964 Y-123.1018
G01 X106.5827 Y-123.0502
G01 X106.5929 Y-123.0434
G01 X106.6738 Y-122.9835
G01 X106.6833 Y-122.9758
G01 X106.7579 Y-122.9083
G01 X106.7666 Y-122.8997
G01 X106.8342 Y-122.8252
G01 X106.8420 Y-122.8157
G01 X106.9020 Y-122.7350
G01 X106.9089 Y-122.7248
G01 X106.9606 Y-122.6385
G01 X106.9665 Y-122.6277
G01 X107.0095 Y-122.5368
G01 X107.0143 Y-122.5255
G01 X107.0482 Y-122.4308
G01 X107.0518 Y-122.4191
G01 X107.0763 Y-122.3215
G01 X107.0788 Y-122.3095
G01 X107.0936 Y-122.2100
G01 X107.0949 Y-122.1978
G01 X107.0999 Y-122.0974
G01 X107.0999 Y-122.0851
G01 X107.0951 Y-121.9846
G01 X107.0939 Y-121.9724
G01 X107.0792 Y-121.8729
G01 X107.0769 Y-121.8608
G01 X107.0525 Y-121.7633
G01 X107.0490 Y-121.7515
G01 X107.0152 Y-121.6568
G01 X107.0105 Y-121.6454
G01 X106.9676 Y-121.5544
G01 X106.9618 Y-121.5436
G01 X106.9102 Y-121.4573
G01 X106.9034 Y-121.4471
G01 X106.8435 Y-121.3662
G01 X106.8358 Y-121.3567
G01 X106.7683 Y-121.2821
G01 X106.7597 Y-121.2734
G01 X106.6852 Y-121.2058
G01 X106.6757 Y-121.1980
G01 X106.5950 Y-121.1380
G01 X106.5848 Y-121.1311
G01 X106.4985 Y-121.0794
G01 X106.4877 Y-121.0735
G01 X106.3968 Y-121.0305
G01 X106.3855 Y-121.0257
G01 X106.2908 Y-120.9918
G01 X106.2791 Y-120.9882
G01 X106.1815 Y-120.9637
G01 X106.1695 Y-120.9612
G01 X106.0700 Y-120.9464
G01 X106.0578 Y-120.9451
G01 X105.9574 Y-120.9401
G01 X105.9451 Y-120.9401
G01 X105.8446 Y-120.9449
G01 X105.8324 Y-120.9461
G01 X105.7329 Y-120.9608
G01 X105.7208 Y-120.9631
G01 X105.6233 Y-120.9875
G01 X105.6115 Y-120.9910
G01 X105.5168 Y-121.0248
G01 X105.5054 Y-121.0295
G01 X105.4144 Y-121.0724
G01 X105.4036 Y-121.0782
G01 X105.3173 Y-121.1298
G01 X105.3071 Y-121.1366
G01 X105.2262 Y-121.1965
G01 X105.2167 Y-121.2042
G01 X105.1421 Y-121.2717
G01 X105.1334 Y-121.2803
G01 X105.0658 Y-121.3548
G01 X105.0580 Y-121.3643
G01 X104.9980 Y-121.4450
G01 X104.9911 Y-121.4552
G01 X104.9394 Y-121.5415
G01 X104.9335 Y-121.5523
G01 X104.8905 Y-121.6432
G01 X104.8857 Y-121.6545
G01 X104.8518 Y-121.7492
G01 X104.8482 Y-121.7609
G01 X104.8237 Y-121.8585
G01 X104.8212 Y-121.8705
G01 X104.8064 Y-121.9700
G01 X104.8051 Y-121.9822
G01 X104.8001 Y-122.0826
G01 X104.8001 Y-122.0974
G00 Z2.0000
G00 X106.0004 Y-119.8676
G01 F60.00
G01 Z-1.7000
G01 F150.00
G01 X106.0000 Y-119.8775
G01 X106.0008 Y-119.8872
G01 X106.0016 Y-119.8927
G01 X106.0051 Y-119.9064
G01 X106.0086 Y-119.9155
G01 X106.0155 Y-119.9285
G01 X106.0212 Y-119.9365
G01 X106.0310 Y-119.9474
G01 X106.0424 Y-119.9568
G01 X106.0550 Y-119.9643
G01 X106.0686 Y-119.9699
G01 X106.0823 Y-119.9734
G01 X106.0926 Y-119.9747
G01 X106.1025 Y-119.9750
G01 X106.1171 Y-119.9735
G01 X106.1314 Y-119.9699
G01 X106.1450 Y-119.9643
G01 X106.1572 Y-119.9570
G01 X106.1653 Y-119.9507
G01 X106.1707 Y-119.9457
G01 X106.5250 Y-119.5915
G01 X106.8793 Y-119.9457
G01 X106.8847 Y-119.9507
G01 X106.8924 Y-119.9568
G01 X106.9050 Y-119.9643
G01 X106.9140 Y-119.9683
G01 X106.9233 Y-119.9714
G01 X106.9323 Y-119.9734
G01 X106.9378 Y-119.9742
G01 X106.9525 Y-119.9750
G01 X106.9622 Y-119.9742
G01 X106.9719 Y-119.9726
G01 X106.9860 Y-119.9683
G01 X106.9950 Y-119.9643
G01 X107.0035 Y-119.9595
G01 X107.0153 Y-119.9507
G01 X107.0257 Y-119.9403
G01 X107.0318 Y-119.9326
G01 X107.0370 Y-119.9243
G01 X107.0414 Y-119.9155
G01 X107.0449 Y-119.9064
G01 X107.0476 Y-119.8969
G01 X107.0492 Y-119.8872
G01 X107.0500 Y-119.8725
G01 X107.0492 Y-119.8628
G01 X107.0476 Y-119.8531
G01 X107.0449 Y-119.8436
G01 X107.0414 Y-119.8345
G01 X107.0370 Y-119.8257
G01 X107.0320 Y-119.8178
G01 X107.0257 Y-119.8097
G01 X107.0207 Y-119.8043
G01 X106.6665 Y-119.4500
G01 X107.0207 Y-119.0957
G01 X107.0257 Y-119.0903
G01 X107.0318 Y-119.0826
G01 X107.0393 Y-119.0700
G01 X107.0433 Y-119.0610
G01 X107.0464 Y-119.0517
G01 X107.0484 Y-119.0427
G01 X107.0492 Y-119.0372
G01 X107.0500 Y-119.0225
G01 X107.0492 Y-119.0128
G01 X107.0476 Y-119.0031
G01 X107.0433 Y-118.9890
G01 X107.0393 Y-118.9800
G01 X107.0345 Y-118.9715
G01 X107.0257 Y-118.9597
G01 X107.0153 Y-118.9493
G01 X107.0076 Y-118.9432
G01 X106.9993 Y-118.9380
G01 X106.9905 Y-118.9336
G01 X106.9814 Y-118.9301
G01 X106.9719 Y-118.9274
G01 X106.9622 Y-118.9258
G01 X106.9475 Y-118.9250
G01 X106.9378 Y-118.9258
G01 X106.9281 Y-118.9274
G01 X106.9186 Y-118.9301
G01 X106.9095 Y-118.9336
G01 X106.9007 Y-118.9380
G01 X106.8928 Y-118.9430
G01 X106.8847 Y-118.9493
G01 X106.8793 Y-118.9543
G01 X106.5250 Y-119.3085
G01 X106.1707 Y-118.9543
G01 X106.1653 Y-118.9493
G01 X106.1576 Y-118.9432
G01 X106.1450 Y-118.9357
G01 X106.1360 Y-118.9317
G01 X106.1267 Y-118.9286
G01 X106.1177 Y-118.9266
G01 X106.1122 Y-118.9258
G01 X106.0975 Y-118.9250
G01 X106.0878 Y-118.9258
G01 X106.0781 Y-118.9274
G01 X106.0640 Y-118.9317
G01 X106.0550 Y-118.9357
G01 X106.0465 Y-118.9405
G01 X106.0347 Y-118.9493
G01 X106.0243 Y-118.9597
G01 X106.0182 Y-118.9674
G01 X106.0130 Y-118.9757
G01 X106.0086 Y-118.9845
G01 X106.0051 Y-118.9936
G01 X106.0024 Y-119.0031
G01 X106.0008 Y-119.0128
G01 X106.0000 Y-119.0275
G01 X106.0008 Y-119.0372
G01 X106.0024 Y-119.0469
G01 X106.0051 Y-119.0564
G01 X106.0086 Y-119.0655
G01 X106.0130 Y-119.0743
G01 X106.0180 Y-119.0822
G01 X106.0243 Y-119.0903
G01 X106.0293 Y-119.0957
G01 X106.3835 Y-119.4500
G01 X106.0276 Y-119.8060
G01 X106.0212 Y-119.8135
G01 X106.0155 Y-119.8215
G01 X106.0086 Y-119.8345
G01 X106.0051 Y-119.8436
G01 X106.0024 Y-119.8531
G01 X106.0008 Y-119.8628
G01 X106.0004 Y-119.8676
G00 Z2.0000
G00 X107.1000 Y-107.9975
G01 F60.00
G01 Z-1.7000
G01 F150.00
G01 X107.1237 Y-108.4803
G01 X107.1943 Y-108.9559
G01 X107.3111 Y-109.4224
G01 X107.4731 Y-109.8751
G01 X107.6787 Y-110.3098
G01 X107.9259 Y-110.7222
G01 X108.2124 Y-111.1084
G01 X108.5353 Y-111.4647
G01 X108.8916 Y-111.7876
G01 X109.2778 Y-112.0741
G01 X109.6902 Y-112.3213
G01 X110.1249 Y-112.5269
G01 X110.5776 Y-112.6889
G01 X111.0441 Y-112.8057
G01 X111.5197 Y-112.8763
G01 X112.0025 Y-112.9000
G01 X186.9975 Y-112.9000
G01 X187.4803 Y-112.8763
G01 X187.9559 Y-112.8057
G01 X188.4224 Y-112.6889
G01 X188.8751 Y-112.5269
G01 X189.3098 Y-112.3213
G01 X189.7222 Y-112.0741
G01 X190.1084 Y-111.7876
G01 X190.4647 Y-111.4647
G01 X190.7876 Y-111.1084
G01 X191.0741 Y-110.7222
G01 X191.3213 Y-110.3098
G01 X191.5269 Y-109.8751
G01 X191.6889 Y-109.4224
G01 X191.8057 Y-108.9559
G01 X191.8763 Y-108.4803
G01 X191.9000 Y-107.9975
G01 X191.9000 Y-63.0025
G01 X191.8763 Y-62.5197
G01 X191.8057 Y-62.0441
G01 X191.6889 Y-61.5776
G01 X191.5269 Y-61.1249
G01 X191.3213 Y-60.6902
G01 X191.0741 Y-60.2778
G01 X190.7876 Y-59.8916
G01 X190.4647 Y-59.5353
G01 X190.1084 Y-59.2124
G01 X189.7222 Y-58.9259
G01 X189.3098 Y-58.6787
G01 X188.8751 Y-58.4731
G01 X188.4224 Y-58.3111
G01 X187.9559 Y-58.1943
G01 X187.4803 Y-58.1237
G01 X186.9975 Y-58.1000
G01 X112.0025 Y-58.1000
G01 X111.5197 Y-58.1237
G01 X111.0441 Y-58.1943
G01 X110.5776 Y-58.3111
G01 X110.1249 Y-58.4731
G01 X109.6902 Y-58.6787
G01 X109.2778 Y-58.9259
G01 X108.8916 Y-59.2124
G01 X108.5353 Y-59.5353
G01 X108.2124 Y-59.8916
G01 X107.9259 Y-60.2778
G01 X107.6787 Y-60.6902
G01 X107.4731 Y-61.1249
G01 X107.3111 Y-61.5776
G01 X107.1943 Y-62.0441
G01 X107.1237 Y-62.5197
G01 X107.1000 Y-63.0025
G01 X107.1000 Y-107.9975
G00 Z2.0000
G00 X120.6458 Y-119.0315
G01 F60.00
G01 Z-1.7000
G01 F150.00
G01 X120.6459 Y-120.3673
G01 X120.6468 Y-120.3820
G01 X120.6483 Y-120.3917
G01 X120.6516 Y-120.4060
G01 X120.6582 Y-120.4245
G01 X120.6647 Y-120.4377
G01 X120.6723 Y-120.4499
G01 X120.6815 Y-120.4619
G01 X120.6915 Y-120.4726
G01 X120.7026 Y-120.4823
G01 X120.7105 Y-120.4882
G01 X120.7230 Y-120.4960
G01 X120.7362 Y-120.5025
G01 X120.7547 Y-120.5091
G01 X120.7690 Y-120.5124
G01 X120.7836 Y-120.5143
G01 X120.7983 Y-120.5148
G01 X120.8081 Y-120.5143
G01 X120.8275 Y-120.5115
G01 X120.8417 Y-120.5077
G01 X120.8510 Y-120.5044
G01 X120.8644 Y-120.4983
G01 X120.8771 Y-120.4909
G01 X120.8891 Y-120.4823
G01 X120.9002 Y-120.4726
G01 X120.9134 Y-120.4581
G01 X120.9219 Y-120.4461
G01 X120.9293 Y-120.4334
G01 X120.9335 Y-120.4245
G01 X120.9387 Y-120.4107
G01 X120.9434 Y-120.3923
G01 X120.9454 Y-120.3771
G01 X120.9459 Y-120.3648
G01 X120.9459 Y-119.2841
G01 X120.9800 Y-119.2501
G01 X121.1170 Y-119.1816
G01 X121.3319 Y-119.1816
G01 X121.4459 Y-119.2386
G01 X121.5030 Y-119.3526
G01 X121.5030 Y-120.3648
G01 X121.5040 Y-120.3820
G01 X121.5064 Y-120.3965
G01 X121.5102 Y-120.4107
G01 X121.5154 Y-120.4245
G01 X121.5219 Y-120.4377
G01 X121.5294 Y-120.4499
G01 X121.5355 Y-120.4581
