(G-CODE GENERATED BY FLATCAM v8.99 - www.flatcam.org - Version Date: 2019/12/15)

(Name: Drill NPTH)
(Type: G-code from Geometry)
(Units: MM)

(Created on Saturday, 01 November 2025 at 13:57)

(TOOL DIAMETER: 0.1 mm)
(Feedrate: 120.0 mm/min)
(Feedrate_Z: 60.0 mm/min)
(Feedrate rapids 1500.0 mm/min)

(Z_Cut: -2.4 mm)
(Z_Move: 2.0 mm)
(Z Toolchange: 15.0 mm)
(X,Y Toolchange: 0.0000, 0.0000 mm)
(Z Start: None mm)
(Z End: 15.0 mm)
(Steps per circle: 64)
(Preprocessor Geometry: default)

(X range:  104.8000 ...  192.1000  mm)
(Y range: -121.2767 ...  -57.9000  mm)

(Spindle Speed: 6000 RPM)
G21
G90
G94




G01 F120.00
G00 Z2.0000

M03 S6000
G4 P1.0
G00 X106.9000 Y-63.0000
G01 F60.00
G01 Z-2.4000
G01 F120.00
G01 X106.9000 Y-108.0000
G01 X106.9242 Y-108.4950
G01 X106.9251 Y-108.5048
G01 X106.9971 Y-108.9901
G01 X106.9985 Y-108.9974
G01 X107.1183 Y-109.4757
G01 X107.1211 Y-109.4851
G01 X107.2864 Y-109.9471
G01 X107.2892 Y-109.9539
G01 X107.5000 Y-110.3997
G01 X107.5046 Y-110.4084
G01 X107.7582 Y-110.8313
G01 X107.7623 Y-110.8374
G01 X108.0546 Y-111.2316
G01 X108.0592 Y-111.2373
G01 X108.3904 Y-111.6027
G01 X108.3973 Y-111.6096
G01 X108.7609 Y-111.9392
G01 X108.7665 Y-111.9439
G01 X109.1626 Y-112.2377
G01 X109.1707 Y-112.2431
G01 X109.5937 Y-112.4966
G01 X109.6003 Y-112.5000
G01 X110.0438 Y-112.7098
G01 X110.0506 Y-112.7127
G01 X110.5149 Y-112.8789
G01 X110.5243 Y-112.8817
G01 X111.0026 Y-113.0015
G01 X111.0099 Y-113.0029
G01 X111.4952 Y-113.0749
G01 X111.5050 Y-113.0758
G01 X112.0000 Y-113.1000
G01 X187.0049 Y-113.0999
G01 X187.4974 Y-113.0756
G01 X187.5048 Y-113.0749
G01 X187.9901 Y-113.0029
G01 X187.9998 Y-113.0010
G01 X188.4781 Y-112.8811
G01 X188.4851 Y-112.8789
G01 X188.9471 Y-112.7136
G01 X188.9562 Y-112.7098
G01 X189.3997 Y-112.5000
G01 X189.4063 Y-112.4966
G01 X189.8293 Y-112.2431
G01 X189.8374 Y-112.2377
G01 X190.2335 Y-111.9439
G01 X190.2391 Y-111.9392
G01 X190.6027 Y-111.6096
G01 X190.6096 Y-111.6027
G01 X190.9392 Y-111.2391
G01 X190.9439 Y-111.2335
G01 X191.2377 Y-110.8374
G01 X191.2431 Y-110.8293
G01 X191.4966 Y-110.4063
G01 X191.5000 Y-110.3997
G01 X191.7098 Y-109.9562
G01 X191.7127 Y-109.9494
G01 X191.8789 Y-109.4851
G01 X191.8817 Y-109.4757
G01 X192.0015 Y-108.9974
G01 X192.0029 Y-108.9901
G01 X192.0749 Y-108.5048
G01 X192.0758 Y-108.4950
G01 X192.1000 Y-108.0000
G01 X192.0999 Y-62.9951
G01 X192.0756 Y-62.5026
G01 X192.0749 Y-62.4952
G01 X192.0029 Y-62.0099
G01 X192.0010 Y-62.0002
G01 X191.8811 Y-61.5219
G01 X191.8789 Y-61.5149
G01 X191.7136 Y-61.0529
G01 X191.7098 Y-61.0438
G01 X191.5000 Y-60.6003
G01 X191.4966 Y-60.5937
G01 X191.2431 Y-60.1707
G01 X191.2377 Y-60.1626
G01 X190.9439 Y-59.7665
G01 X190.9392 Y-59.7609
G01 X190.6096 Y-59.3973
G01 X190.6027 Y-59.3904
G01 X190.2391 Y-59.0608
G01 X190.2335 Y-59.0561
G01 X189.8374 Y-58.7623
G01 X189.8293 Y-58.7569
G01 X189.4063 Y-58.5034
G01 X189.3997 Y-58.5000
G01 X188.9562 Y-58.2902
G01 X188.9494 Y-58.2873
G01 X188.4851 Y-58.1211
G01 X188.4757 Y-58.1183
G01 X187.9974 Y-57.9985
G01 X187.9901 Y-57.9971
G01 X187.5048 Y-57.9251
G01 X187.4950 Y-57.9242
G01 X187.0000 Y-57.9000
G01 X112.0000 Y-57.9000
G01 X111.5050 Y-57.9242
G01 X111.4952 Y-57.9251
G01 X111.0075 Y-57.9976
G01 X111.0002 Y-57.9990
G01 X110.5219 Y-58.1189
G01 X110.5149 Y-58.1211
G01 X110.0506 Y-58.2873
G01 X110.0438 Y-58.2902
G01 X109.6003 Y-58.5000
G01 X109.5916 Y-58.5046
G01 X109.1687 Y-58.7582
G01 X109.1626 Y-58.7623
G01 X108.7684 Y-59.0546
G01 X108.7609 Y-59.0608
G01 X108.3973 Y-59.3904
G01 X108.3904 Y-59.3973
G01 X108.0608 Y-59.7609
G01 X108.0561 Y-59.7665
G01 X107.7623 Y-60.1626
G01 X107.7582 Y-60.1687
G01 X107.5046 Y-60.5916
G01 X107.5011 Y-60.5981
G01 X107.2902 Y-61.0438
G01 X107.2873 Y-61.0506
G01 X107.1211 Y-61.5149
G01 X107.1189 Y-61.5219
G01 X106.9990 Y-62.0002
G01 X106.9976 Y-62.0075
G01 X106.9251 Y-62.4952
G01 X106.9244 Y-62.5026
G01 X106.9000 Y-63.0000
G00 Z2.0000
G00 X122.4556 Y-92.0460
G01 F60.00
G01 Z-2.4000
G01 F120.00
G01 X122.4550 Y-92.0607
G01 X122.4560 Y-92.0754
G01 X122.4575 Y-92.0857
G01 X122.4622 Y-92.1042
G01 X122.4655 Y-92.1134
G01 X122.4716 Y-92.1268
G01 X122.4814 Y-92.1433
G01 X122.4875 Y-92.1515
G01 X122.4972 Y-92.1626
G01 X122.5117 Y-92.1758
G01 X122.5196 Y-92.1816
G01 X122.5321 Y-92.1894
G01 X122.5453 Y-92.1959
G01 X122.5638 Y-92.2025
G01 X122.5775 Y-92.2058
G01 X122.5879 Y-92.2073
G01 X122.6075 Y-92.2083
G01 X122.6221 Y-92.2073
G01 X122.6319 Y-92.2059
G01 X122.6509 Y-92.2011
G01 X122.6601 Y-92.1978
G01 X122.6735 Y-92.1917
G01 X122.6900 Y-92.1819
G01 X122.7020 Y-92.1727
G01 X122.7111 Y-92.1644
G01 X123.6050 Y-91.2705
G01 X124.4989 Y-92.1644
G01 X124.5117 Y-92.1758
G01 X124.5237 Y-92.1843
G01 X124.5365 Y-92.1917
G01 X124.5499 Y-92.1978
G01 X124.5638 Y-92.2025
G01 X124.5775 Y-92.2058
G01 X124.5879 Y-92.2073
G01 X124.6025 Y-92.2083
G01 X124.6173 Y-92.2078
G01 X124.6319 Y-92.2059
G01 X124.6462 Y-92.2025
G01 X124.6647 Y-92.1959
G01 X124.6779 Y-92.1894
G01 X124.6900 Y-92.1819
G01 X124.6983 Y-92.1758
G01 X124.7093 Y-92.1661
G01 X124.7194 Y-92.1553
G01 X124.7283 Y-92.1436
G01 X124.7384 Y-92.1268
G01 X124.7445 Y-92.1134
G01 X124.7492 Y-92.0995
G01 X124.7525 Y-92.0857
G01 X124.7545 Y-92.0705
G01 X124.7550 Y-92.0558
G01 X124.7540 Y-92.0411
G01 X124.7526 Y-92.0314
G01 X124.7492 Y-92.0171
G01 X124.7445 Y-92.0031
G01 X124.7384 Y-91.9897
G01 X124.7311 Y-91.9770
G01 X124.7225 Y-91.9650
G01 X124.7111 Y-91.9522
G01 X123.8172 Y-91.0583
G01 X124.7111 Y-90.1644
G01 X124.7225 Y-90.1515
G01 X124.7311 Y-90.1396
G01 X124.7384 Y-90.1268
G01 X124.7445 Y-90.1134
G01 X124.7492 Y-90.0995
G01 X124.7525 Y-90.0857
G01 X124.7540 Y-90.0754
G01 X124.7550 Y-90.0607
G01 X124.7545 Y-90.0460
G01 X124.7526 Y-90.0314
G01 X124.7492 Y-90.0171
G01 X124.7426 Y-89.9986
G01 X124.7361 Y-89.9854
G01 X124.7286 Y-89.9732
G01 X124.7225 Y-89.9650
G01 X124.7128 Y-89.9539
G01 X124.7020 Y-89.9439
G01 X124.6904 Y-89.9349
G01 X124.6735 Y-89.9248
G01 X124.6601 Y-89.9188
G01 X124.6462 Y-89.9140
G01 X124.6325 Y-89.9108
G01 X124.6173 Y-89.9088
G01 X124.6025 Y-89.9083
G01 X124.5879 Y-89.9092
G01 X124.5781 Y-89.9107
G01 X124.5638 Y-89.9140
G01 X124.5499 Y-89.9188
G01 X124.5365 Y-89.9248
G01 X124.5237 Y-89.9322
G01 X124.5117 Y-89.9408
G01 X124.4989 Y-89.9522
G01 X123.6050 Y-90.8461
G01 X122.7111 Y-89.9522
G01 X122.6983 Y-89.9408
G01 X122.6863 Y-89.9322
G01 X122.6735 Y-89.9248
G01 X122.6601 Y-89.9188
G01 X122.6462 Y-89.9140
G01 X122.6325 Y-89.9108
G01 X122.6221 Y-89.9092
G01 X122.6075 Y-89.9083
G01 X122.5927 Y-89.9088
G01 X122.5781 Y-89.9107
G01 X122.5638 Y-89.9140
G01 X122.5453 Y-89.9206
G01 X122.5321 Y-89.9271
G01 X122.5200 Y-89.9347
G01 X122.5117 Y-89.9408
G01 X122.5007 Y-89.9505
G01 X122.4906 Y-89.9612
G01 X122.4817 Y-89.9729
G01 X122.4716 Y-89.9897
G01 X122.4655 Y-90.0031
G01 X122.4608 Y-90.0171
G01 X122.4575 Y-90.0308
G01 X122.4555 Y-90.0460
G01 X122.4550 Y-90.0607
G01 X122.4560 Y-90.0754
G01 X122.4574 Y-90.0851
G01 X122.4608 Y-90.0995
G01 X122.4655 Y-90.1134
G01 X122.4716 Y-90.1268
G01 X122.4789 Y-90.1396
G01 X122.4875 Y-90.1515
G01 X122.4989 Y-90.1644
G01 X123.3928 Y-91.0583
G01 X122.4972 Y-91.9539
G01 X122.4875 Y-91.9650
G01 X122.4789 Y-91.9770
G01 X122.4739 Y-91.9854
G01 X122.4674 Y-91.9986
G01 X122.4622 Y-92.0124
G01 X122.4584 Y-92.0266
G01 X122.4560 Y-92.0411
G01 X122.4556 Y-92.0460
G00 Z2.0000
G00 X122.4556 Y-101.0460
G01 F60.00
G01 Z-2.4000
G01 F120.00
G01 X122.4550 Y-101.0607
G01 X122.4560 Y-101.0754
G01 X122.4575 Y-101.0857
G01 X122.4622 Y-101.1042
G01 X122.4655 Y-101.1134
G01 X122.4716 Y-101.1268
G01 X122.4814 Y-101.1433
G01 X122.4875 Y-101.1515
G01 X122.4972 Y-101.1626
G01 X122.5117 Y-101.1758
G01 X122.5196 Y-101.1816
G01 X122.5321 Y-101.1894
G01 X122.5453 Y-101.1959
G01 X122.5638 Y-101.2025
G01 X122.5775 Y-101.2058
G01 X122.5879 Y-101.2073
G01 X122.6075 Y-101.2083
G01 X122.6221 Y-101.2073
G01 X122.6319 Y-101.2059
G01 X122.6509 Y-101.2011
G01 X122.6601 Y-101.1978
G01 X122.6735 Y-101.1917
G01 X122.6900 Y-101.1819
G01 X122.7020 Y-101.1727
G01 X122.7111 Y-101.1644
G01 X123.6050 Y-100.2705
G01 X124.4989 Y-101.1644
G01 X124.5117 Y-101.1758
G01 X124.5237 Y-101.1843
G01 X124.5365 Y-101.1917
G01 X124.5499 Y-101.1978
G01 X124.5638 Y-101.2025
G01 X124.5775 Y-101.2058
G01 X124.5879 Y-101.2073
G01 X124.6025 Y-101.2083
G01 X124.6173 Y-101.2078
G01 X124.6319 Y-101.2059
G01 X124.6462 Y-101.2025
G01 X124.6647 Y-101.1959
G01 X124.6779 Y-101.1894
G01 X124.6900 Y-101.1819
G01 X124.6983 Y-101.1758
G01 X124.7093 Y-101.1661
G01 X124.7194 Y-101.1553
G01 X124.7283 Y-101.1436
G01 X124.7384 Y-101.1268
G01 X124.7445 Y-101.1134
G01 X124.7492 Y-101.0995
G01 X124.7525 Y-101.0857
G01 X124.7545 Y-101.0705
G01 X124.7550 Y-101.0558
G01 X124.7540 Y-101.0411
G01 X124.7526 Y-101.0314
G01 X124.7492 Y-101.0171
G01 X124.7445 Y-101.0031
G01 X124.7384 Y-100.9897
G01 X124.7311 Y-100.9770
G01 X124.7225 Y-100.9650
G01 X124.7111 Y-100.9522
G01 X123.8172 Y-100.0583
G01 X124.7111 Y-99.1644
G01 X124.7225 Y-99.1515
G01 X124.7311 Y-99.1396
G01 X124.7384 Y-99.1268
G01 X124.7445 Y-99.1134
G01 X124.7492 Y-99.0995
G01 X124.7525 Y-99.0857
G01 X124.7540 Y-99.0754
G01 X124.7550 Y-99.0607
G01 X124.7545 Y-99.0460
G01 X124.7526 Y-99.0314
G01 X124.7492 Y-99.0171
G01 X124.7426 Y-98.9986
G01 X124.7361 Y-98.9854
G01 X124.7286 Y-98.9732
G01 X124.7225 Y-98.9650
G01 X124.7128 Y-98.9539
G01 X124.7020 Y-98.9439
G01 X124.6904 Y-98.9349
G01 X124.6735 Y-98.9248
G01 X124.6601 Y-98.9188
G01 X124.6462 Y-98.9140
G01 X124.6325 Y-98.9108
G01 X124.6173 Y-98.9088
G01 X124.6025 Y-98.9083
G01 X124.5879 Y-98.9092
G01 X124.5781 Y-98.9107
G01 X124.5638 Y-98.9140
G01 X124.5499 Y-98.9188
G01 X124.5365 Y-98.9248
G01 X124.5237 Y-98.9322
G01 X124.5117 Y-98.9408
G01 X124.4989 Y-98.9522
G01 X123.6050 Y-99.8461
G01 X122.7111 Y-98.9522
G01 X122.6983 Y-98.9408
G01 X122.6863 Y-98.9322
G01 X122.6735 Y-98.9248
G01 X122.6601 Y-98.9188
G01 X122.6462 Y-98.9140
G01 X122.6325 Y-98.9108
G01 X122.6221 Y-98.9092
G01 X122.6075 Y-98.9083
G01 X122.5927 Y-98.9088
G01 X122.5781 Y-98.9107
G01 X122.5638 Y-98.9140
G01 X122.5453 Y-98.9206
G01 X122.5321 Y-98.9271
G01 X122.5200 Y-98.9347
G01 X122.5117 Y-98.9408
G01 X122.5007 Y-98.9505
G01 X122.4906 Y-98.9612
G01 X122.4817 Y-98.9729
G01 X122.4716 Y-98.9897
G01 X122.4655 Y-99.0031
G01 X122.4608 Y-99.0171
G01 X122.4575 Y-99.0308
G01 X122.4555 Y-99.0460
G01 X122.4550 Y-99.0607
G01 X122.4560 Y-99.0754
G01 X122.4574 Y-99.0851
G01 X122.4608 Y-99.0995
G01 X122.4655 Y-99.1134
G01 X122.4716 Y-99.1268
G01 X122.4789 Y-99.1396
G01 X122.4875 Y-99.1515
G01 X122.4989 Y-99.1644
G01 X123.3928 Y-100.0583
G01 X122.4972 Y-100.9539
G01 X122.4875 Y-100.9650
G01 X122.4789 Y-100.9770
G01 X122.4739 Y-100.9854
G01 X122.4674 Y-100.9986
G01 X122.4622 Y-101.0124
G01 X122.4584 Y-101.0266
G01 X122.4560 Y-101.0411
G01 X122.4556 Y-101.0460
G00 Z2.0000
G00 X121.3131 Y-114.8192
G01 F60.00
G01 Z-2.4000
G01 F120.00
G01 X121.3125 Y-114.8315
G01 X121.3125 Y-116.8315
G01 X121.3130 Y-116.8438
G01 X121.3150 Y-116.8590
G01 X121.3183 Y-116.8727
G01 X121.3230 Y-116.8866
G01 X121.3291 Y-116.9000
G01 X121.3365 Y-116.9128
G01 X121.3450 Y-116.9248
G01 X121.3547 Y-116.9358
G01 X121.3655 Y-116.9459
G01 X121.3772 Y-116.9548
G01 X121.3897 Y-116.9626
G01 X121.4029 Y-116.9691
G01 X121.4166 Y-116.9743
G01 X121.4309 Y-116.9781
G01 X121.4454 Y-116.9805
G01 X121.4601 Y-116.9815
G01 X121.4748 Y-116.9810
G01 X121.4894 Y-116.9791
G01 X121.5037 Y-116.9757
G01 X121.5222 Y-116.9691
G01 X121.5311 Y-116.9649
G01 X121.5438 Y-116.9576
G01 X121.5596 Y-116.9459
G01 X121.5703 Y-116.9358
G01 X121.5800 Y-116.9248
G01 X121.5859 Y-116.9169
G01 X121.5937 Y-116.9044
G01 X121.6020 Y-116.8866
G01 X121.6068 Y-116.8727
G01 X121.6100 Y-116.8590
G01 X121.6120 Y-116.8438
G01 X121.6126 Y-116.8315
G01 X121.6126 Y-116.3093
G01 X121.6292 Y-116.3130
G01 X121.6407 Y-116.3143
G01 X121.6530 Y-116.3149
G01 X122.0340 Y-116.3149
G01 X122.0462 Y-116.3143
G01 X122.0568 Y-116.3131
G01 X122.0656 Y-116.3115
G01 X122.0798 Y-116.3077
G01 X122.0899 Y-116.3040
G01 X122.1011 Y-116.2990
G01 X122.2915 Y-116.2038
G01 X122.3023 Y-116.1978
G01 X122.3095 Y-116.1932
G01 X122.3183 Y-116.1866
G01 X122.3288 Y-116.1774
G01 X122.4258 Y-116.0805
G01 X122.4372 Y-116.0676
G01 X122.4430 Y-116.0597
G01 X122.4479 Y-116.0522
G01 X122.4539 Y-116.0415
G01 X122.5491 Y-115.8510
G01 X122.5541 Y-115.8398
G01 X122.5577 Y-115.8298
G01 X122.5601 Y-115.8215
G01 X122.5630 Y-115.8077
G01 X122.5644 Y-115.7961
G01 X122.5650 Y-115.7839
G01 X122.5650 Y-115.2125
G01 X122.5644 Y-115.2002
G01 X122.5625 Y-115.1856
G01 X122.5592 Y-115.1713
G01 X122.5544 Y-115.1573
G01 X122.5491 Y-115.1454
G01 X122.4527 Y-114.9527
G01 X122.4479 Y-114.9442
G01 X122.4433 Y-114.9369
G01 X122.4367 Y-114.9281
G01 X122.4275 Y-114.9176
G01 X122.3305 Y-114.8206
G01 X122.3183 Y-114.8098
G01 X122.3064 Y-114.8011
G01 X122.2915 Y-114.7925
G01 X122.1011 Y-114.6973
G01 X122.0891 Y-114.6920
G01 X122.0759 Y-114.6875
G01 X122.0656 Y-114.6849
G01 X122.0577 Y-114.6834
G01 X122.0462 Y-114.6820
G01 X122.0340 Y-114.6814
G01 X121.6530 Y-114.6814
G01 X121.6448 Y-114.6817
G01 X121.6359 Y-114.6825
G01 X121.6213 Y-114.6849
G01 X121.6118 Y-114.6873
G01 X121.6017 Y-114.6905
G01 X121.5859 Y-114.6973
G01 X121.5545 Y-114.7130
G01 X121.5438 Y-114.7054
G01 X121.5354 Y-114.7004
G01 X121.5222 Y-114.6939
G01 X121.5084 Y-114.6887
G01 X121.4942 Y-114.6849
G01 X121.4797 Y-114.6825
G01 X121.4650 Y-114.6815
G01 X121.4503 Y-114.6820
G01 X121.4357 Y-114.6839
G01 X121.4166 Y-114.6887
G01 X121.4029 Y-114.6939
G01 X121.3897 Y-114.7004
G01 X121.3775 Y-114.7079
G01 X121.3693 Y-114.7140
G01 X121.3582 Y-114.7237
G01 X121.3481 Y-114.7345
G01 X121.3365 Y-114.7502
G01 X121.3291 Y-114.7630
G01 X121.3230 Y-114.7764
G01 X121.3197 Y-114.7856
G01 X121.3159 Y-114.7998
G01 X121.3135 Y-114.8144
G01 X121.3131 Y-114.8192
G00 Z2.0000
G00 X121.6884 Y-116.0148
G01 F60.00
G01 Z-2.4000
G01 F120.00
G01 X121.9985 Y-116.0148
G01 X122.1355 Y-115.9463
G01 X122.1964 Y-115.8855
G01 X122.2649 Y-115.7485
G01 X122.2649 Y-115.2479
G01 X122.1964 Y-115.1109
G01 X122.1355 Y-115.0501
G01 X121.9985 Y-114.9816
G01 X121.6884 Y-114.9816
G01 X121.6126 Y-115.0195
G01 X121.6126 Y-115.9769
G01 X121.6884 Y-116.0148
G00 Z2.0000
G00 X123.0268 Y-116.0696
G01 F60.00
G01 Z-2.4000
G01 F120.00
G01 X123.0275 Y-116.0843
G01 X123.0297 Y-116.0989
G01 X123.0332 Y-116.1132
G01 X123.0382 Y-116.1270
G01 X123.0445 Y-116.1403
G01 X123.0521 Y-116.1530
G01 X123.0608 Y-116.1648
G01 X123.0707 Y-116.1757
G01 X123.1659 Y-116.2709
G01 X123.1769 Y-116.2808
G01 X123.1887 Y-116.2896
G01 X123.2035 Y-116.2983
G01 X123.2146 Y-116.3035
G01 X123.2285 Y-116.3084
G01 X123.2428 Y-116.3120
G01 X123.2549 Y-116.3139
G01 X123.2721 Y-116.3149
G01 X123.2868 Y-116.3142
G01 X123.2989 Y-116.3124
G01 X123.3156 Y-116.3084
G01 X123.3317 Y-116.3025
G01 X123.3428 Y-116.2972
G01 X123.3554 Y-116.2896
G01 X123.3672 Y-116.2808
G01 X123.3781 Y-116.2709
G01 X123.4734 Y-116.1757
G01 X123.4848 Y-116.1629
G01 X123.4934 Y-116.1509
G01 X123.5007 Y-116.1381
G01 X123.5068 Y-116.1247
G01 X123.5115 Y-116.1108
G01 X123.5148 Y-116.0971
G01 X123.5168 Y-116.0819
G01 X123.5173 Y-116.0671
G01 X123.5163 Y-116.0525
G01 X123.5149 Y-116.0427
G01 X123.5101 Y-116.0237
G01 X123.5068 Y-116.0145
G01 X123.5007 Y-116.0011
G01 X123.4909 Y-115.9846
G01 X123.4817 Y-115.9726
G01 X123.4734 Y-115.9635
G01 X123.3781 Y-115.8683
G01 X123.3672 Y-115.8584
G01 X123.3554 Y-115.8496
G01 X123.3428 Y-115.8420
G01 X123.3295 Y-115.8357
G01 X123.3156 Y-115.8308
G01 X123.3013 Y-115.8272
G01 X123.2868 Y-115.8250
G01 X123.2720 Y-115.8243
G01 X123.2573 Y-115.8250
G01 X123.2452 Y-115.8268
G01 X123.2285 Y-115.8308
G01 X123.2146 Y-115.8357
G01 X123.2035 Y-115.8409
G01 X123.1887 Y-115.8496
G01 X123.1769 Y-115.8584
G01 X123.1659 Y-115.8683
G01 X123.0707 Y-115.9635
G01 X123.0608 Y-115.9744
G01 X123.0521 Y-115.9862
G01 X123.0445 Y-115.9989
G01 X123.0382 Y-116.0122
G01 X123.0332 Y-116.0260
G01 X123.0297 Y-116.0403
G01 X123.0275 Y-116.0549
G01 X123.0268 Y-116.0696
G00 Z2.0000
G00 X123.0268 Y-115.0220
G01 F60.00
G01 Z-2.4000
G01 F120.00
G01 X123.0275 Y-115.0367
G01 X123.0297 Y-115.0512
G01 X123.0332 Y-115.0655
G01 X123.0382 Y-115.0794
G01 X123.0445 Y-115.0927
G01 X123.0521 Y-115.1053
G01 X123.0608 Y-115.1172
G01 X123.0707 Y-115.1281
G01 X123.1659 Y-115.2233
G01 X123.1769 Y-115.2332
G01 X123.1887 Y-115.2420
G01 X123.2035 Y-115.2507
G01 X123.2146 Y-115.2558
G01 X123.2285 Y-115.2608
G01 X123.2428 Y-115.2644
G01 X123.2549 Y-115.2662
G01 X123.2721 Y-115.2673
G01 X123.2868 Y-115.2665
G01 X123.2989 Y-115.2648
G01 X123.3156 Y-115.2608
G01 X123.3317 Y-115.2549
G01 X123.3428 Y-115.2496
G01 X123.3554 Y-115.2420
G01 X123.3672 Y-115.2332
G01 X123.3781 Y-115.2233
G01 X123.4734 Y-115.1281
G01 X123.4848 Y-115.1152
G01 X123.4934 Y-115.1033
G01 X123.5007 Y-115.0905
G01 X123.5068 Y-115.0771
G01 X123.5115 Y-115.0632
G01 X123.5148 Y-115.0494
G01 X123.5168 Y-115.0342
G01 X123.5173 Y-115.0195
G01 X123.5163 Y-115.0048
G01 X123.5149 Y-114.9951
G01 X123.5101 Y-114.9761
G01 X123.5068 Y-114.9668
G01 X123.5007 Y-114.9534
G01 X123.4909 Y-114.9369
G01 X123.4817 Y-114.9249
G01 X123.4734 Y-114.9159
G01 X123.3781 Y-114.8206
G01 X123.3672 Y-114.8107
G01 X123.3554 Y-114.8020
G01 X123.3428 Y-114.7944
G01 X123.3295 Y-114.7881
G01 X123.3156 Y-114.7831
G01 X123.3013 Y-114.7796
G01 X123.2868 Y-114.7774
G01 X123.2720 Y-114.7767
G01 X123.2573 Y-114.7774
G01 X123.2452 Y-114.7792
G01 X123.2285 Y-114.7832
G01 X123.2146 Y-114.7881
G01 X123.2035 Y-114.7933
G01 X123.1887 Y-114.8020
G01 X123.1769 Y-114.8108
G01 X123.1659 Y-114.8206
G01 X123.0707 Y-114.9159
G01 X123.0608 Y-114.9268
G01 X123.0521 Y-114.9386
G01 X123.0445 Y-114.9512
G01 X123.0382 Y-114.9646
G01 X123.0332 Y-114.9784
G01 X123.0297 Y-114.9927
G01 X123.0275 Y-115.0073
G01 X123.0268 Y-115.0220
G00 Z2.0000
G00 X119.7078 Y-115.8437
G01 F60.00
G01 Z-2.4000
G01 F120.00
G01 X119.7649 Y-115.9578
G01 X119.8789 Y-116.0148
G01 X120.2842 Y-116.0148
G01 X120.3601 Y-115.9769
G01 X120.3601 Y-115.5474
G01 X120.3513 Y-115.5496
G01 X120.3425 Y-115.5512
G01 X120.3319 Y-115.5524
G01 X120.3197 Y-115.5530
G01 X119.8789 Y-115.5530
G01 X119.7649 Y-115.6100
G01 X119.7078 Y-115.7241
G01 X119.7078 Y-115.8437
G00 Z2.0000
G00 X119.4077 Y-115.6887
G01 F60.00
G01 Z-2.4000
G01 F120.00
G01 X119.4077 Y-115.8791
G01 X119.4087 Y-115.8963
G01 X119.4102 Y-115.9060
G01 X119.4125 Y-115.9164
G01 X119.4168 Y-115.9304
G01 X119.4236 Y-115.9462
G01 X119.5188 Y-116.1367
G01 X119.5236 Y-116.1456
G01 X119.5330 Y-116.1596
G01 X119.5381 Y-116.1660
G01 X119.5452 Y-116.1739
G01 X119.5517 Y-116.1802
G01 X119.5591 Y-116.1866
G01 X119.5683 Y-116.1934
G01 X119.5752 Y-116.1978
G01 X119.5859 Y-116.2038
G01 X119.7764 Y-116.2990
G01 X119.7922 Y-116.3058
G01 X119.8058 Y-116.3101
G01 X119.8197 Y-116.3130
G01 X119.8304 Y-116.3143
G01 X119.8410 Y-116.3148
G01 X120.3197 Y-116.3149
G01 X120.3319 Y-116.3143
G01 X120.3425 Y-116.3131
G01 X120.3513 Y-116.3115
G01 X120.3656 Y-116.3077
G01 X120.3756 Y-116.3040
G01 X120.3846 Y-116.3001
G01 X120.4182 Y-116.2833
G01 X120.4289 Y-116.2909
G01 X120.4416 Y-116.2983
G01 X120.4505 Y-116.3025
G01 X120.4643 Y-116.3077
G01 X120.4833 Y-116.3124
G01 X120.4979 Y-116.3143
G01 X120.5126 Y-116.3148
G01 X120.5273 Y-116.3139
G01 X120.5370 Y-116.3124
G01 X120.5560 Y-116.3077
G01 X120.5698 Y-116.3025
G01 X120.5830 Y-116.2960
G01 X120.5952 Y-116.2884
G01 X120.6034 Y-116.2823
G01 X120.6145 Y-116.2726
G01 X120.6277 Y-116.2581
G01 X120.6362 Y-116.2461
G01 X120.6436 Y-116.2334
G01 X120.6478 Y-116.2245
G01 X120.6530 Y-116.2107
G01 X120.6568 Y-116.1965
G01 X120.6592 Y-116.1820
G01 X120.6601 Y-116.1673
G01 X120.6602 Y-115.1172
G01 X120.6599 Y-115.1090
G01 X120.6584 Y-115.0944
G01 X120.6555 Y-115.0800
G01 X120.6511 Y-115.0659
G01 X120.6454 Y-115.0523
G01 X120.5491 Y-114.8596
G01 X120.5432 Y-114.8489
G01 X120.5349 Y-114.8367
G01 X120.5298 Y-114.8303
G01 X120.5227 Y-114.8224
G01 X120.5113 Y-114.8118
G01 X120.5049 Y-114.8067
G01 X120.4969 Y-114.8011
G01 X120.4820 Y-114.7925
G01 X120.2915 Y-114.6973
G01 X120.2841 Y-114.6939
G01 X120.2703 Y-114.6887
G01 X120.2561 Y-114.6849
G01 X120.2416 Y-114.6825
G01 X120.2269 Y-114.6815
G01 X119.8435 Y-114.6814
G01 X119.8304 Y-114.6821
G01 X119.8158 Y-114.6841
G01 X119.8062 Y-114.6862
G01 X119.7976 Y-114.6887
G01 X119.7876 Y-114.6923
G01 X119.7764 Y-114.6973
G01 X119.5859 Y-114.7925
G01 X119.5752 Y-114.7985
G01 X119.5630 Y-114.8067
G01 X119.5487 Y-114.8189
G01 X119.5381 Y-114.8303
G01 X119.5292 Y-114.8421
G01 X119.5239 Y-114.8503
G01 X119.5171 Y-114.8634
G01 X119.5099 Y-114.8816
G01 X119.5062 Y-114.8959
G01 X119.5045 Y-114.9055
G01 X119.5031 Y-114.9202
G01 X119.5036 Y-114.9398
G01 X119.5056 Y-114.9544
G01 X119.5077 Y-114.9640
G01 X119.5121 Y-114.9781
G01 X119.5178 Y-114.9916
G01 X119.5273 Y-115.0085
G01 X119.5360 Y-115.0206
G01 X119.5452 Y-115.0311
G01 X119.5529 Y-115.0384
G01 X119.5643 Y-115.0477
G01 X119.5809 Y-115.0583
G01 X119.5941 Y-115.0647
G01 X119.6079 Y-115.0698
G01 X119.6215 Y-115.0734
G01 X119.6367 Y-115.0759
G01 X119.6503 Y-115.0768
G01 X119.6612 Y-115.0765
G01 X119.6758 Y-115.0750
G01 X119.6903 Y-115.0721
G01 X119.7043 Y-115.0677
G01 X119.7201 Y-115.0609
G01 X119.8789 Y-114.9816
G01 X120.1890 Y-114.9816
G01 X120.3031 Y-115.0386
G01 X120.3601 Y-115.1526
G01 X120.3601 Y-115.2150
G01 X120.2842 Y-115.2529
G01 X119.8410 Y-115.2529
G01 X119.8312 Y-115.2534
G01 X119.8206 Y-115.2547
G01 X119.8062 Y-115.2576
G01 X119.7922 Y-115.2620
G01 X119.7764 Y-115.2687
G01 X119.5809 Y-115.3666
G01 X119.5712 Y-115.3724
G01 X119.5591 Y-115.3812
G01 X119.5487 Y-115.3904
G01 X119.5413 Y-115.3980
G01 X119.5360 Y-115.4043
G01 X119.5292 Y-115.4135
G01 X119.5239 Y-115.4218
G01 X119.5188 Y-115.4311
G01 X119.4225 Y-115.6238
G01 X119.4168 Y-115.6373
G01 X119.4135 Y-115.6475
G01 X119.4111 Y-115.6570
G01 X119.4087 Y-115.6715
G01 X119.4077 Y-115.6887
G00 Z2.0000
G00 X117.2172 Y-114.1648
G01 F60.00
G01 Z-2.4000
G01 F120.00
G01 X117.2172 Y-116.1648
G01 X117.2178 Y-116.1771
G01 X117.2197 Y-116.1917
G01 X117.2245 Y-116.2107
G01 X117.2297 Y-116.2245
G01 X117.2362 Y-116.2377
G01 X117.2437 Y-116.2499
G01 X117.2498 Y-116.2581
G01 X117.2630 Y-116.2726
G01 X117.2740 Y-116.2823
G01 X117.2819 Y-116.2882
G01 X117.2987 Y-116.2983
G01 X117.3076 Y-116.3025
G01 X117.3214 Y-116.3077
G01 X117.3398 Y-116.3123
G01 X117.3550 Y-116.3143
G01 X117.3697 Y-116.3148
G01 X117.3795 Y-116.3143
G01 X117.3990 Y-116.3115
G01 X117.4085 Y-116.3091
G01 X117.4224 Y-116.3044
G01 X117.4402 Y-116.2960
G01 X117.4523 Y-116.2884
G01 X117.4605 Y-116.2823
G01 X117.4751 Y-116.2692
G01 X117.4848 Y-116.2581
G01 X117.4906 Y-116.2502
G01 X117.5007 Y-116.2334
G01 X117.5049 Y-116.2245
G01 X117.5101 Y-116.2107
G01 X117.5148 Y-116.1923
G01 X117.5168 Y-116.1771
G01 X117.5173 Y-116.1648
G01 X117.5173 Y-114.8412
G01 X117.8980 Y-115.6569
G01 X117.9037 Y-115.6677
G01 X117.9125 Y-115.6814
G01 X117.9207 Y-115.6917
G01 X117.9248 Y-115.6963
G01 X117.9320 Y-115.7034
G01 X117.9420 Y-115.7119
G01 X117.9554 Y-115.7212
G01 X117.9669 Y-115.7276
G01 X117.9728 Y-115.7304
G01 X117.9818 Y-115.7341
G01 X117.9944 Y-115.7381
G01 X118.0001 Y-115.7396
G01 X118.0125 Y-115.7419
G01 X118.0296 Y-115.7434
G01 X118.0396 Y-115.7433
G01 X118.0528 Y-115.7422
G01 X118.0688 Y-115.7393
G01 X118.0814 Y-115.7357
G01 X118.0875 Y-115.7335
G01 X118.0966 Y-115.7297
G01 X118.1083 Y-115.7237
G01 X118.1220 Y-115.7149
G01 X118.1323 Y-115.7067
G01 X118.1369 Y-115.7025
G01 X118.1440 Y-115.6954
G01 X118.1525 Y-115.6853
G01 X118.1563 Y-115.6802
G01 X118.1635 Y-115.6691
G01 X118.1699 Y-115.6569
G01 X118.5506 Y-114.8412
G01 X118.5506 Y-116.1648
G01 X118.5511 Y-116.1771
G01 X118.5530 Y-116.1917
G01 X118.5564 Y-116.2060
G01 X118.5630 Y-116.2245
G01 X118.5672 Y-116.2334
G01 X118.5745 Y-116.2461
G01 X118.5831 Y-116.2581
G01 X118.5963 Y-116.2726
G01 X118.6074 Y-116.2823
G01 X118.6153 Y-116.2882
G01 X118.6278 Y-116.2960
G01 X118.6455 Y-116.3044
G01 X118.6594 Y-116.3091
G01 X118.6732 Y-116.3123
G01 X118.6835 Y-116.3139
G01 X118.7031 Y-116.3148
G01 X118.7178 Y-116.3139
G01 X118.7275 Y-116.3124
G01 X118.7418 Y-116.3091
G01 X118.7603 Y-116.3025
G01 X118.7692 Y-116.2983
G01 X118.7819 Y-116.2909
G01 X118.7939 Y-116.2823
G01 X118.8049 Y-116.2726
G01 X118.8181 Y-116.2581
G01 X118.8267 Y-116.2461
G01 X118.8341 Y-116.2334
G01 X118.8383 Y-116.2245
G01 X118.8434 Y-116.2107
G01 X118.8472 Y-116.1965
G01 X118.8496 Y-116.1820
G01 X118.8507 Y-116.1648
G01 X118.8507 Y-114.1648
G01 X118.8501 Y-114.1526
G01 X118.8485 Y-114.1396
G01 X118.8465 Y-114.1300
G01 X118.8434 Y-114.1190
G01 X118.8401 Y-114.1097
G01 X118.8341 Y-114.0963
G01 X118.8277 Y-114.0850
G01 X118.8221 Y-114.0768
G01 X118.8150 Y-114.0678
G01 X118.8098 Y-114.0619
G01 X118.7977 Y-114.0505
G01 X118.7913 Y-114.0454
G01 X118.7819 Y-114.0388
G01 X118.7750 Y-114.0345
G01 X118.7663 Y-114.0300
G01 X118.7527 Y-114.0242
G01 X118.7418 Y-114.0206
G01 X118.7345 Y-114.0187
G01 X118.7178 Y-114.0158
G01 X118.7097 Y-114.0151
G01 X118.6982 Y-114.0149
G01 X118.6900 Y-114.0152
G01 X118.6803 Y-114.0162
G01 X118.6658 Y-114.0189
G01 X118.6547 Y-114.0220
G01 X118.6471 Y-114.0247
G01 X118.6321 Y-114.0314
G01 X118.6249 Y-114.0353
G01 X118.6156 Y-114.0412
G01 X118.6087 Y-114.0463
G01 X118.6011 Y-114.0526
G01 X118.5928 Y-114.0605
G01 X118.5873 Y-114.0665
G01 X118.5773 Y-114.0795
G01 X118.5703 Y-114.0905
G01 X118.5646 Y-114.1014
G01 X118.0340 Y-115.2386
G01 X117.5033 Y-114.1014
G01 X117.4951 Y-114.0863
G01 X117.4868 Y-114.0741
G01 X117.4773 Y-114.0629
G01 X117.4702 Y-114.0557
G01 X117.4605 Y-114.0473
G01 X117.4527 Y-114.0415
G01 X117.4430 Y-114.0353
G01 X117.4343 Y-114.0306
G01 X117.4224 Y-114.0253
G01 X117.4132 Y-114.0220
G01 X117.4026 Y-114.0190
G01 X117.3888 Y-114.0163
G01 X117.3779 Y-114.0152
G01 X117.3648 Y-114.0149
G01 X117.3501 Y-114.0158
G01 X117.3404 Y-114.0173
G01 X117.3292 Y-114.0197
G01 X117.3198 Y-114.0225
G01 X117.3076 Y-114.0272
G01 X117.2987 Y-114.0314
G01 X117.2887 Y-114.0370
G01 X117.2766 Y-114.0454
G01 X117.2690 Y-114.0515
G01 X117.2595 Y-114.0605
G01 X117.2529 Y-114.0678
G01 X117.2458 Y-114.0768
G01 X117.2403 Y-114.0850
G01 X117.2339 Y-114.0963
G01 X117.2278 Y-114.1097
G01 X117.2245 Y-114.1190
G01 X117.2215 Y-114.1295
G01 X117.2188 Y-114.1433
G01 X117.2177 Y-114.1543
G01 X117.2172 Y-114.1648
G00 Z2.0000
G00 X114.6458 Y-114.1648
G01 F60.00
G01 Z-2.4000
G01 F120.00
G01 X114.6458 Y-115.8791
G01 X114.6468 Y-115.8963
G01 X114.6492 Y-115.9108
G01 X114.6516 Y-115.9203
G01 X114.6549 Y-115.9304
G01 X114.6617 Y-115.9462
G01 X114.7580 Y-116.1389
G01 X114.7653 Y-116.1514
G01 X114.7741 Y-116.1635
G01 X114.7833 Y-116.1739
G01 X114.7947 Y-116.1845
G01 X114.8011 Y-116.1896
G01 X114.8091 Y-116.1952
G01 X114.8240 Y-116.2038
G01 X115.0145 Y-116.2990
G01 X115.0257 Y-116.3040
G01 X115.0439 Y-116.3101
G01 X115.0578 Y-116.3130
G01 X115.0685 Y-116.3143
G01 X115.0881 Y-116.3147
G01 X115.0979 Y-116.3140
G01 X115.1124 Y-116.3116
G01 X115.1267 Y-116.3079
G01 X115.1405 Y-116.3028
G01 X115.1580 Y-116.2939
G01 X115.1703 Y-116.2858
G01 X115.1817 Y-116.2765
G01 X115.1922 Y-116.2662
G01 X115.2016 Y-116.2549
G01 X115.2098 Y-116.2427
G01 X115.2168 Y-116.2297
G01 X115.2225 Y-116.2162
G01 X115.2268 Y-116.2025
G01 X115.2297 Y-116.1886
G01 X115.2310 Y-116.1779
G01 X115.2316 Y-116.1621
G01 X115.2307 Y-116.1485
G01 X115.2284 Y-116.1340
G01 X115.2246 Y-116.1197
G01 X115.2195 Y-116.1059
G01 X115.2131 Y-116.0927
G01 X115.2054 Y-116.0801
G01 X115.1965 Y-116.0684
G01 X115.1865 Y-116.0576
G01 X115.1755 Y-116.0479
G01 X115.1636 Y-116.0392
G01 X115.1487 Y-116.0306
G01 X115.0029 Y-115.9578
G01 X114.9459 Y-115.8437
G01 X114.9459 Y-114.1648
G01 X114.9449 Y-114.1477
G01 X114.9425 Y-114.1332
G01 X114.9387 Y-114.1190
G01 X114.9335 Y-114.1052
G01 X114.9270 Y-114.0920
G01 X114.9195 Y-114.0798
G01 X114.9134 Y-114.0716
G01 X114.9037 Y-114.0605
G01 X114.8929 Y-114.0505
G01 X114.8812 Y-114.0415
G01 X114.8644 Y-114.0314
G01 X114.8510 Y-114.0253
G01 X114.8371 Y-114.0206
G01 X114.8233 Y-114.0173
G01 X114.8081 Y-114.0153
G01 X114.7934 Y-114.0149
G01 X114.7787 Y-114.0158
G01 X114.7642 Y-114.0182
G01 X114.7500 Y-114.0220
G01 X114.7362 Y-114.0272
G01 X114.7230 Y-114.0337
G01 X114.7108 Y-114.0412
G01 X114.7026 Y-114.0473
G01 X114.6915 Y-114.0570
G01 X114.6815 Y-114.0678
G01 X114.6698 Y-114.0836
G01 X114.6624 Y-114.0963
G01 X114.6563 Y-114.1097
G01 X114.6516 Y-114.1236
G01 X114.6484 Y-114.1374
G01 X114.6464 Y-114.1526
G01 X114.6458 Y-114.1648
G00 Z2.0000
G00 X113.5982 Y-114.1648
G01 F60.00
G01 Z-2.4000
G01 F120.00
G01 X113.5982 Y-115.8791
G01 X113.5992 Y-115.8963
G01 X113.6016 Y-115.9108
G01 X113.6040 Y-115.9203
G01 X113.6073 Y-115.9304
G01 X113.6140 Y-115.9462
G01 X113.7104 Y-116.1389
G01 X113.7177 Y-116.1514
G01 X113.7265 Y-116.1635
G01 X113.7357 Y-116.1739
G01 X113.7471 Y-116.1845
G01 X113.7535 Y-116.1896
G01 X113.7615 Y-116.1952
G01 X113.7764 Y-116.2038
G01 X113.9669 Y-116.2990
G01 X113.9781 Y-116.3040
G01 X113.9963 Y-116.3101
G01 X114.0102 Y-116.3130
G01 X114.0209 Y-116.3143
G01 X114.0405 Y-116.3147
G01 X114.0503 Y-116.3140
G01 X114.0648 Y-116.3116
G01 X114.0791 Y-116.3079
G01 X114.0929 Y-116.3028
G01 X114.1104 Y-116.2939
G01 X114.1227 Y-116.2858
G01 X114.1341 Y-116.2765
G01 X114.1446 Y-116.2662
G01 X114.1540 Y-116.2549
G01 X114.1622 Y-116.2427
G01 X114.1692 Y-116.2297
G01 X114.1749 Y-116.2162
G01 X114.1792 Y-116.2025
G01 X114.1821 Y-116.1886
G01 X114.1834 Y-116.1779
G01 X114.1840 Y-116.1621
G01 X114.1831 Y-116.1485
G01 X114.1808 Y-116.1340
G01 X114.1770 Y-116.1197
G01 X114.1719 Y-116.1059
G01 X114.1655 Y-116.0927
G01 X114.1578 Y-116.0801
G01 X114.1489 Y-116.0684
G01 X114.1389 Y-116.0576
G01 X114.1279 Y-116.0479
G01 X114.1159 Y-116.0392
G01 X114.1011 Y-116.0306
G01 X113.9553 Y-115.9578
G01 X113.8983 Y-115.8437
G01 X113.8983 Y-114.1648
G01 X113.8973 Y-114.1477
G01 X113.8949 Y-114.1332
G01 X113.8911 Y-114.1190
G01 X113.8859 Y-114.1052
G01 X113.8794 Y-114.0920
G01 X113.8718 Y-114.0798
G01 X113.8657 Y-114.0716
G01 X113.8560 Y-114.0605
G01 X113.8453 Y-114.0505
G01 X113.8336 Y-114.0415
G01 X113.8168 Y-114.0314
G01 X113.8034 Y-114.0253
G01 X113.7894 Y-114.0206
G01 X113.7757 Y-114.0173
G01 X113.7605 Y-114.0153
G01 X113.7458 Y-114.0149
G01 X113.7311 Y-114.0158
G01 X113.7166 Y-114.0182
G01 X113.7024 Y-114.0220
G01 X113.6886 Y-114.0272
G01 X113.6754 Y-114.0337
G01 X113.6632 Y-114.0412
G01 X113.6550 Y-114.0473
G01 X113.6439 Y-114.0570
G01 X113.6339 Y-114.0678
G01 X113.6222 Y-114.0836
G01 X113.6148 Y-114.0963
G01 X113.6087 Y-114.1097
G01 X113.6040 Y-114.1236
G01 X113.6007 Y-114.1374
G01 X113.5987 Y-114.1526
G01 X113.5982 Y-114.1648
G00 Z2.0000
G00 X112.5506 Y-114.2576
G01 F60.00
G01 Z-2.4000
G01 F120.00
G01 X112.5513 Y-114.2748
G01 X112.5535 Y-114.2894
G01 X112.5570 Y-114.3036
G01 X112.5620 Y-114.3175
G01 X112.5683 Y-114.3308
G01 X112.5759 Y-114.3435
G01 X112.5846 Y-114.3553
G01 X112.5945 Y-114.3662
G01 X112.6898 Y-114.4614
G01 X112.7007 Y-114.4713
G01 X112.7125 Y-114.4801
G01 X112.7273 Y-114.4887
G01 X112.7384 Y-114.4939
G01 X112.7523 Y-114.4989
G01 X112.7690 Y-114.5029
G01 X112.7812 Y-114.5046
G01 X112.7959 Y-114.5054
G01 X112.8106 Y-114.5046
G01 X112.8227 Y-114.5029
G01 X112.8394 Y-114.4989
G01 X112.8533 Y-114.4939
G01 X112.8644 Y-114.4887
G01 X112.8792 Y-114.4801
G01 X112.8911 Y-114.4713
G01 X112.9020 Y-114.4614
G01 X112.9972 Y-114.3662
G01 X113.0071 Y-114.3553
G01 X113.0159 Y-114.3435
G01 X113.0234 Y-114.3308
G01 X113.0297 Y-114.3175
G01 X113.0347 Y-114.3036
G01 X113.0383 Y-114.2894
G01 X113.0404 Y-114.2748
G01 X113.0412 Y-114.2601
G01 X113.0404 Y-114.2454
G01 X113.0383 Y-114.2308
G01 X113.0347 Y-114.2165
G01 X113.0297 Y-114.2027
G01 X113.0234 Y-114.1894
G01 X113.0159 Y-114.1767
G01 X113.0071 Y-114.1649
G01 X112.9972 Y-114.1540
G01 X112.9020 Y-114.0587
G01 X112.8929 Y-114.0505
G01 X112.8812 Y-114.0415
G01 X112.8644 Y-114.0314
G01 X112.8555 Y-114.0272
G01 X112.8417 Y-114.0220
G01 X112.8233 Y-114.0173
G01 X112.8130 Y-114.0158
G01 X112.7983 Y-114.0149
G01 X112.7836 Y-114.0153
G01 X112.7690 Y-114.0173
G01 X112.7547 Y-114.0206
G01 X112.7407 Y-114.0253
G01 X112.7273 Y-114.0314
G01 X112.7146 Y-114.0388
G01 X112.7026 Y-114.0473
G01 X112.6898 Y-114.0587
G01 X112.5945 Y-114.1540
G01 X112.5846 Y-114.1649
G01 X112.5759 Y-114.1767
G01 X112.5683 Y-114.1893
G01 X112.5630 Y-114.2004
G01 X112.5570 Y-114.2165
G01 X112.5530 Y-114.2332
G01 X112.5513 Y-114.2454
G01 X112.5506 Y-114.2576
G00 Z2.0000
G00 X112.6458 Y-114.8315
G01 F60.00
G01 Z-2.4000
G01 F120.00
G01 X112.6458 Y-116.1648
G01 X112.6468 Y-116.1820
G01 X112.6492 Y-116.1965
G01 X112.6530 Y-116.2107
G01 X112.6582 Y-116.2245
G01 X112.6647 Y-116.2377
G01 X112.6723 Y-116.2499
G01 X112.6815 Y-116.2619
G01 X112.6915 Y-116.2726
G01 X112.7026 Y-116.2823
G01 X112.7146 Y-116.2909
G01 X112.7273 Y-116.2983
G01 X112.7407 Y-116.3044
G01 X112.7547 Y-116.3091
G01 X112.7684 Y-116.3123
G01 X112.7836 Y-116.3143
G01 X112.7983 Y-116.3148
G01 X112.8130 Y-116.3139
G01 X112.8227 Y-116.3124
G01 X112.8371 Y-116.3091
G01 X112.8510 Y-116.3044
G01 X112.8644 Y-116.2983
G01 X112.8812 Y-116.2882
G01 X112.8929 Y-116.2792
G01 X112.9037 Y-116.2692
G01 X112.9134 Y-116.2581
G01 X112.9219 Y-116.2461
G01 X112.9270 Y-116.2377
G01 X112.9335 Y-116.2245
G01 X112.9401 Y-116.2060
G01 X112.9434 Y-116.1923
G01 X112.9454 Y-116.1771
G01 X112.9459 Y-116.1648
G01 X112.9459 Y-114.8315
G01 X112.9449 Y-114.8144
G01 X112.9425 Y-114.7998
G01 X112.9387 Y-114.7856
G01 X112.9335 Y-114.7718
G01 X112.9270 Y-114.7586
G01 X112.9195 Y-114.7465
G01 X112.9102 Y-114.7345
G01 X112.9002 Y-114.7237
G01 X112.8891 Y-114.7140
G01 X112.8771 Y-114.7054
G01 X112.8644 Y-114.6981
G01 X112.8510 Y-114.6920
G01 X112.8371 Y-114.6873
G01 X112.8233 Y-114.6840
G01 X112.8130 Y-114.6825
G01 X112.7983 Y-114.6815
G01 X112.7836 Y-114.6820
G01 X112.7690 Y-114.6839
G01 X112.7547 Y-114.6873
G01 X112.7407 Y-114.6920
G01 X112.7273 Y-114.6981
G01 X112.7105 Y-114.7082
G01 X112.6988 Y-114.7171
G01 X112.6881 Y-114.7272
G01 X112.6784 Y-114.7382
G01 X112.6698 Y-114.7502
G01 X112.6624 Y-114.7630
G01 X112.6563 Y-114.7764
G01 X112.6516 Y-114.7903
G01 X112.6484 Y-114.8040
G01 X112.6464 Y-114.8192
G01 X112.6458 Y-114.8315
G00 Z2.0000
G00 X111.4077 Y-114.8315
G01 F60.00
G01 Z-2.4000
G01 F120.00
G01 X111.4077 Y-116.1648
G01 X111.4087 Y-116.1820
G01 X111.4111 Y-116.1965
G01 X111.4150 Y-116.2107
G01 X111.4201 Y-116.2245
G01 X111.4266 Y-116.2377
G01 X111.4342 Y-116.2499
G01 X111.4434 Y-116.2619
G01 X111.4534 Y-116.2726
G01 X111.4645 Y-116.2823
G01 X111.4765 Y-116.2909
G01 X111.4892 Y-116.2983
G01 X111.5026 Y-116.3044
G01 X111.5166 Y-116.3091
G01 X111.5303 Y-116.3123
G01 X111.5455 Y-116.3143
G01 X111.5602 Y-116.3148
G01 X111.5749 Y-116.3139
G01 X111.5846 Y-116.3124
G01 X111.5990 Y-116.3091
G01 X111.6129 Y-116.3044
G01 X111.6263 Y-116.2983
G01 X111.6431 Y-116.2882
G01 X111.6548 Y-116.2792
G01 X111.6656 Y-116.2692
G01 X111.6753 Y-116.2581
G01 X111.6811 Y-116.2502
G01 X111.6912 Y-116.2334
G01 X111.6973 Y-116.2200
G01 X111.7020 Y-116.2060
G01 X111.7053 Y-116.1923
G01 X111.7068 Y-116.1820
G01 X111.7078 Y-116.1648
G01 X111.7078 Y-115.2479
G01 X111.7763 Y-115.1109
G01 X111.8371 Y-115.0501
G01 X111.9741 Y-114.9816
G01 X112.1292 Y-114.9816
G01 X112.1415 Y-114.9810
G01 X112.1561 Y-114.9791
G01 X112.1704 Y-114.9757
G01 X112.1843 Y-114.9710
G01 X112.1977 Y-114.9649
G01 X112.2142 Y-114.9551
G01 X112.2225 Y-114.9490
G01 X112.2335 Y-114.9393
G01 X112.2467 Y-114.9248
G01 X112.2525 Y-114.9169
G01 X112.2603 Y-114.9044
G01 X112.2687 Y-114.8866
G01 X112.2734 Y-114.8727
G01 X112.2767 Y-114.8590
G01 X112.2782 Y-114.8486
G01 X112.2792 Y-114.8340
G01 X112.2782 Y-114.8144
G01 X112.2768 Y-114.8046
G01 X112.2734 Y-114.7903
G01 X112.2687 Y-114.7764
G01 X112.2626 Y-114.7630
G01 X112.2528 Y-114.7465
G01 X112.2467 Y-114.7382
G01 X112.2370 Y-114.7272
G01 X112.2225 Y-114.7140
G01 X112.2146 Y-114.7082
G01 X112.2021 Y-114.7004
G01 X112.1843 Y-114.6920
G01 X112.1704 Y-114.6873
G01 X112.1567 Y-114.6840
G01 X112.1415 Y-114.6820
G01 X112.1292 Y-114.6814
G01 X111.9387 Y-114.6814
G01 X111.9216 Y-114.6825
G01 X111.9071 Y-114.6849
G01 X111.8975 Y-114.6873
G01 X111.8874 Y-114.6905
G01 X111.8716 Y-114.6973
G01 X111.6997 Y-114.7832
G01 X111.6954 Y-114.7718
G01 X111.6889 Y-114.7586
G01 X111.6814 Y-114.7465
G01 X111.6753 Y-114.7382
G01 X111.6621 Y-114.7237
G01 X111.6510 Y-114.7140
G01 X111.6431 Y-114.7082
G01 X111.6263 Y-114.6981
G01 X111.6129 Y-114.6920
G01 X111.5990 Y-114.6873
G01 X111.5852 Y-114.6840
G01 X111.5749 Y-114.6825
G01 X111.5553 Y-114.6815
G01 X111.5406 Y-114.6825
G01 X111.5261 Y-114.6849
G01 X111.5119 Y-114.6887
G01 X111.4981 Y-114.6939
G01 X111.4849 Y-114.7004
G01 X111.4727 Y-114.7079
G01 X111.4607 Y-114.7171
G01 X111.4500 Y-114.7272
G01 X111.4403 Y-114.7382
G01 X111.4317 Y-114.7502
G01 X111.4243 Y-114.7630
G01 X111.4183 Y-114.7764
G01 X111.4135 Y-114.7903
G01 X111.4103 Y-114.8040
G01 X111.4083 Y-114.8192
G01 X111.4077 Y-114.8315
G00 Z2.0000
G00 X109.7078 Y-116.0148
G01 F60.00
G01 Z-2.4000
G01 F120.00
G01 X110.0096 Y-116.0148
G01 X110.2386 Y-115.9385
G01 X110.3868 Y-115.7902
G01 X110.4638 Y-115.6363
G01 X110.5506 Y-115.2892
G01 X110.5506 Y-115.0405
G01 X110.4638 Y-114.6934
G01 X110.3868 Y-114.5394
G01 X110.2386 Y-114.3912
G01 X110.0096 Y-114.3149
G01 X109.7078 Y-114.3149
G01 X109.7078 Y-116.0148
G00 Z2.0000
G00 X109.4078 Y-116.1673
G01 F60.00
G01 Z-2.4000
G01 F120.00
G01 X109.4087 Y-116.1820
G01 X109.4102 Y-116.1917
G01 X109.4150 Y-116.2107
G01 X109.4201 Y-116.2245
G01 X109.4266 Y-116.2377
G01 X109.4342 Y-116.2499
G01 X109.4403 Y-116.2581
G01 X109.4500 Y-116.2692
G01 X109.4607 Y-116.2792
G01 X109.4765 Y-116.2909
G01 X109.4849 Y-116.2960
G01 X109.4981 Y-116.3025
G01 X109.5119 Y-116.3077
G01 X109.5261 Y-116.3115
G01 X109.5406 Y-116.3139
G01 X109.5578 Y-116.3149
G01 X110.0340 Y-116.3149
G01 X110.0462 Y-116.3143
G01 X110.0608 Y-116.3124
G01 X110.0696 Y-116.3106
G01 X110.0814 Y-116.3072
G01 X110.3694 Y-116.2111
G01 X110.3831 Y-116.2056
G01 X110.3956 Y-116.1990
G01 X110.4047 Y-116.1932
G01 X110.4161 Y-116.1845
G01 X110.4258 Y-116.1757
G01 X110.6163 Y-115.9852
G01 X110.6245 Y-115.9762
G01 X110.6301 Y-115.9691
G01 X110.6384 Y-115.9570
G01 X110.6444 Y-115.9462
G01 X110.7396 Y-115.7558
G01 X110.7458 Y-115.7414
G01 X110.7510 Y-115.7250
G01 X110.8462 Y-115.3441
G01 X110.8492 Y-115.3284
G01 X110.8503 Y-115.3174
G01 X110.8507 Y-115.3077
G01 X110.8507 Y-115.0220
G01 X110.8497 Y-115.0048
G01 X110.8473 Y-114.9903
G01 X110.7510 Y-114.6046
G01 X110.7475 Y-114.5929
G01 X110.7446 Y-114.5851
G01 X110.7396 Y-114.5739
G01 X110.6432 Y-114.3813
G01 X110.6384 Y-114.3727
G01 X110.6337 Y-114.3655
G01 X110.6271 Y-114.3567
G01 X110.6180 Y-114.3462
G01 X110.4258 Y-114.1540
G01 X110.4161 Y-114.1452
G01 X110.4050 Y-114.1367
G01 X110.3961 Y-114.1310
G01 X110.3831 Y-114.1241
G01 X110.3671 Y-114.1177
G01 X110.0814 Y-114.0225
G01 X110.0696 Y-114.0191
G01 X110.0614 Y-114.0173
G01 X110.0503 Y-114.0157
G01 X110.0367 Y-114.0148
G01 X109.5578 Y-114.0148
G01 X109.5406 Y-114.0158
G01 X109.5309 Y-114.0173
G01 X109.5166 Y-114.0206
G01 X109.5026 Y-114.0253
G01 X109.4892 Y-114.0314
G01 X109.4727 Y-114.0412
G01 X109.4607 Y-114.0505
G01 X109.4500 Y-114.0605
G01 X109.4434 Y-114.0678
G01 X109.4317 Y-114.0836
G01 X109.4243 Y-114.0963
G01 X109.4201 Y-114.1052
G01 X109.4150 Y-114.1190
G01 X109.4111 Y-114.1332
G01 X109.4087 Y-114.1477
G01 X109.4077 Y-114.1648
G01 X109.4078 Y-116.1673
G00 Z2.0000
G00 X112.1696 Y-119.1267
G01 F60.00
G01 Z-2.4000
G01 F120.00
G01 X112.1696 Y-119.6029
G01 X112.1702 Y-119.6152
G01 X112.1721 Y-119.6298
G01 X112.1741 Y-119.6393
G01 X112.2693 Y-120.0203
G01 X112.2728 Y-120.0320
G01 X112.2757 Y-120.0398
G01 X112.2807 Y-120.0510
G01 X112.3759 Y-120.2415
G01 X112.3844 Y-120.2562
G01 X112.3902 Y-120.2644
G01 X112.3958 Y-120.2714
G01 X112.4040 Y-120.2805
G01 X112.4993 Y-120.3757
G01 X112.5115 Y-120.3866
G01 X112.5241 Y-120.3957
G01 X112.5383 Y-120.4038
G01 X112.7310 Y-120.5001
G01 X112.7407 Y-120.5044
G01 X112.7547 Y-120.5091
G01 X112.7684 Y-120.5123
G01 X112.7787 Y-120.5139
G01 X112.7959 Y-120.5149
G01 X112.9863 Y-120.5149
G01 X113.0035 Y-120.5139
G01 X113.0132 Y-120.5124
G01 X113.0236 Y-120.5102
G01 X113.0377 Y-120.5058
G01 X113.0534 Y-120.4990
G01 X113.2439 Y-120.4038
G01 X113.2586 Y-120.3954
G01 X113.2668 Y-120.3896
G01 X113.2739 Y-120.3840
G01 X113.2829 Y-120.3757
G01 X113.3782 Y-120.2805
G01 X113.3864 Y-120.2714
G01 X113.3954 Y-120.2597
G01 X113.4003 Y-120.2522
G01 X113.4063 Y-120.2415
G01 X113.5040 Y-120.0457
G01 X113.5094 Y-120.0320
G01 X113.5129 Y-120.0203
G01 X113.6081 Y-119.6393
G01 X113.6111 Y-119.6236
G01 X113.6122 Y-119.6127
G01 X113.6126 Y-119.6029
G01 X113.6126 Y-119.1267
G01 X113.6120 Y-119.1145
G01 X113.6101 Y-119.0999
G01 X113.6081 Y-119.0903
G01 X113.5129 Y-118.7094
G01 X113.5094 Y-118.6976
G01 X113.5065 Y-118.6899
G01 X113.5015 Y-118.6787
G01 X113.4063 Y-118.4882
G01 X113.3978 Y-118.4735
G01 X113.3920 Y-118.4653
G01 X113.3864 Y-118.4583
G01 X113.3782 Y-118.4492
G01 X113.2829 Y-118.3540
G01 X113.2707 Y-118.3431
G01 X113.2581 Y-118.3340
G01 X113.2439 Y-118.3259
G01 X113.0534 Y-118.2306
G01 X113.0422 Y-118.2256
G01 X113.0322 Y-118.2220
G01 X113.0240 Y-118.2196
G01 X113.0101 Y-118.2167
G01 X112.9986 Y-118.2153
G01 X112.9863 Y-118.2148
G01 X112.7959 Y-118.2148
G01 X112.7787 Y-118.2158
G01 X112.7642 Y-118.2182
G01 X112.7547 Y-118.2206
G01 X112.7445 Y-118.2239
G01 X112.7288 Y-118.2306
G01 X112.5325 Y-118.3290
G01 X112.5236 Y-118.3343
G01 X112.5154 Y-118.3401
G01 X112.5083 Y-118.3457
G01 X112.5010 Y-118.3523
G01 X112.4041 Y-118.4492
G01 X112.3958 Y-118.4583
G01 X112.3868 Y-118.4699
G01 X112.3819 Y-118.4775
G01 X112.3759 Y-118.4882
G01 X112.2782 Y-118.6839
G01 X112.2728 Y-118.6976
G01 X112.2693 Y-118.7094
G01 X112.1741 Y-119.0903
G01 X112.1711 Y-119.1060
G01 X112.1700 Y-119.1170
G01 X112.1696 Y-119.1267
G00 Z2.0000
G00 X112.4697 Y-119.5845
G01 F60.00
G01 Z-2.4000
G01 F120.00
G01 X112.5565 Y-119.9315
G01 X112.6335 Y-120.0855
G01 X112.6943 Y-120.1463
G01 X112.8313 Y-120.2148
G01 X112.9509 Y-120.2148
G01 X113.0879 Y-120.1463
G01 X113.1487 Y-120.0855
G01 X113.2257 Y-119.9315
G01 X113.3125 Y-119.5845
G01 X113.3125 Y-119.1452
G01 X113.2257 Y-118.7982
G01 X113.1487 Y-118.6442
G01 X113.0879 Y-118.5834
G01 X112.9509 Y-118.5149
G01 X112.8313 Y-118.5149
G01 X112.6943 Y-118.5834
G01 X112.6335 Y-118.6442
G01 X112.5565 Y-118.7982
G01 X112.4697 Y-119.1452
G01 X112.4697 Y-119.5845
G00 Z2.0000
G00 X111.2173 Y-120.2721
G01 F60.00
G01 Z-2.4000
G01 F120.00
G01 X111.2183 Y-120.2867
G01 X111.2197 Y-120.2965
G01 X111.2245 Y-120.3155
G01 X111.2278 Y-120.3247
G01 X111.2339 Y-120.3381
G01 X111.2437 Y-120.3546
G01 X111.2529 Y-120.3666
G01 X111.2612 Y-120.3757
G01 X111.3564 Y-120.4709
G01 X111.3693 Y-120.4823
G01 X111.3812 Y-120.4909
G01 X111.3940 Y-120.4983
G01 X111.4074 Y-120.5044
G01 X111.4213 Y-120.5091
G01 X111.4351 Y-120.5123
G01 X111.4503 Y-120.5143
G01 X111.4650 Y-120.5148
G01 X111.4797 Y-120.5139
G01 X111.4894 Y-120.5124
G01 X111.5084 Y-120.5077
G01 X111.5177 Y-120.5044
G01 X111.5311 Y-120.4983
G01 X111.5476 Y-120.4884
G01 X111.5596 Y-120.4792
G01 X111.5686 Y-120.4709
G01 X111.6639 Y-120.3757
G01 X111.6753 Y-120.3629
G01 X111.6838 Y-120.3509
G01 X111.6912 Y-120.3381
G01 X111.6973 Y-120.3247
G01 X111.7020 Y-120.3108
G01 X111.7053 Y-120.2971
G01 X111.7073 Y-120.2819
G01 X111.7078 Y-120.2671
G01 X111.7068 Y-120.2525
G01 X111.7054 Y-120.2427
G01 X111.7006 Y-120.2237
G01 X111.6973 Y-120.2145
G01 X111.6912 Y-120.2011
G01 X111.6814 Y-120.1846
G01 X111.6722 Y-120.1726
G01 X111.6639 Y-120.1635
G01 X111.5686 Y-120.0683
G01 X111.5558 Y-120.0569
G01 X111.5438 Y-120.0483
G01 X111.5311 Y-120.0409
G01 X111.5177 Y-120.0348
G01 X111.5037 Y-120.0301
G01 X111.4900 Y-120.0269
G01 X111.4748 Y-120.0249
G01 X111.4601 Y-120.0244
G01 X111.4454 Y-120.0253
G01 X111.4357 Y-120.0268
G01 X111.4166 Y-120.0315
G01 X111.4074 Y-120.0348
G01 X111.3940 Y-120.0409
G01 X111.3775 Y-120.0508
G01 X111.3655 Y-120.0600
G01 X111.3564 Y-120.0683
G01 X111.2612 Y-120.1635
G01 X111.2498 Y-120.1763
G01 X111.2412 Y-120.1883
G01 X111.2339 Y-120.2011
G01 X111.2278 Y-120.2145
G01 X111.2230 Y-120.2284
G01 X111.2198 Y-120.2421
G01 X111.2178 Y-120.2573
G01 X111.2173 Y-120.2721
G00 Z2.0000
G00 X109.2173 Y-120.3673
G01 F60.00
G01 Z-2.4000
G01 F120.00
G01 X109.2183 Y-120.3820
G01 X109.2207 Y-120.3965
G01 X109.2245 Y-120.4107
G01 X109.2297 Y-120.4245
G01 X109.2362 Y-120.4377
G01 X109.2437 Y-120.4499
G01 X109.2498 Y-120.4581
G01 X109.2595 Y-120.4692
G01 X109.2702 Y-120.4792
G01 X109.2819 Y-120.4882
G01 X109.2987 Y-120.4983
G01 X109.3122 Y-120.5044
G01 X109.3261 Y-120.5091
G01 X109.3398 Y-120.5123
G01 X109.3550 Y-120.5143
G01 X109.3673 Y-120.5149
G01 X110.6054 Y-120.5149
G01 X110.6176 Y-120.5143
G01 X110.6371 Y-120.5115
G01 X110.6513 Y-120.5077
G01 X110.6605 Y-120.5044
G01 X110.6739 Y-120.4983
G01 X110.6867 Y-120.4909
G01 X110.6986 Y-120.4823
G01 X110.7132 Y-120.4692
G01 X110.7229 Y-120.4581
G01 X110.7315 Y-120.4461
G01 X110.7388 Y-120.4334
G01 X110.7430 Y-120.4245
G01 X110.7482 Y-120.4107
G01 X110.7529 Y-120.3923
G01 X110.7549 Y-120.3771
G01 X110.7554 Y-120.3624
G01 X110.7549 Y-120.3526
G01 X110.7530 Y-120.3380
G01 X110.7496 Y-120.3236
G01 X110.7430 Y-120.3052
G01 X110.7388 Y-120.2963
G01 X110.7315 Y-120.2836
G01 X110.7229 Y-120.2716
G01 X110.7132 Y-120.2605
G01 X110.6986 Y-120.2473
G01 X110.6867 Y-120.2388
G01 X110.6739 Y-120.2314
G01 X110.6651 Y-120.2272
G01 X110.6513 Y-120.2220
G01 X110.6371 Y-120.2182
G01 X110.6225 Y-120.2158
G01 X110.6054 Y-120.2148
G01 X109.7295 Y-120.2148
G01 X110.6163 Y-119.3281
G01 X110.6277 Y-119.3152
G01 X110.6362 Y-119.3033
G01 X110.6436 Y-119.2905
G01 X110.6497 Y-119.2771
G01 X110.6525 Y-119.2694
G01 X110.7477 Y-118.9837
G01 X110.7511 Y-118.9719
G01 X110.7529 Y-118.9637
G01 X110.7549 Y-118.9485
G01 X110.7554 Y-118.9363
G01 X110.7554 Y-118.7458
G01 X110.7549 Y-118.7335
G01 X110.7537 Y-118.7230
G01 X110.7520 Y-118.7141
G01 X110.7482 Y-118.6999
G01 X110.7446 Y-118.6899
G01 X110.7396 Y-118.6787
G01 X110.6444 Y-118.4882
G01 X110.6359 Y-118.4735
G01 X110.6276 Y-118.4620
G01 X110.6180 Y-118.4510
G01 X110.5210 Y-118.3540
G01 X110.5088 Y-118.3431
G01 X110.4962 Y-118.3340
G01 X110.4820 Y-118.3259
G01 X110.2915 Y-118.2306
G01 X110.2803 Y-118.2256
G01 X110.2703 Y-118.2220
G01 X110.2621 Y-118.2196
G01 X110.2482 Y-118.2167
G01 X110.2367 Y-118.2153
G01 X110.2244 Y-118.2148
G01 X109.7482 Y-118.2148
G01 X109.7311 Y-118.2158
G01 X109.7206 Y-118.2174
G01 X109.7070 Y-118.2206
G01 X109.6931 Y-118.2253
G01 X109.6834 Y-118.2296
G01 X109.4907 Y-118.3259
G01 X109.4760 Y-118.3343
G01 X109.4645 Y-118.3426
G01 X109.4534 Y-118.3523
G01 X109.3564 Y-118.4492
G01 X109.3450 Y-118.4620
G01 X109.3365 Y-118.4740
G01 X109.3314 Y-118.4824
G01 X109.3249 Y-118.4956
G01 X109.3183 Y-118.5141
G01 X109.3151 Y-118.5276
G01 X109.3135 Y-118.5382
G01 X109.3125 Y-118.5528
G01 X109.3135 Y-118.5724
G01 X109.3149 Y-118.5822
G01 X109.3183 Y-118.5965
G01 X109.3249 Y-118.6150
G01 X109.3314 Y-118.6282
G01 X109.3389 Y-118.6403
G01 X109.3450 Y-118.6486
G01 X109.3582 Y-118.6631
G01 X109.3693 Y-118.6728
G01 X109.3772 Y-118.6787
G01 X109.3897 Y-118.6864
G01 X109.4029 Y-118.6929
G01 X109.4213 Y-118.6996
G01 X109.4349 Y-118.7028
G01 X109.4454 Y-118.7043
G01 X109.4601 Y-118.7053
G01 X109.4797 Y-118.7043
G01 X109.4894 Y-118.7029
G01 X109.5037 Y-118.6996
G01 X109.5222 Y-118.6929
G01 X109.5354 Y-118.6864
G01 X109.5479 Y-118.6787
G01 X109.5558 Y-118.6728
G01 X109.5668 Y-118.6631
G01 X109.6467 Y-118.5834
G01 X109.7837 Y-118.5149
G01 X110.1890 Y-118.5149
G01 X110.3260 Y-118.5834
G01 X110.3868 Y-118.6442
G01 X110.4553 Y-118.7812
G01 X110.4553 Y-118.9119
G01 X110.3790 Y-119.1409
G01 X109.2595 Y-120.2605
G01 X109.2498 Y-120.2716
G01 X109.2412 Y-120.2836
G01 X109.2339 Y-120.2963
G01 X109.2278 Y-120.3097
G01 X109.2230 Y-120.3236
G01 X109.2198 Y-120.3374
G01 X109.2178 Y-120.3526
G01 X109.2173 Y-120.3673
G00 Z2.0000
G00 X104.8006 Y-120.4377
G01 F60.00
G01 Z-2.4000
G01 F120.00
G01 X104.8000 Y-120.4525
G01 X104.8010 Y-120.4671
G01 X104.8025 Y-120.4775
G01 X104.8072 Y-120.4959
G01 X104.8105 Y-120.5051
G01 X104.8166 Y-120.5185
G01 X104.8264 Y-120.5350
G01 X104.8325 Y-120.5433
G01 X104.8422 Y-120.5543
G01 X104.8567 Y-120.5675
G01 X104.8646 Y-120.5733
G01 X104.8771 Y-120.5811
G01 X104.8903 Y-120.5876
G01 X104.9088 Y-120.5942
G01 X104.9225 Y-120.5975
G01 X104.9329 Y-120.5990
G01 X104.9525 Y-120.6000
G01 X104.9671 Y-120.5990
G01 X104.9769 Y-120.5976
G01 X104.9959 Y-120.5928
G01 X105.0051 Y-120.5895
G01 X105.0185 Y-120.5834
G01 X105.0350 Y-120.5736
G01 X105.0470 Y-120.5644
G01 X105.0561 Y-120.5561
G01 X105.9500 Y-119.6622
G01 X106.8439 Y-120.5561
G01 X106.8567 Y-120.5675
G01 X106.8687 Y-120.5761
G01 X106.8815 Y-120.5834
G01 X106.8949 Y-120.5895
G01 X106.9088 Y-120.5942
G01 X106.9225 Y-120.5975
G01 X106.9329 Y-120.5990
G01 X106.9475 Y-120.6000
G01 X106.9623 Y-120.5995
G01 X106.9769 Y-120.5976
G01 X106.9912 Y-120.5942
G01 X107.0097 Y-120.5876
G01 X107.0229 Y-120.5811
G01 X107.0350 Y-120.5736
G01 X107.0433 Y-120.5675
G01 X107.0543 Y-120.5578
G01 X107.0644 Y-120.5470
G01 X107.0733 Y-120.5354
G01 X107.0834 Y-120.5185
G01 X107.0895 Y-120.5051
G01 X107.0942 Y-120.4912
G01 X107.0975 Y-120.4775
G01 X107.0995 Y-120.4623
G01 X107.1000 Y-120.4475
G01 X107.0990 Y-120.4329
G01 X107.0976 Y-120.4231
G01 X107.0942 Y-120.4088
G01 X107.0895 Y-120.3949
G01 X107.0834 Y-120.3815
G01 X107.0761 Y-120.3687
G01 X107.0675 Y-120.3567
G01 X107.0561 Y-120.3439
G01 X106.1622 Y-119.4500
G01 X107.0561 Y-118.5561
G01 X107.0675 Y-118.5433
G01 X107.0761 Y-118.5313
G01 X107.0834 Y-118.5185
G01 X107.0895 Y-118.5051
G01 X107.0942 Y-118.4912
G01 X107.0975 Y-118.4775
G01 X107.0990 Y-118.4671
G01 X107.1000 Y-118.4525
G01 X107.0995 Y-118.4377
G01 X107.0976 Y-118.4231
G01 X107.0942 Y-118.4088
G01 X107.0876 Y-118.3903
G01 X107.0811 Y-118.3771
G01 X107.0736 Y-118.3650
G01 X107.0675 Y-118.3567
G01 X107.0578 Y-118.3457
G01 X107.0470 Y-118.3356
G01 X107.0354 Y-118.3267
G01 X107.0185 Y-118.3166
G01 X107.0051 Y-118.3105
G01 X106.9912 Y-118.3058
G01 X106.9775 Y-118.3025
G01 X106.9623 Y-118.3005
G01 X106.9475 Y-118.3000
G01 X106.9329 Y-118.3010
G01 X106.9231 Y-118.3024
G01 X106.9088 Y-118.3058
G01 X106.8949 Y-118.3105
G01 X106.8815 Y-118.3166
G01 X106.8687 Y-118.3239
G01 X106.8567 Y-118.3325
G01 X106.8439 Y-118.3439
G01 X105.9500 Y-119.2378
G01 X105.0561 Y-118.3439
G01 X105.0433 Y-118.3325
G01 X105.0313 Y-118.3239
G01 X105.0185 Y-118.3166
G01 X105.0051 Y-118.3105
G01 X104.9912 Y-118.3058
G01 X104.9775 Y-118.3025
G01 X104.9671 Y-118.3010
G01 X104.9525 Y-118.3000
G01 X104.9377 Y-118.3005
G01 X104.9231 Y-118.3024
G01 X104.9088 Y-118.3058
G01 X104.8903 Y-118.3124
G01 X104.8771 Y-118.3189
G01 X104.8650 Y-118.3264
G01 X104.8567 Y-118.3325
G01 X104.8457 Y-118.3422
G01 X104.8356 Y-118.3530
G01 X104.8267 Y-118.3646
G01 X104.8166 Y-118.3815
G01 X104.8105 Y-118.3949
G01 X104.8058 Y-118.4088
G01 X104.8025 Y-118.4225
G01 X104.8005 Y-118.4377
G01 X104.8000 Y-118.4525
G01 X104.8010 Y-118.4671
G01 X104.8024 Y-118.4769
G01 X104.8058 Y-118.4912
G01 X104.8105 Y-118.5051
G01 X104.8166 Y-118.5185
G01 X104.8239 Y-118.5313
G01 X104.8325 Y-118.5433
G01 X104.8439 Y-118.5561
G01 X105.7378 Y-119.4500
G01 X104.8422 Y-120.3457
G01 X104.8325 Y-120.3567
G01 X104.8239 Y-120.3687
G01 X104.8189 Y-120.3771
G01 X104.8124 Y-120.3903
G01 X104.8072 Y-120.4041
G01 X104.8034 Y-120.4183
G01 X104.8010 Y-120.4329
G01 X104.8006 Y-120.4377
G00 Z2.0000
G00 X114.0744 Y-119.1267
G01 F60.00
G01 Z-2.4000
G01 F120.00
G01 X114.0744 Y-119.6029
G01 X114.0749 Y-119.6152
G01 X114.0768 Y-119.6298
G01 X114.0789 Y-119.6393
G01 X114.1741 Y-120.0203
G01 X114.1776 Y-120.0320
G01 X114.1805 Y-120.0398
G01 X114.1855 Y-120.0510
G01 X114.2807 Y-120.2415
G01 X114.2892 Y-120.2562
G01 X114.2949 Y-120.2644
G01 X114.3005 Y-120.2714
G01 X114.3088 Y-120.2805
G01 X114.4040 Y-120.3757
G01 X114.4162 Y-120.3866
G01 X114.4289 Y-120.3957
G01 X114.4430 Y-120.4038
G01 X114.6357 Y-120.5001
G01 X114.6455 Y-120.5044
G01 X114.6594 Y-120.5091
G01 X114.6732 Y-120.5123
G01 X114.6835 Y-120.5139
G01 X114.7006 Y-120.5149
G01 X114.8911 Y-120.5149
G01 X114.9082 Y-120.5139
G01 X114.9180 Y-120.5124
G01 X114.9283 Y-120.5102
G01 X114.9424 Y-120.5058
G01 X114.9582 Y-120.4990
G01 X115.1487 Y-120.4038
G01 X115.1634 Y-120.3954
G01 X115.1716 Y-120.3896
G01 X115.1786 Y-120.3840
G01 X115.1877 Y-120.3757
G01 X115.2829 Y-120.2805
G01 X115.2912 Y-120.2714
G01 X115.3002 Y-120.2597
G01 X115.3051 Y-120.2522
G01 X115.3110 Y-120.2415
G01 X115.4087 Y-120.0457
G01 X115.4141 Y-120.0320
G01 X115.4176 Y-120.0203
G01 X115.5129 Y-119.6393
G01 X115.5159 Y-119.6236
G01 X115.5170 Y-119.6127
G01 X115.5173 Y-119.6029
G01 X115.5173 Y-119.1267
G01 X115.5168 Y-119.1145
G01 X115.5149 Y-119.0999
G01 X115.5129 Y-119.0903
G01 X115.4176 Y-118.7094
G01 X115.4141 Y-118.6976
G01 X115.4113 Y-118.6899
G01 X115.4063 Y-118.6787
G01 X115.3110 Y-118.4882
G01 X115.3026 Y-118.4735
G01 X115.2968 Y-118.4653
G01 X115.2912 Y-118.4583
G01 X115.2829 Y-118.4492
G01 X115.1877 Y-118.3540
G01 X115.1755 Y-118.3431
G01 X115.1629 Y-118.3340
G01 X115.1487 Y-118.3259
G01 X114.9582 Y-118.2306
G01 X114.9470 Y-118.2256
G01 X114.9370 Y-118.2220
G01 X114.9287 Y-118.2196
G01 X114.9149 Y-118.2167
G01 X114.9034 Y-118.2153
G01 X114.8911 Y-118.2148
G01 X114.7006 Y-118.2148
G01 X114.6835 Y-118.2158
G01 X114.6690 Y-118.2182
G01 X114.6594 Y-118.2206
G01 X114.6493 Y-118.2239
G01 X114.6335 Y-118.2306
G01 X114.4373 Y-118.3290
G01 X114.4283 Y-118.3343
G01 X114.4201 Y-118.3401
G01 X114.4131 Y-118.3457
G01 X114.4058 Y-118.3523
G01 X114.3088 Y-118.4492
G01 X114.3005 Y-118.4583
G01 X114.2916 Y-118.4699
G01 X114.2867 Y-118.4775
G01 X114.2807 Y-118.4882
G01 X114.1830 Y-118.6839
G01 X114.1776 Y-118.6976
G01 X114.1741 Y-118.7094
G01 X114.0789 Y-119.0903
G01 X114.0758 Y-119.1060
G01 X114.0747 Y-119.1170
G01 X114.0744 Y-119.1267
G00 Z2.0000
G00 X114.3745 Y-119.5845
G01 F60.00
G01 Z-2.4000
G01 F120.00
G01 X114.4612 Y-119.9315
G01 X114.5382 Y-120.0855
G01 X114.5990 Y-120.1463
G01 X114.7360 Y-120.2148
G01 X114.8557 Y-120.2148
G01 X114.9927 Y-120.1463
G01 X115.0535 Y-120.0855
G01 X115.1305 Y-119.9315
G01 X115.2172 Y-119.5845
G01 X115.2172 Y-119.1452
G01 X115.1305 Y-118.7982
G01 X115.0535 Y-118.6442
G01 X114.9927 Y-118.5834
G01 X114.8557 Y-118.5149
G01 X114.7360 Y-118.5149
G01 X114.5990 Y-118.5834
G01 X114.5382 Y-118.6442
G01 X114.4612 Y-118.7982
G01 X114.3745 Y-119.1452
G01 X114.3745 Y-119.5845
G00 Z2.0000
G00 X115.9791 Y-119.1267
G01 F60.00
G01 Z-2.4000
G01 F120.00
G01 X115.9791 Y-119.6029
G01 X115.9797 Y-119.6152
G01 X115.9816 Y-119.6298
G01 X115.9836 Y-119.6393
G01 X116.0789 Y-120.0203
G01 X116.0824 Y-120.0320
G01 X116.0852 Y-120.0398
G01 X116.0902 Y-120.0510
G01 X116.1855 Y-120.2415
G01 X116.1939 Y-120.2562
G01 X116.1997 Y-120.2644
G01 X116.2053 Y-120.2714
G01 X116.2136 Y-120.2805
G01 X116.3088 Y-120.3757
G01 X116.3210 Y-120.3866
G01 X116.3336 Y-120.3957
G01 X116.3478 Y-120.4038
G01 X116.5405 Y-120.5001
G01 X116.5541 Y-120.5058
G01 X116.5642 Y-120.5091
G01 X116.5777 Y-120.5123
G01 X116.5882 Y-120.5139
G01 X116.6054 Y-120.5149
G01 X116.7959 Y-120.5149
G01 X116.8130 Y-120.5139
G01 X116.8227 Y-120.5124
G01 X116.8331 Y-120.5102
G01 X116.8472 Y-120.5058
G01 X116.8630 Y-120.4990
G01 X117.0534 Y-120.4038
G01 X117.0681 Y-120.3954
G01 X117.0764 Y-120.3896
G01 X117.0834 Y-120.3840
G01 X117.0924 Y-120.3757
G01 X117.1877 Y-120.2805
G01 X117.1960 Y-120.2714
G01 X117.2049 Y-120.2597
G01 X117.2098 Y-120.2522
G01 X117.2158 Y-120.2415
G01 X117.3135 Y-120.0457
G01 X117.3189 Y-120.0320
G01 X117.3224 Y-120.0203
G01 X117.4176 Y-119.6393
G01 X117.4207 Y-119.6236
G01 X117.4217 Y-119.6127
G01 X117.4221 Y-119.6029
G01 X117.4221 Y-119.1267
G01 X117.4216 Y-119.1145
G01 X117.4196 Y-119.0999
G01 X117.4176 Y-119.0904
G01 X117.3224 Y-118.7094
G01 X117.3189 Y-118.6976
G01 X117.3160 Y-118.6899
G01 X117.3110 Y-118.6787
G01 X117.2158 Y-118.4882
G01 X117.2073 Y-118.4735
G01 X117.2016 Y-118.4653
G01 X117.1960 Y-118.4583
G01 X117.1877 Y-118.4492
G01 X117.0924 Y-118.3540
G01 X117.0802 Y-118.3431
G01 X117.0676 Y-118.3340
G01 X117.0534 Y-118.3259
G01 X116.8630 Y-118.2306
G01 X116.8518 Y-118.2256
G01 X116.8417 Y-118.2220
G01 X116.8335 Y-118.2196
G01 X116.8196 Y-118.2167
G01 X116.8081 Y-118.2153
G01 X116.7959 Y-118.2148
G01 X116.6054 Y-118.2148
G01 X116.5882 Y-118.2158
G01 X116.5737 Y-118.2182
G01 X116.5642 Y-118.2206
G01 X116.5541 Y-118.2239
G01 X116.5383 Y-118.2306
G01 X116.3420 Y-118.3290
G01 X116.3331 Y-118.3343
G01 X116.3249 Y-118.3401
G01 X116.3179 Y-118.3457
G01 X116.3106 Y-118.3523
G01 X116.2136 Y-118.4492
G01 X116.2053 Y-118.4583
G01 X116.1963 Y-118.4699
G01 X116.1914 Y-118.4775
G01 X116.1855 Y-118.4882
G01 X116.0878 Y-118.6839
G01 X116.0824 Y-118.6976
G01 X116.0789 Y-118.7094
G01 X115.9836 Y-119.0904
G01 X115.9806 Y-119.1060
G01 X115.9795 Y-119.1170
G01 X115.9791 Y-119.1267
G00 Z2.0000
G00 X116.2793 Y-119.5845
G01 F60.00
G01 Z-2.4000
G01 F120.00
G01 X116.3660 Y-119.9315
G01 X116.4430 Y-120.0855
G01 X116.5038 Y-120.1463
G01 X116.6408 Y-120.2148
G01 X116.7604 Y-120.2148
G01 X116.8975 Y-120.1463
G01 X116.9583 Y-120.0855
G01 X117.0352 Y-119.9315
G01 X117.1220 Y-119.5845
G01 X117.1220 Y-119.1452
G01 X117.0352 Y-118.7982
G01 X116.9583 Y-118.6442
G01 X116.8975 Y-118.5834
G01 X116.7604 Y-118.5149
G01 X116.6408 Y-118.5149
G01 X116.5038 Y-118.5834
G01 X116.4430 Y-118.6442
G01 X116.3660 Y-118.7982
G01 X116.2793 Y-119.1452
G01 X116.2793 Y-119.5845
G00 Z2.0000
G00 X117.9791 Y-119.0315
G01 F60.00
G01 Z-2.4000
G01 F120.00
G01 X117.9792 Y-120.3673
G01 X117.9802 Y-120.3820
G01 X117.9816 Y-120.3917
G01 X117.9850 Y-120.4060
G01 X117.9916 Y-120.4245
G01 X117.9981 Y-120.4377
G01 X118.0056 Y-120.4499
G01 X118.0148 Y-120.4619
G01 X118.0249 Y-120.4726
G01 X118.0359 Y-120.4823
G01 X118.0438 Y-120.4882
G01 X118.0563 Y-120.4960
G01 X118.0695 Y-120.5025
G01 X118.0880 Y-120.5091
G01 X118.1023 Y-120.5124
G01 X118.1169 Y-120.5143
G01 X118.1317 Y-120.5148
G01 X118.1415 Y-120.5143
G01 X118.1609 Y-120.5115
G01 X118.1751 Y-120.5077
G01 X118.1843 Y-120.5044
G01 X118.1977 Y-120.4983
G01 X118.2105 Y-120.4909
G01 X118.2225 Y-120.4823
G01 X118.2335 Y-120.4726
G01 X118.2467 Y-120.4581
G01 X118.2553 Y-120.4461
G01 X118.2626 Y-120.4334
G01 X118.2668 Y-120.4245
G01 X118.2720 Y-120.4107
G01 X118.2767 Y-120.3923
G01 X118.2787 Y-120.3771
G01 X118.2793 Y-120.3648
G01 X118.2793 Y-119.2841
G01 X118.3133 Y-119.2501
G01 X118.4503 Y-119.1816
G01 X118.6652 Y-119.1816
G01 X118.7793 Y-119.2386
G01 X118.8363 Y-119.3526
G01 X118.8363 Y-120.3648
G01 X118.8373 Y-120.3820
G01 X118.8397 Y-120.3965
G01 X118.8435 Y-120.4107
G01 X118.8487 Y-120.4245
G01 X118.8552 Y-120.4377
G01 X118.8627 Y-120.4499
G01 X118.8688 Y-120.4581
G01 X118.8785 Y-120.4692
G01 X118.8893 Y-120.4792
G01 X118.9051 Y-120.4909
G01 X118.9178 Y-120.4983
G01 X118.9312 Y-120.5044
G01 X118.9451 Y-120.5091
G01 X118.9589 Y-120.5123
G01 X118.9692 Y-120.5139
G01 X118.9839 Y-120.5148
G01 X118.9986 Y-120.5143
G01 X119.0132 Y-120.5124
G01 X119.0322 Y-120.5077
G01 X119.0460 Y-120.5025
G01 X119.0592 Y-120.4960
G01 X119.0714 Y-120.4884
G01 X119.0796 Y-120.4823
G01 X119.0907 Y-120.4726
G01 X119.1007 Y-120.4619
G01 X119.1124 Y-120.4461
G01 X119.1198 Y-120.4334
G01 X119.1259 Y-120.4200
G01 X119.1306 Y-120.4060
G01 X119.1338 Y-120.3923
G01 X119.1358 Y-120.3771
G01 X119.1364 Y-120.3648
G01 X119.1364 Y-119.3526
G01 X119.1934 Y-119.2386
G01 X119.3075 Y-119.1816
G01 X119.5223 Y-119.1816
G01 X119.6364 Y-119.2386
G01 X119.6934 Y-119.3526
G01 X119.6934 Y-120.3648
G01 X119.6945 Y-120.3820
G01 X119.6959 Y-120.3917
G01 X119.6992 Y-120.4060
G01 X119.7058 Y-120.4245
G01 X119.7100 Y-120.4334
G01 X119.7174 Y-120.4461
G01 X119.7260 Y-120.4581
G01 X119.7392 Y-120.4726
G01 X119.7502 Y-120.4823
G01 X119.7581 Y-120.4882
G01 X119.7749 Y-120.4983
G01 X119.7838 Y-120.5025
G01 X119.7976 Y-120.5077
G01 X119.8160 Y-120.5123
G01 X119.8312 Y-120.5143
G01 X119.8459 Y-120.5148
G01 X119.8557 Y-120.5143
G01 X119.8751 Y-120.5115
G01 X119.8847 Y-120.5091
G01 X119.8986 Y-120.5044
G01 X119.9163 Y-120.4960
G01 X119.9285 Y-120.4884
G01 X119.9367 Y-120.4823
G01 X119.9513 Y-120.4692
G01 X119.9610 Y-120.4581
G01 X119.9668 Y-120.4502
G01 X119.9769 Y-120.4334
G01 X119.9811 Y-120.4245
G01 X119.9863 Y-120.4107
G01 X119.9910 Y-120.3923
G01 X119.9930 Y-120.3771
G01 X119.9935 Y-120.3648
G01 X119.9935 Y-119.3172
G01 X119.9929 Y-119.3041
G01 X119.9911 Y-119.2904
G01 X119.9888 Y-119.2800
G01 X119.9844 Y-119.2659
G01 X119.9811 Y-119.2576
G01 X119.9777 Y-119.2501
G01 X119.8824 Y-119.0596
G01 X119.8740 Y-119.0449
G01 X119.8692 Y-119.0380
G01 X119.8632 Y-119.0303
G01 X119.8560 Y-119.0224
G01 X119.8496 Y-119.0161
G01 X119.8369 Y-119.0058
G01 X119.8261 Y-118.9985
G01 X119.8153 Y-118.9925
G01 X119.6227 Y-118.8962
G01 X119.6091 Y-118.8905
G01 X119.5954 Y-118.8863
G01 X119.5815 Y-118.8834
G01 X119.5700 Y-118.8820
G01 X119.5578 Y-118.8814
G01 X119.2721 Y-118.8814
G01 X119.2549 Y-118.8825
G01 X119.2404 Y-118.8849
G01 X119.2309 Y-118.8873
G01 X119.2207 Y-118.8905
G01 X119.2049 Y-118.8973
G01 X119.0145 Y-118.9925
G01 X118.9998 Y-119.0010
G01 X118.9863 Y-119.0109
G01 X118.9731 Y-119.0011
G01 X118.9582 Y-118.9925
G01 X118.7677 Y-118.8973
G01 X118.7565 Y-118.8923
G01 X118.7465 Y-118.8887
G01 X118.7383 Y-118.8863
G01 X118.7244 Y-118.8834
G01 X118.7129 Y-118.8820
G01 X118.7006 Y-118.8814
G01 X118.4149 Y-118.8814
G01 X118.3978 Y-118.8825
G01 X118.3881 Y-118.8839
G01 X118.3777 Y-118.8862
G01 X118.3636 Y-118.8905
G01 X118.3552 Y-118.8939
G01 X118.2519 Y-118.9452
G01 X118.2436 Y-118.9345
G01 X118.2370 Y-118.9272
G01 X118.2262 Y-118.9171
G01 X118.2105 Y-118.9054
G01 X118.1977 Y-118.8981
G01 X118.1889 Y-118.8939
G01 X118.1751 Y-118.8887
G01 X118.1609 Y-118.8849
G01 X118.1463 Y-118.8825
G01 X118.1267 Y-118.8815
G01 X118.1121 Y-118.8825
G01 X118.0975 Y-118.8849
G01 X118.0833 Y-118.8887
G01 X118.0695 Y-118.8939
G01 X118.0563 Y-118.9004
G01 X118.0442 Y-118.9079
G01 X118.0322 Y-118.9171
G01 X118.0214 Y-118.9272
G01 X118.0117 Y-118.9382
G01 X118.0031 Y-118.9502
G01 X117.9958 Y-118.9630
G01 X117.9897 Y-118.9764
G01 X117.9850 Y-118.9903
G01 X117.9817 Y-119.0040
G01 X117.9797 Y-119.0192
G01 X117.9791 Y-119.0315
G00 Z2.0000
G00 X120.6458 Y-119.0315
G01 F60.00
G01 Z-2.4000
G01 F120.00
G01 X120.6459 Y-120.3673
G01 X120.6468 Y-120.3820
G01 X120.6483 Y-120.3917
G01 X120.6516 Y-120.4060
G01 X120.6582 Y-120.4245
G01 X120.6647 Y-120.4377
G01 X120.6723 Y-120.4499
G01 X120.6815 Y-120.4619
G01 X120.6915 Y-120.4726
G01 X120.7026 Y-120.4823
G01 X120.7105 Y-120.4882
G01 X120.7230 Y-120.4960
G01 X120.7362 Y-120.5025
G01 X120.7547 Y-120.5091
G01 X120.7690 Y-120.5124
G01 X120.7836 Y-120.5143
G01 X120.7983 Y-120.5148
G01 X120.8081 Y-120.5143
G01 X120.8275 Y-120.5115
G01 X120.8417 Y-120.5077
G01 X120.8510 Y-120.5044
G01 X120.8644 Y-120.4983
G01 X120.8771 Y-120.4909
G01 X120.8891 Y-120.4823
G01 X120.9002 Y-120.4726
G01 X120.9134 Y-120.4581
G01 X120.9219 Y-120.4461
G01 X120.9293 Y-120.4334
G01 X120.9335 Y-120.4245
G01 X120.9387 Y-120.4107
G01 X120.9434 Y-120.3923
G01 X120.9454 Y-120.3771
G01 X120.9459 Y-120.3648
G01 X120.9459 Y-119.2841
G01 X120.9800 Y-119.2501
G01 X121.1170 Y-119.1816
G01 X121.3319 Y-119.1816
G01 X121.4459 Y-119.2386
G01 X121.5030 Y-119.3526
G01 X121.5030 Y-120.3648
G01 X121.5040 Y-120.3820
G01 X121.5064 Y-120.3965
G01 X121.5102 Y-120.4107
G01 X121.5154 Y-120.4245
G01 X121.5219 Y-120.4377
G01 X121.5294 Y-120.4499
G01 X121.5355 Y-120.4581
G01 X121.5452 Y-120.4692
G01 X121.5560 Y-120.4792
G01 X121.5717 Y-120.4909
G01 X121.5845 Y-120.4983
G01 X121.5979 Y-120.5044
G01 X121.6118 Y-120.5091
G01 X121.6255 Y-120.5123
G01 X121.6359 Y-120.5139
G01 X121.6506 Y-120.5148
G01 X121.6653 Y-120.5143
G01 X121.6799 Y-120.5124
G01 X121.6989 Y-120.5077
G01 X121.7127 Y-120.5025
G01 X121.7259 Y-120.4960
G01 X121.7380 Y-120.4884
G01 X121.7463 Y-120.4823
G01 X121.7573 Y-120.4726
G01 X121.7674 Y-120.4619
G01 X121.7791 Y-120.4461
G01 X121.7864 Y-120.4334
G01 X121.7925 Y-120.4200
G01 X121.7973 Y-120.4060
G01 X121.8005 Y-120.3923
G01 X121.8025 Y-120.3771
G01 X121.8031 Y-120.3648
G01 X121.8031 Y-119.3526
G01 X121.8601 Y-119.2386
G01 X121.9741 Y-119.1816
G01 X122.1890 Y-119.1816
G01 X122.3031 Y-119.2386
G01 X122.3601 Y-119.3526
G01 X122.3601 Y-120.3648
G01 X122.3611 Y-120.3820
G01 X122.3626 Y-120.3917
G01 X122.3659 Y-120.4060
G01 X122.3725 Y-120.4245
G01 X122.3767 Y-120.4334
G01 X122.3841 Y-120.4461
G01 X122.3926 Y-120.4581
G01 X122.4058 Y-120.4726
G01 X122.4169 Y-120.4823
G01 X122.4248 Y-120.4882
G01 X122.4416 Y-120.4983
G01 X122.4505 Y-120.5025
G01 X122.4643 Y-120.5077
G01 X122.4827 Y-120.5123
G01 X122.4979 Y-120.5143
G01 X122.5126 Y-120.5148
G01 X122.5224 Y-120.5143
G01 X122.5418 Y-120.5115
G01 X122.5513 Y-120.5091
G01 X122.5653 Y-120.5044
G01 X122.5830 Y-120.4960
G01 X122.5952 Y-120.4884
G01 X122.6034 Y-120.4823
G01 X122.6179 Y-120.4692
G01 X122.6277 Y-120.4581
G01 X122.6335 Y-120.4502
G01 X122.6436 Y-120.4334
G01 X122.6478 Y-120.4245
G01 X122.6530 Y-120.4107
G01 X122.6576 Y-120.3923
G01 X122.6597 Y-120.3771
G01 X122.6602 Y-120.3648
G01 X122.6602 Y-119.3172
G01 X122.6596 Y-119.3041
G01 X122.6577 Y-119.2904
G01 X122.6555 Y-119.2800
G01 X122.6511 Y-119.2659
G01 X122.6478 Y-119.2576
G01 X122.6444 Y-119.2501
G01 X122.5491 Y-119.0596
G01 X122.5407 Y-119.0449
G01 X122.5359 Y-119.0380
G01 X122.5298 Y-119.0303
G01 X122.5227 Y-119.0224
G01 X122.5163 Y-119.0161
G01 X122.5036 Y-119.0058
G01 X122.4927 Y-118.9985
G01 X122.4820 Y-118.9925
G01 X122.2893 Y-118.8962
G01 X122.2757 Y-118.8905
G01 X122.2621 Y-118.8863
G01 X122.2482 Y-118.8834
G01 X122.2367 Y-118.8820
G01 X122.2244 Y-118.8814
G01 X121.9387 Y-118.8814
G01 X121.9216 Y-118.8825
G01 X121.9071 Y-118.8849
G01 X121.8975 Y-118.8873
G01 X121.8874 Y-118.8905
G01 X121.8716 Y-118.8973
G01 X121.6811 Y-118.9925
G01 X121.6664 Y-119.0010
G01 X121.6595 Y-119.0058
G01 X121.6530 Y-119.0109
G01 X121.6398 Y-119.0011
G01 X121.6249 Y-118.9925
G01 X121.4344 Y-118.8973
G01 X121.4232 Y-118.8923
G01 X121.4132 Y-118.8887
G01 X121.4049 Y-118.8863
G01 X121.3911 Y-118.8834
G01 X121.3796 Y-118.8820
G01 X121.3673 Y-118.8814
G01 X121.0816 Y-118.8814
G01 X121.0644 Y-118.8825
G01 X121.0547 Y-118.8839
G01 X121.0443 Y-118.8862
G01 X121.0303 Y-118.8905
G01 X121.0219 Y-118.8939
G01 X120.9186 Y-118.9453
G01 X120.9102 Y-118.9345
G01 X120.9037 Y-118.9272
G01 X120.8929 Y-118.9171
G01 X120.8771 Y-118.9054
G01 X120.8644 Y-118.8981
G01 X120.8555 Y-118.8939
G01 X120.8417 Y-118.8887
G01 X120.8275 Y-118.8849
G01 X120.8130 Y-118.8825
G01 X120.7934 Y-118.8815
G01 X120.7787 Y-118.8825
G01 X120.7642 Y-118.8849
G01 X120.7500 Y-118.8887
G01 X120.7362 Y-118.8939
G01 X120.7230 Y-118.9004
G01 X120.7108 Y-118.9079
G01 X120.6988 Y-118.9171
G01 X120.6881 Y-118.9272
G01 X120.6784 Y-118.9382
G01 X120.6698 Y-118.9502
G01 X120.6624 Y-118.9630
G01 X120.6563 Y-118.9764
G01 X120.6516 Y-118.9903
G01 X120.6484 Y-119.0040
G01 X120.6464 Y-119.0192
G01 X120.6458 Y-119.0315
G00 Z2.0000
G00 X124.5512 Y-120.8289
G01 F60.00
G01 Z-2.4000
G01 F120.00
G01 X124.5506 Y-120.8411
G01 X124.5511 Y-120.8534
G01 X124.5540 Y-120.8729
G01 X124.5579 Y-120.8871
G01 X124.5631 Y-120.9008
G01 X124.5673 Y-120.9097
G01 X124.5746 Y-120.9225
G01 X124.5863 Y-120.9382
G01 X124.5964 Y-120.9489
G01 X124.6037 Y-120.9555
G01 X124.6195 Y-120.9672
G01 X124.6322 Y-120.9745
G01 X124.6456 Y-120.9806
G01 X124.6549 Y-120.9839
G01 X124.6691 Y-120.9877
G01 X124.6885 Y-120.9906
G01 X124.7007 Y-120.9911
G01 X124.7179 Y-120.9900
G01 X124.7276 Y-120.9886
G01 X124.7420 Y-120.9852
G01 X124.7604 Y-120.9786
G01 X124.7736 Y-120.9721
G01 X124.7858 Y-120.9645
G01 X124.7940 Y-120.9584
G01 X124.8051 Y-120.9487
G01 X124.8151 Y-120.9380
G01 X124.8241 Y-120.9263
G01 X126.5411 Y-118.3508
G01 X126.5484 Y-118.3380
G01 X126.5545 Y-118.3246
G01 X126.5592 Y-118.3106
G01 X126.5624 Y-118.2969
G01 X126.5644 Y-118.2817
G01 X126.5650 Y-118.2695
G01 X126.5644 Y-118.2572
G01 X126.5625 Y-118.2426
G01 X126.5591 Y-118.2283
G01 X126.5544 Y-118.2143
G01 X126.5483 Y-118.2009
G01 X126.5409 Y-118.1882
G01 X126.5323 Y-118.1762
G01 X126.5226 Y-118.1652
G01 X126.5118 Y-118.1551
G01 X126.5002 Y-118.1462
G01 X126.4876 Y-118.1384
G01 X126.4744 Y-118.1319
G01 X126.4606 Y-118.1267
G01 X126.4464 Y-118.1229
G01 X126.4319 Y-118.1206
G01 X126.4148 Y-118.1196
G01 X126.4025 Y-118.1201
G01 X126.3879 Y-118.1220
G01 X126.3736 Y-118.1254
G01 X126.3596 Y-118.1301
G01 X126.3462 Y-118.1362
G01 X126.3335 Y-118.1436
G01 X126.3215 Y-118.1522
G01 X126.3105 Y-118.1619
G01 X126.3004 Y-118.1727
G01 X126.2915 Y-118.1844
G01 X124.5758 Y-120.7578
G01 X124.5671 Y-120.7726
G01 X124.5629 Y-120.7815
G01 X124.5578 Y-120.7953
G01 X124.5531 Y-120.8137
G01 X124.5512 Y-120.8289
G00 Z2.0000
G00 X128.3601 Y-119.1267
G01 F60.00
G01 Z-2.4000
G01 F120.00
G01 X128.3601 Y-119.6029
G01 X128.3606 Y-119.6152
G01 X128.3626 Y-119.6298
G01 X128.3646 Y-119.6393
G01 X128.4598 Y-120.0203
G01 X128.4633 Y-120.0320
G01 X128.4662 Y-120.0398
G01 X128.4712 Y-120.0510
G01 X128.5664 Y-120.2415
G01 X128.5749 Y-120.2562
G01 X128.5806 Y-120.2644
G01 X128.5862 Y-120.2714
G01 X128.5945 Y-120.2805
G01 X128.6898 Y-120.3757
G01 X128.7020 Y-120.3866
G01 X128.7146 Y-120.3957
G01 X128.7288 Y-120.4038
G01 X128.9215 Y-120.5001
G01 X128.9350 Y-120.5058
G01 X128.9451 Y-120.5091
G01 X128.9589 Y-120.5123
G01 X128.9692 Y-120.5139
G01 X128.9863 Y-120.5149
G01 X129.1768 Y-120.5149
G01 X129.1940 Y-120.5139
G01 X129.2037 Y-120.5124
G01 X129.2141 Y-120.5102
G01 X129.2281 Y-120.5058
G01 X129.2439 Y-120.4990
G01 X129.4344 Y-120.4038
G01 X129.4491 Y-120.3954
G01 X129.4573 Y-120.3896
G01 X129.4643 Y-120.3840
G01 X129.4734 Y-120.3757
G01 X129.5686 Y-120.2805
G01 X129.5769 Y-120.2714
G01 X129.5859 Y-120.2597
G01 X129.5908 Y-120.2522
G01 X129.5967 Y-120.2415
G01 X129.6944 Y-120.0457
G01 X129.6998 Y-120.0320
G01 X129.7033 Y-120.0203
G01 X129.7986 Y-119.6393
G01 X129.8016 Y-119.6236
G01 X129.8027 Y-119.6127
G01 X129.8031 Y-119.6029
G01 X129.8031 Y-119.1267
G01 X129.8025 Y-119.1145
G01 X129.8006 Y-119.0999
G01 X129.7986 Y-119.0903
G01 X129.7033 Y-118.7094
G01 X129.6998 Y-118.6976
G01 X129.6970 Y-118.6899
G01 X129.6920 Y-118.6787
G01 X129.5967 Y-118.4882
G01 X129.5883 Y-118.4735
G01 X129.5825 Y-118.4653
G01 X129.5769 Y-118.4583
G01 X129.5686 Y-118.4492
G01 X129.4734 Y-118.3540
G01 X129.4612 Y-118.3431
G01 X129.4486 Y-118.3340
G01 X129.4344 Y-118.3259
G01 X129.2439 Y-118.2306
G01 X129.2327 Y-118.2256
G01 X129.2227 Y-118.2220
G01 X129.2145 Y-118.2196
G01 X129.2006 Y-118.2167
G01 X129.1891 Y-118.2153
G01 X129.1768 Y-118.2148
G01 X128.9863 Y-118.2148
G01 X128.9692 Y-118.2158
G01 X128.9547 Y-118.2182
G01 X128.9451 Y-118.2206
G01 X128.9350 Y-118.2239
G01 X128.9192 Y-118.2306
G01 X128.7230 Y-118.3290
G01 X128.7141 Y-118.3343
G01 X128.7058 Y-118.3401
G01 X128.6988 Y-118.3457
G01 X128.6915 Y-118.3523
G01 X128.5945 Y-118.4492
G01 X128.5862 Y-118.4583
G01 X128.5773 Y-118.4699
G01 X128.5724 Y-118.4775
G01 X128.5664 Y-118.4882
G01 X128.4687 Y-118.6839
G01 X128.4633 Y-118.6976
G01 X128.4598 Y-118.7094
G01 X128.3646 Y-119.0903
G01 X128.3615 Y-119.1060
G01 X128.3605 Y-119.1170
G01 X128.3601 Y-119.1267
G00 Z2.0000
G00 X128.6602 Y-119.5845
G01 F60.00
G01 Z-2.4000
G01 F120.00
G01 X128.7470 Y-119.9315
G01 X128.8240 Y-120.0855
G01 X128.8847 Y-120.1463
G01 X129.0218 Y-120.2148
G01 X129.1414 Y-120.2148
G01 X129.2784 Y-120.1463
G01 X129.3392 Y-120.0855
G01 X129.4162 Y-119.9315
G01 X129.5030 Y-119.5845
G01 X129.5030 Y-119.1452
G01 X129.4162 Y-118.7982
G01 X129.3392 Y-118.6442
G01 X129.2784 Y-118.5834
G01 X129.1414 Y-118.5149
G01 X129.0218 Y-118.5149
G01 X128.8847 Y-118.5834
G01 X128.8239 Y-118.6442
G01 X128.7470 Y-118.7982
G01 X128.6602 Y-119.1452
G01 X128.6602 Y-119.5845
G00 Z2.0000
G00 X130.2649 Y-120.2721
G01 F60.00
G01 Z-2.4000
G01 F120.00
G01 X130.2659 Y-120.2867
G01 X130.2673 Y-120.2965
G01 X130.2721 Y-120.3155
G01 X130.2754 Y-120.3247
G01 X130.2815 Y-120.3381
G01 X130.2913 Y-120.3546
G01 X130.3005 Y-120.3666
G01 X130.3088 Y-120.3757
G01 X130.4040 Y-120.4709
G01 X130.4169 Y-120.4823
G01 X130.4289 Y-120.4909
G01 X130.4416 Y-120.4983
G01 X130.4550 Y-120.5044
G01 X130.4690 Y-120.5091
G01 X130.4827 Y-120.5123
G01 X130.4979 Y-120.5143
G01 X130.5126 Y-120.5148
G01 X130.5273 Y-120.5139
G01 X130.5370 Y-120.5124
G01 X130.5560 Y-120.5077
G01 X130.5653 Y-120.5044
G01 X130.5787 Y-120.4983
G01 X130.5952 Y-120.4884
G01 X130.6072 Y-120.4792
G01 X130.6163 Y-120.4709
G01 X130.7115 Y-120.3757
G01 X130.7229 Y-120.3629
G01 X130.7315 Y-120.3509
G01 X130.7388 Y-120.3381
G01 X130.7449 Y-120.3247
G01 X130.7496 Y-120.3108
G01 X130.7529 Y-120.2971
G01 X130.7549 Y-120.2819
G01 X130.7554 Y-120.2671
G01 X130.7544 Y-120.2525
G01 X130.7530 Y-120.2427
G01 X130.7482 Y-120.2237
G01 X130.7449 Y-120.2145
G01 X130.7388 Y-120.2011
G01 X130.7290 Y-120.1846
G01 X130.7198 Y-120.1726
G01 X130.7115 Y-120.1635
G01 X130.6163 Y-120.0683
G01 X130.6034 Y-120.0569
G01 X130.5914 Y-120.0483
G01 X130.5787 Y-120.0409
G01 X130.5653 Y-120.0348
G01 X130.5513 Y-120.0301
G01 X130.5376 Y-120.0269
G01 X130.5224 Y-120.0249
G01 X130.5077 Y-120.0244
G01 X130.4930 Y-120.0253
G01 X130.4833 Y-120.0268
G01 X130.4643 Y-120.0315
G01 X130.4550 Y-120.0348
G01 X130.4416 Y-120.0409
G01 X130.4251 Y-120.0508
G01 X130.4131 Y-120.0600
G01 X130.4040 Y-120.0683
G01 X130.3088 Y-120.1635
G01 X130.2974 Y-120.1763
G01 X130.2888 Y-120.1883
G01 X130.2815 Y-120.2011
G01 X130.2754 Y-120.2145
G01 X130.2707 Y-120.2284
G01 X130.2674 Y-120.2421
G01 X130.2654 Y-120.2573
G01 X130.2649 Y-120.2721
G00 Z2.0000
G00 X131.5173 Y-119.5845
G01 F60.00
G01 Z-2.4000
G01 F120.00
G01 X131.6041 Y-119.9315
G01 X131.6811 Y-120.0855
G01 X131.7419 Y-120.1463
G01 X131.8789 Y-120.2148
G01 X131.9985 Y-120.2148
G01 X132.1356 Y-120.1463
G01 X132.1963 Y-120.0855
G01 X132.2733 Y-119.9315
G01 X132.3601 Y-119.5845
G01 X132.3601 Y-119.1452
G01 X132.2733 Y-118.7982
G01 X132.1964 Y-118.6442
G01 X132.1356 Y-118.5834
G01 X131.9985 Y-118.5149
G01 X131.8789 Y-118.5149
G01 X131.7419 Y-118.5834
G01 X131.6811 Y-118.6442
G01 X131.6041 Y-118.7982
G01 X131.5173 Y-119.1452
G01 X131.5173 Y-119.5845
G00 Z2.0000
G00 X131.2172 Y-119.1267
G01 F60.00
G01 Z-2.4000
G01 F120.00
G01 X131.2172 Y-119.6029
G01 X131.2178 Y-119.6152
G01 X131.2197 Y-119.6298
G01 X131.2217 Y-119.6393
G01 X131.3170 Y-120.0203
G01 X131.3205 Y-120.0320
G01 X131.3233 Y-120.0398
G01 X131.3283 Y-120.0510
G01 X131.4236 Y-120.2415
G01 X131.4320 Y-120.2562
G01 X131.4378 Y-120.2644
G01 X131.4434 Y-120.2714
G01 X131.4517 Y-120.2805
G01 X131.5469 Y-120.3757
G01 X131.5591 Y-120.3866
G01 X131.5717 Y-120.3957
G01 X131.5859 Y-120.4038
G01 X131.7786 Y-120.5001
G01 X131.7883 Y-120.5044
G01 X131.8023 Y-120.5091
G01 X131.8160 Y-120.5123
G01 X131.8263 Y-120.5139
G01 X131.8435 Y-120.5149
G01 X132.0340 Y-120.5149
G01 X132.0511 Y-120.5139
G01 X132.0608 Y-120.5124
G01 X132.0712 Y-120.5102
G01 X132.0853 Y-120.5058
G01 X132.1011 Y-120.4990
G01 X132.2915 Y-120.4038
G01 X132.3062 Y-120.3954
G01 X132.3145 Y-120.3896
G01 X132.3215 Y-120.3840
G01 X132.3305 Y-120.3757
G01 X132.4258 Y-120.2805
G01 X132.4341 Y-120.2714
G01 X132.4430 Y-120.2597
G01 X132.4479 Y-120.2522
G01 X132.4539 Y-120.2415
G01 X132.5516 Y-120.0457
G01 X132.5570 Y-120.0320
G01 X132.5605 Y-120.0203
G01 X132.6557 Y-119.6393
G01 X132.6588 Y-119.6236
G01 X132.6598 Y-119.6127
G01 X132.6602 Y-119.6029
G01 X132.6602 Y-119.1267
G01 X132.6597 Y-119.1145
G01 X132.6577 Y-119.0999
G01 X132.6557 Y-119.0903
G01 X132.5605 Y-118.7094
G01 X132.5570 Y-118.6976
G01 X132.5541 Y-118.6899
G01 X132.5491 Y-118.6787
G01 X132.4539 Y-118.4882
G01 X132.4454 Y-118.4735
G01 X132.4397 Y-118.4653
G01 X132.4341 Y-118.4583
G01 X132.4258 Y-118.4492
G01 X132.3305 Y-118.3540
G01 X132.3183 Y-118.3431
G01 X132.3057 Y-118.3340
G01 X132.2915 Y-118.3259
G01 X132.1011 Y-118.2306
G01 X132.0899 Y-118.2256
G01 X132.0798 Y-118.2220
G01 X132.0716 Y-118.2196
G01 X132.0577 Y-118.2167
G01 X132.0462 Y-118.2153
G01 X132.0340 Y-118.2148
G01 X131.8435 Y-118.2148
G01 X131.8263 Y-118.2158
G01 X131.8118 Y-118.2182
G01 X131.8023 Y-118.2206
G01 X131.7922 Y-118.2239
G01 X131.7764 Y-118.2306
G01 X131.5801 Y-118.3290
G01 X131.5712 Y-118.3343
G01 X131.5630 Y-118.3401
G01 X131.5560 Y-118.3457
G01 X131.5487 Y-118.3523
G01 X131.4517 Y-118.4492
G01 X131.4434 Y-118.4583
G01 X131.4344 Y-118.4699
G01 X131.4295 Y-118.4775
G01 X131.4236 Y-118.4882
G01 X131.3259 Y-118.6839
G01 X131.3205 Y-118.6976
G01 X131.3170 Y-118.7094
G01 X131.2217 Y-119.0903
G01 X131.2187 Y-119.1060
G01 X131.2176 Y-119.1170
G01 X131.2172 Y-119.1267
G00 Z2.0000
G00 X133.0274 Y-118.3526
G01 F60.00
G01 Z-2.4000
G01 F120.00
G01 X133.0268 Y-118.3624
G01 X133.0273 Y-118.3771
G01 X133.0293 Y-118.3923
G01 X133.0326 Y-118.4060
G01 X133.0373 Y-118.4200
G01 X133.0434 Y-118.4334
G01 X133.0507 Y-118.4461
G01 X133.0593 Y-118.4581
G01 X133.0690 Y-118.4692
G01 X133.0798 Y-118.4792
G01 X133.0915 Y-118.4882
G01 X133.1040 Y-118.4960
G01 X133.1172 Y-118.5025
G01 X133.1309 Y-118.5077
G01 X133.1452 Y-118.5115
G01 X133.1597 Y-118.5139
G01 X133.1768 Y-118.5149
G01 X134.2826 Y-118.5149
G01 X133.5151 Y-120.3057
G01 X133.5093 Y-120.3219
G01 X133.5059 Y-120.3355
G01 X133.5042 Y-120.3459
G01 X133.5030 Y-120.3636
G01 X133.5038 Y-120.3802
G01 X133.5051 Y-120.3899
G01 X133.5083 Y-120.4043
G01 X133.5147 Y-120.4228
G01 X133.5210 Y-120.4361
G01 X133.5284 Y-120.4484
G01 X133.5344 Y-120.4567
G01 X133.5474 Y-120.4714
G01 X133.5583 Y-120.4812
G01 X133.5661 Y-120.4871
G01 X133.5785 Y-120.4951
G01 X133.5962 Y-120.5037
G01 X133.6054 Y-120.5071
G01 X133.6196 Y-120.5111
G01 X133.6389 Y-120.5142
G01 X133.6518 Y-120.5149
G01 X133.6634 Y-120.5145
G01 X133.6829 Y-120.5118
G01 X133.6972 Y-120.5082
G01 X133.7110 Y-120.5032
G01 X133.7243 Y-120.4968
G01 X133.7369 Y-120.4892
G01 X133.7448 Y-120.4835
G01 X133.7560 Y-120.4739
G01 X133.7662 Y-120.4633
G01 X133.7753 Y-120.4517
G01 X133.7832 Y-120.4393
G01 X133.7909 Y-120.4239
G01 X134.6481 Y-118.4239
G01 X134.6530 Y-118.4107
G01 X134.6568 Y-118.3965
G01 X134.6592 Y-118.3820
G01 X134.6601 Y-118.3691
G01 X134.6598 Y-118.3544
G01 X134.6592 Y-118.3477
G01 X134.6568 Y-118.3332
G01 X134.6535 Y-118.3207
G01 X134.6497 Y-118.3097
G01 X134.6444 Y-118.2979
G01 X134.6413 Y-118.2920
G01 X134.6347 Y-118.2812
G01 X134.6277 Y-118.2716
G01 X134.6192 Y-118.2618
G01 X134.6145 Y-118.2570
G01 X134.6048 Y-118.2485
G01 X134.5955 Y-118.2415
G01 X134.5846 Y-118.2346
G01 X134.5787 Y-118.2314
G01 X134.5670 Y-118.2260
G01 X134.5560 Y-118.2220
G01 X134.5436 Y-118.2186
G01 X134.5370 Y-118.2173
G01 X134.5224 Y-118.2153
G01 X134.5101 Y-118.2148
G01 X133.1768 Y-118.2148
G01 X133.1646 Y-118.2153
G01 X133.1500 Y-118.2173
G01 X133.1356 Y-118.2206
G01 X133.1217 Y-118.2253
G01 X133.1083 Y-118.2314
G01 X133.0955 Y-118.2388
G01 X133.0836 Y-118.2473
G01 X133.0725 Y-118.2570
G01 X133.0624 Y-118.2678
G01 X133.0535 Y-118.2795
G01 X133.0457 Y-118.2920
G01 X133.0392 Y-118.3052
G01 X133.0340 Y-118.3190
G01 X133.0302 Y-118.3332
G01 X133.0278 Y-118.3477
G01 X133.0274 Y-118.3526
G00 Z2.0000
G00 X135.0268 Y-118.7458
G01 F60.00
G01 Z-2.4000
G01 F120.00
G01 X135.0268 Y-118.8410
G01 X135.0274 Y-118.8541
G01 X135.0292 Y-118.8679
G01 X135.0326 Y-118.8822
G01 X135.0373 Y-118.8962
G01 X135.0416 Y-118.9059
G01 X135.1379 Y-119.0986
G01 X135.1463 Y-119.1133
G01 X135.1546 Y-119.1247
G01 X135.1643 Y-119.1358
G01 X135.2503 Y-119.2220
G01 X135.1643 Y-119.3081
G01 X135.1577 Y-119.3154
G01 X135.1521 Y-119.3224
G01 X135.1438 Y-119.3346
G01 X135.1379 Y-119.3454
G01 X135.0426 Y-119.5358
G01 X135.0392 Y-119.5433
G01 X135.0359 Y-119.5516
G01 X135.0316 Y-119.5653
G01 X135.0287 Y-119.5792
G01 X135.0274 Y-119.5898
G01 X135.0268 Y-119.6029
G01 X135.0268 Y-119.9839
G01 X135.0274 Y-119.9970
G01 X135.0294 Y-120.0115
G01 X135.0315 Y-120.0211
G01 X135.0340 Y-120.0298
G01 X135.0376 Y-120.0398
G01 X135.0426 Y-120.0510
G01 X135.1379 Y-120.2415
G01 X135.1438 Y-120.2522
G01 X135.1521 Y-120.2644
G01 X135.1577 Y-120.2714
G01 X135.1660 Y-120.2805
G01 X135.2612 Y-120.3757
G01 X135.2734 Y-120.3866
G01 X135.2860 Y-120.3957
G01 X135.3002 Y-120.4038
G01 X135.4929 Y-120.5001
G01 X135.5065 Y-120.5058
G01 X135.5166 Y-120.5091
G01 X135.5303 Y-120.5123
G01 X135.5406 Y-120.5139
G01 X135.5578 Y-120.5149
G01 X135.9387 Y-120.5149
G01 X135.9518 Y-120.5143
G01 X135.9656 Y-120.5124
G01 X135.9760 Y-120.5102
G01 X135.9846 Y-120.5077
G01 X135.9946 Y-120.5040
G01 X136.0058 Y-120.4990
G01 X136.1963 Y-120.4038
G01 X136.2070 Y-120.3978
G01 X136.2192 Y-120.3896
G01 X136.2262 Y-120.3840
G01 X136.2353 Y-120.3757
G01 X136.3305 Y-120.2805
G01 X136.3414 Y-120.2683
G01 X136.3505 Y-120.2556
G01 X136.3587 Y-120.2415
G01 X136.4539 Y-120.0510
G01 X136.4573 Y-120.0435
G01 X136.4606 Y-120.0352
G01 X136.4649 Y-120.0215
G01 X136.4678 Y-120.0076
G01 X136.4695 Y-119.9921
G01 X136.4697 Y-119.9839
G01 X136.4697 Y-119.6029
G01 X136.4692 Y-119.5907
G01 X136.4679 Y-119.5801
G01 X136.4663 Y-119.5713
G01 X136.4637 Y-119.5610
G01 X136.4592 Y-119.5478
G01 X136.4539 Y-119.5358
G01 X136.3587 Y-119.3454
G01 X136.3502 Y-119.3307
G01 X136.3419 Y-119.3192
G01 X136.3322 Y-119.3081
G01 X136.2462 Y-119.2220
G01 X136.3322 Y-119.1358
G01 X136.3388 Y-119.1285
G01 X136.3444 Y-119.1215
G01 X136.3527 Y-119.1093
G01 X136.3587 Y-119.0986
G01 X136.4549 Y-118.9059
G01 X136.4606 Y-118.8923
G01 X136.4639 Y-118.8822
G01 X136.4672 Y-118.8685
G01 X136.4687 Y-118.8582
G01 X136.4697 Y-118.8410
G01 X136.4695 Y-118.7376
G01 X136.4687 Y-118.7286
G01 X136.4671 Y-118.7181
G01 X136.4650 Y-118.7085
G01 X136.4625 Y-118.6999
G01 X136.4589 Y-118.6899
G01 X136.4539 Y-118.6787
G01 X136.3587 Y-118.4882
G01 X136.3527 Y-118.4775
G01 X136.3444 Y-118.4653
G01 X136.3388 Y-118.4583
G01 X136.3305 Y-118.4492
G01 X136.2353 Y-118.3540
G01 X136.2231 Y-118.3431
G01 X136.2112 Y-118.3345
G01 X136.1963 Y-118.3259
G01 X136.0058 Y-118.2306
G01 X135.9939 Y-118.2253
G01 X135.9807 Y-118.2208
G01 X135.9704 Y-118.2182
G01 X135.9625 Y-118.2167
G01 X135.9510 Y-118.2153
G01 X135.9387 Y-118.2148
G01 X135.5578 Y-118.2148
G01 X135.5406 Y-118.2158
G01 X135.5261 Y-118.2182
G01 X135.5166 Y-118.2206
G01 X135.5065 Y-118.2239
G01 X135.4907 Y-118.2306
G01 X135.3002 Y-118.3259
G01 X135.2855 Y-118.3343
G01 X135.2740 Y-118.3426
G01 X135.2629 Y-118.3523
G01 X135.1643 Y-118.4510
G01 X135.1551 Y-118.4614
G01 X135.1487 Y-118.4699
G01 X135.1438 Y-118.4775
G01 X135.1390 Y-118.4860
G01 X135.0416 Y-118.6809
G01 X135.0359 Y-118.6945
G01 X135.0326 Y-118.7046
G01 X135.0302 Y-118.7141
G01 X135.0278 Y-118.7286
G01 X135.0268 Y-118.7458
G00 Z2.0000
G00 X135.3269 Y-118.8056
G01 F60.00
G01 Z-2.4000
G01 F120.00
G01 X135.3954 Y-118.9426
G01 X135.4562 Y-119.0034
G01 X135.5932 Y-119.0719
G01 X135.9033 Y-119.0719
G01 X136.0403 Y-119.0034
G01 X136.1011 Y-118.9426
G01 X136.1696 Y-118.8056
G01 X136.1696 Y-118.7812
G01 X136.1011 Y-118.6442
G01 X136.0403 Y-118.5834
G01 X135.9033 Y-118.5149
G01 X135.5932 Y-118.5149
G01 X135.4562 Y-118.5834
G01 X135.3954 Y-118.6442
G01 X135.3269 Y-118.7812
G01 X135.3269 Y-118.8056
G00 Z2.0000
G00 X135.5932 Y-119.3720
G01 F60.00
G01 Z-2.4000
G01 F120.00
G01 X135.4562 Y-119.4405
G01 X135.3954 Y-119.5013
G01 X135.3269 Y-119.6384
G01 X135.3269 Y-119.9485
G01 X135.3954 Y-120.0855
G01 X135.4562 Y-120.1463
G01 X135.5932 Y-120.2148
G01 X135.9033 Y-120.2148
G01 X136.0403 Y-120.1463
G01 X136.1011 Y-120.0855
G01 X136.1696 Y-119.9485
G01 X136.1696 Y-119.6384
G01 X136.1011 Y-119.5013
G01 X136.0403 Y-119.4405
G01 X135.9033 Y-119.3720
G01 X135.5932 Y-119.3720
G00 Z2.0000
G00 X136.8369 Y-118.3526
G01 F60.00
G01 Z-2.4000
G01 F120.00
G01 X136.8364 Y-118.3624
G01 X136.8368 Y-118.3771
G01 X136.8388 Y-118.3923
G01 X136.8421 Y-118.4060
G01 X136.8468 Y-118.4200
G01 X136.8529 Y-118.4334
G01 X136.8603 Y-118.4461
G01 X136.8688 Y-118.4581
G01 X136.8785 Y-118.4692
G01 X136.8893 Y-118.4792
G01 X136.9010 Y-118.4882
G01 X136.9135 Y-118.4960
G01 X136.9267 Y-118.5025
G01 X136.9405 Y-118.5077
G01 X136.9547 Y-118.5115
G01 X136.9692 Y-118.5139
G01 X136.9863 Y-118.5149
G01 X138.0921 Y-118.5149
G01 X137.3246 Y-120.3057
G01 X137.3188 Y-120.3219
G01 X137.3154 Y-120.3355
G01 X137.3137 Y-120.3459
G01 X137.3125 Y-120.3636
G01 X137.3133 Y-120.3802
G01 X137.3146 Y-120.3899
G01 X137.3178 Y-120.4043
G01 X137.3242 Y-120.4228
G01 X137.3305 Y-120.4361
G01 X137.3380 Y-120.4484
G01 X137.3439 Y-120.4567
G01 X137.3569 Y-120.4714
G01 X137.3678 Y-120.4812
G01 X137.3757 Y-120.4871
G01 X137.3881 Y-120.4951
G01 X137.4057 Y-120.5037
G01 X137.4149 Y-120.5071
G01 X137.4291 Y-120.5111
G01 X137.4484 Y-120.5142
G01 X137.4613 Y-120.5149
G01 X137.4730 Y-120.5145
G01 X137.4924 Y-120.5118
G01 X137.5067 Y-120.5082
G01 X137.5205 Y-120.5032
G01 X137.5338 Y-120.4968
G01 X137.5464 Y-120.4892
G01 X137.5543 Y-120.4835
G01 X137.5655 Y-120.4739
G01 X137.5757 Y-120.4633
G01 X137.5848 Y-120.4517
G01 X137.5928 Y-120.4393
G01 X137.6004 Y-120.4239
G01 X138.4576 Y-118.4239
G01 X138.4625 Y-118.4107
G01 X138.4663 Y-118.3965
G01 X138.4687 Y-118.3820
G01 X138.4696 Y-118.3691
G01 X138.4693 Y-118.3544
G01 X138.4687 Y-118.3477
G01 X138.4663 Y-118.3332
G01 X138.4630 Y-118.3207
G01 X138.4592 Y-118.3097
G01 X138.4539 Y-118.2979
G01 X138.4508 Y-118.2920
G01 X138.4442 Y-118.2812
G01 X138.4372 Y-118.2716
G01 X138.4287 Y-118.2618
G01 X138.4240 Y-118.2570
G01 X138.4144 Y-118.2485
G01 X138.4050 Y-118.2415
G01 X138.3941 Y-118.2346
G01 X138.3882 Y-118.2314
G01 X138.3765 Y-118.2260
G01 X138.3656 Y-118.2220
G01 X138.3531 Y-118.2186
G01 X138.3465 Y-118.2173
G01 X138.3319 Y-118.2153
G01 X138.3197 Y-118.2148
G01 X136.9863 Y-118.2148
G01 X136.9741 Y-118.2153
G01 X136.9595 Y-118.2173
G01 X136.9451 Y-118.2206
G01 X136.9312 Y-118.2253
G01 X136.9178 Y-118.2314
G01 X136.9051 Y-118.2388
G01 X136.8931 Y-118.2473
G01 X136.8820 Y-118.2570
G01 X136.8720 Y-118.2678
G01 X136.8630 Y-118.2795
G01 X136.8552 Y-118.2920
G01 X136.8487 Y-118.3052
G01 X136.8435 Y-118.3190
G01 X136.8397 Y-118.3332
G01 X136.8373 Y-118.3477
G01 X136.8369 Y-118.3526
G00 Z2.0000
G00 X138.8369 Y-118.3526
G01 F60.00
G01 Z-2.4000
G01 F120.00
G01 X138.8363 Y-118.3648
G01 X138.8363 Y-118.7458
G01 X138.8368 Y-118.7580
G01 X138.8388 Y-118.7733
G01 X138.8421 Y-118.7870
G01 X138.8468 Y-118.8009
G01 X138.8529 Y-118.8143
G01 X138.8603 Y-118.8271
G01 X138.8688 Y-118.8390
G01 X138.8785 Y-118.8501
G01 X138.8893 Y-118.8602
G01 X138.9010 Y-118.8691
G01 X138.9135 Y-118.8769
G01 X138.9267 Y-118.8834
G01 X138.9405 Y-118.8886
G01 X138.9547 Y-118.8924
G01 X138.9692 Y-118.8948
G01 X138.9839 Y-118.8958
G01 X138.9986 Y-118.8953
G01 X139.0132 Y-118.8934
G01 X139.0275 Y-118.8900
G01 X139.0415 Y-118.8853
G01 X139.0592 Y-118.8769
G01 X139.0717 Y-118.8691
G01 X139.0796 Y-118.8633
G01 X139.0907 Y-118.8536
G01 X139.1038 Y-118.8390
G01 X139.1124 Y-118.8271
G01 X139.1175 Y-118.8187
G01 X139.1240 Y-118.8055
G01 X139.1306 Y-118.7870
G01 X139.1338 Y-118.7733
G01 X139.1354 Y-118.7629
G01 X139.1364 Y-118.7458
G01 X139.1364 Y-118.3648
G01 X139.1358 Y-118.3526
G01 X139.1339 Y-118.3380
G01 X139.1306 Y-118.3236
G01 X139.1259 Y-118.3097
G01 X139.1198 Y-118.2963
G01 X139.1124 Y-118.2836
G01 X139.1007 Y-118.2678
G01 X139.0907 Y-118.2570
G01 X139.0796 Y-118.2473
G01 X139.0717 Y-118.2415
G01 X139.0592 Y-118.2337
G01 X139.0415 Y-118.2253
G01 X139.0275 Y-118.2206
G01 X139.0138 Y-118.2173
G01 X139.0035 Y-118.2158
G01 X138.9888 Y-118.2149
G01 X138.9741 Y-118.2153
G01 X138.9595 Y-118.2173
G01 X138.9405 Y-118.2220
G01 X138.9267 Y-118.2272
G01 X138.9135 Y-118.2337
G01 X138.9013 Y-118.2412
G01 X138.8931 Y-118.2473
G01 X138.8820 Y-118.2570
G01 X138.8720 Y-118.2678
G01 X138.8603 Y-118.2836
G01 X138.8529 Y-118.2963
G01 X138.8468 Y-118.3097
G01 X138.8435 Y-118.3190
G01 X138.8397 Y-118.3332
G01 X138.8373 Y-118.3477
G01 X138.8369 Y-118.3526
G00 Z2.0000
G00 X139.5988 Y-118.3526
G01 F60.00
G01 Z-2.4000
G01 F120.00
G01 X139.5982 Y-118.3648
G01 X139.5982 Y-118.7458
G01 X139.5987 Y-118.7580
G01 X139.6008 Y-118.7733
G01 X139.6040 Y-118.7870
G01 X139.6087 Y-118.8009
G01 X139.6148 Y-118.8143
G01 X139.6222 Y-118.8271
G01 X139.6307 Y-118.8390
G01 X139.6405 Y-118.8501
G01 X139.6512 Y-118.8602
G01 X139.6629 Y-118.8691
G01 X139.6754 Y-118.8769
G01 X139.6886 Y-118.8834
G01 X139.7024 Y-118.8886
G01 X139.7166 Y-118.8924
G01 X139.7311 Y-118.8948
G01 X139.7458 Y-118.8958
G01 X139.7605 Y-118.8953
G01 X139.7751 Y-118.8934
G01 X139.7894 Y-118.8900
G01 X139.8034 Y-118.8853
G01 X139.8211 Y-118.8769
G01 X139.8336 Y-118.8691
G01 X139.8415 Y-118.8633
G01 X139.8526 Y-118.8536
G01 X139.8658 Y-118.8390
G01 X139.8743 Y-118.8271
G01 X139.8794 Y-118.8187
G01 X139.8859 Y-118.8055
G01 X139.8925 Y-118.7870
G01 X139.8957 Y-118.7733
G01 X139.8973 Y-118.7629
G01 X139.8983 Y-118.7458
G01 X139.8983 Y-118.3648
G01 X139.8978 Y-118.3526
G01 X139.8958 Y-118.3380
G01 X139.8925 Y-118.3236
G01 X139.8878 Y-118.3097
G01 X139.8817 Y-118.2963
G01 X139.8743 Y-118.2836
G01 X139.8626 Y-118.2678
G01 X139.8526 Y-118.2570
G01 X139.8415 Y-118.2473
G01 X139.8336 Y-118.2415
G01 X139.8211 Y-118.2337
G01 X139.8034 Y-118.2253
G01 X139.7894 Y-118.2206
G01 X139.7757 Y-118.2173
G01 X139.7654 Y-118.2158
G01 X139.7507 Y-118.2149
G01 X139.7360 Y-118.2153
G01 X139.7214 Y-118.2173
G01 X139.7024 Y-118.2220
G01 X139.6886 Y-118.2272
G01 X139.6754 Y-118.2337
G01 X139.6632 Y-118.2412
G01 X139.6550 Y-118.2473
G01 X139.6439 Y-118.2570
G01 X139.6339 Y-118.2678
G01 X139.6222 Y-118.2836
G01 X139.6148 Y-118.2963
G01 X139.6087 Y-118.3097
G01 X139.6054 Y-118.3190
G01 X139.6016 Y-118.3332
G01 X139.5992 Y-118.3477
G01 X139.5988 Y-118.3526
G00 Z2.0000
G00 X141.9791 Y-119.4125
G01 F60.00
G01 Z-2.4000
G01 F120.00
G01 X141.9792 Y-119.7935
G01 X141.9799 Y-119.8081
G01 X141.9816 Y-119.8203
G01 X142.0787 Y-120.3052
G01 X142.0821 Y-120.3171
G01 X142.1773 Y-120.6028
G01 X142.1817 Y-120.6142
G01 X142.1855 Y-120.6224
G01 X142.2807 Y-120.8129
G01 X142.2867 Y-120.8236
G01 X142.4806 Y-121.1148
G01 X142.4910 Y-121.1285
G01 X142.4992 Y-121.1375
G01 X142.5963 Y-121.2345
G01 X142.6074 Y-121.2442
G01 X142.6153 Y-121.2501
G01 X142.6321 Y-121.2602
G01 X142.6455 Y-121.2663
G01 X142.6594 Y-121.2710
G01 X142.6732 Y-121.2742
G01 X142.6835 Y-121.2758
G01 X142.6982 Y-121.2767
G01 X142.7178 Y-121.2758
G01 X142.7323 Y-121.2734
G01 X142.7465 Y-121.2696
G01 X142.7603 Y-121.2644
G01 X142.7735 Y-121.2579
G01 X142.7857 Y-121.2503
G01 X142.7939 Y-121.2442
G01 X142.8050 Y-121.2345
G01 X142.8150 Y-121.2238
G01 X142.8240 Y-121.2121
G01 X142.8341 Y-121.1953
G01 X142.8401 Y-121.1819
G01 X142.8449 Y-121.1679
G01 X142.8481 Y-121.1542
G01 X142.8497 Y-121.1439
G01 X142.8506 Y-121.1292
G01 X142.8501 Y-121.1145
G01 X142.8482 Y-121.0999
G01 X142.8449 Y-121.0855
G01 X142.8401 Y-121.0716
G01 X142.8318 Y-121.0539
G01 X142.8242 Y-121.0417
G01 X142.8150 Y-121.0297
G01 X142.8067 Y-121.0206
G01 X142.7220 Y-120.9359
G01 X142.5449 Y-120.6703
G01 X142.4587 Y-120.4977
G01 X142.3697 Y-120.2310
G01 X142.2793 Y-119.7786
G01 X142.2793 Y-119.4273
G01 X142.3697 Y-118.9749
G01 X142.4587 Y-118.7081
G01 X142.5449 Y-118.5355
G01 X142.7220 Y-118.2700
G01 X142.8067 Y-118.1852
G01 X142.8150 Y-118.1762
G01 X142.8240 Y-118.1645
G01 X142.8318 Y-118.1520
G01 X142.8383 Y-118.1388
G01 X142.8434 Y-118.1250
G01 X142.8482 Y-118.1060
G01 X142.8501 Y-118.0914
G01 X142.8506 Y-118.0767
G01 X142.8497 Y-118.0620
G01 X142.8473 Y-118.0475
G01 X142.8449 Y-118.0379
G01 X142.8401 Y-118.0240
G01 X142.8341 Y-118.0106
G01 X142.8267 Y-117.9978
G01 X142.8150 Y-117.9821
G01 X142.8050 Y-117.9713
G01 X142.7939 Y-117.9616
G01 X142.7860 Y-117.9558
G01 X142.7735 Y-117.9480
G01 X142.7558 Y-117.9396
G01 X142.7418 Y-117.9349
G01 X142.7281 Y-117.9316
G01 X142.7178 Y-117.9301
G01 X142.7031 Y-117.9291
G01 X142.6835 Y-117.9301
G01 X142.6738 Y-117.9315
G01 X142.6594 Y-117.9349
G01 X142.6410 Y-117.9415
G01 X142.6321 Y-117.9457
G01 X142.6193 Y-117.9530
G01 X142.6036 Y-117.9647
G01 X142.5945 Y-117.9730
G01 X142.4992 Y-118.0684
G01 X142.4878 Y-118.0812
G01 X142.4805 Y-118.0911
G01 X142.2901 Y-118.3768
G01 X142.2837 Y-118.3873
G01 X142.1855 Y-118.5834
G01 X142.1805 Y-118.5947
G01 X142.1773 Y-118.6031
G01 X142.0802 Y-118.8949
G01 X142.0773 Y-118.9068
G01 X141.9820 Y-119.3832
G01 X141.9799 Y-119.3977
G01 X141.9791 Y-119.4125
G00 Z2.0000
G00 X143.1221 Y-120.3648
G01 F60.00
G01 Z-2.4000
G01 F120.00
G01 X143.1227 Y-120.3796
G01 X143.1249 Y-120.3942
G01 X143.1285 Y-120.4085
G01 X143.1334 Y-120.4222
G01 X143.1398 Y-120.4356
G01 X143.1473 Y-120.4483
G01 X143.1560 Y-120.4600
G01 X143.1643 Y-120.4692
G01 X143.1768 Y-120.4808
G01 X143.1867 Y-120.4882
G01 X143.2035 Y-120.4983
G01 X143.2146 Y-120.5034
G01 X143.2285 Y-120.5084
G01 X143.2428 Y-120.5120
G01 X143.2598 Y-120.5143
G01 X143.2721 Y-120.5149
G01 X144.5101 Y-120.5149
G01 X144.5224 Y-120.5143
G01 X144.5418 Y-120.5115
G01 X144.5560 Y-120.5077
G01 X144.5653 Y-120.5044
G01 X144.5787 Y-120.4983
G01 X144.5914 Y-120.4909
G01 X144.6034 Y-120.4823
G01 X144.6179 Y-120.4692
G01 X144.6277 Y-120.4581
G01 X144.6362 Y-120.4461
G01 X144.6436 Y-120.4334
G01 X144.6478 Y-120.4245
G01 X144.6530 Y-120.4107
G01 X144.6576 Y-120.3923
G01 X144.6597 Y-120.3771
G01 X144.6601 Y-120.3624
G01 X144.6597 Y-120.3526
G01 X144.6577 Y-120.3380
G01 X144.6544 Y-120.3236
G01 X144.6478 Y-120.3052
G01 X144.6436 Y-120.2963
G01 X144.6362 Y-120.2836
G01 X144.6277 Y-120.2716
G01 X144.6179 Y-120.2605
G01 X144.6034 Y-120.2473
G01 X144.5914 Y-120.2388
G01 X144.5787 Y-120.2314
G01 X144.5698 Y-120.2272
G01 X144.5560 Y-120.2220
G01 X144.5418 Y-120.2182
G01 X144.5273 Y-120.2158
G01 X144.5102 Y-120.2148
G01 X143.6343 Y-120.2148
G01 X144.5210 Y-119.3281
G01 X144.5324 Y-119.3152
G01 X144.5410 Y-119.3033
G01 X144.5483 Y-119.2905
G01 X144.5544 Y-119.2771
G01 X144.5573 Y-119.2694
G01 X144.6525 Y-118.9837
G01 X144.6559 Y-118.9719
G01 X144.6576 Y-118.9637
G01 X144.6597 Y-118.9485
G01 X144.6602 Y-118.9363
G01 X144.6602 Y-118.7458
G01 X144.6597 Y-118.7335
G01 X144.6584 Y-118.7230
G01 X144.6568 Y-118.7141
G01 X144.6530 Y-118.6999
G01 X144.6494 Y-118.6899
G01 X144.6444 Y-118.6787
G01 X144.5491 Y-118.4882
G01 X144.5407 Y-118.4735
G01 X144.5324 Y-118.4621
G01 X144.5227 Y-118.4510
G01 X144.4258 Y-118.3540
G01 X144.4136 Y-118.3431
G01 X144.4010 Y-118.3340
G01 X144.3868 Y-118.3259
G01 X144.1963 Y-118.2306
G01 X144.1851 Y-118.2256
G01 X144.1751 Y-118.2220
G01 X144.1668 Y-118.2196
G01 X144.1530 Y-118.2167
G01 X144.1415 Y-118.2153
G01 X144.1292 Y-118.2148
G01 X143.6530 Y-118.2148
G01 X143.6359 Y-118.2158
G01 X143.6253 Y-118.2174
G01 X143.6118 Y-118.2206
G01 X143.6017 Y-118.2239
G01 X143.5881 Y-118.2296
G01 X143.3954 Y-118.3259
G01 X143.3807 Y-118.3343
G01 X143.3693 Y-118.3426
G01 X143.3582 Y-118.3523
G01 X143.2612 Y-118.4492
G01 X143.2498 Y-118.4620
G01 X143.2412 Y-118.4740
G01 X143.2362 Y-118.4824
G01 X143.2297 Y-118.4956
G01 X143.2230 Y-118.5141
G01 X143.2198 Y-118.5276
G01 X143.2183 Y-118.5382
G01 X143.2173 Y-118.5528
G01 X143.2183 Y-118.5724
G01 X143.2197 Y-118.5822
G01 X143.2230 Y-118.5965
G01 X143.2297 Y-118.6150
G01 X143.2362 Y-118.6282
G01 X143.2437 Y-118.6403
G01 X143.2498 Y-118.6486
G01 X143.2630 Y-118.6631
G01 X143.2740 Y-118.6728
G01 X143.2819 Y-118.6787
G01 X143.2944 Y-118.6864
G01 X143.3076 Y-118.6929
G01 X143.3261 Y-118.6996
G01 X143.3396 Y-118.7028
G01 X143.3501 Y-118.7043
G01 X143.3648 Y-118.7053
G01 X143.3844 Y-118.7043
G01 X143.3941 Y-118.7029
G01 X143.4085 Y-118.6996
G01 X143.4269 Y-118.6929
G01 X143.4402 Y-118.6864
G01 X143.4527 Y-118.6787
G01 X143.4605 Y-118.6728
G01 X143.4716 Y-118.6631
G01 X143.5514 Y-118.5834
G01 X143.6884 Y-118.5149
G01 X144.0938 Y-118.5149
G01 X144.2308 Y-118.5834
G01 X144.2916 Y-118.6442
G01 X144.3601 Y-118.7812
G01 X144.3601 Y-118.9119
G01 X144.2838 Y-119.1409
G01 X143.1643 Y-120.2605
G01 X143.1561 Y-120.2696
G01 X143.1473 Y-120.2815
G01 X143.1397 Y-120.2941
G01 X143.1335 Y-120.3074
G01 X143.1285 Y-120.3213
G01 X143.1249 Y-120.3356
G01 X143.1227 Y-120.3501
G01 X143.1221 Y-120.3648
G00 Z2.0000
G00 X146.7410 Y-118.3648
G01 F60.00
G01 Z-2.4000
G01 F120.00
G01 X146.7410 Y-120.3648
G01 X146.7421 Y-120.3820
G01 X146.7445 Y-120.3965
G01 X146.7483 Y-120.4107
G01 X146.7516 Y-120.4200
G01 X146.7577 Y-120.4334
G01 X146.7675 Y-120.4499
G01 X146.7736 Y-120.4581
G01 X146.7833 Y-120.4692
G01 X146.7978 Y-120.4823
G01 X146.8057 Y-120.4882
G01 X146.8182 Y-120.4960
G01 X146.8360 Y-120.5044
G01 X146.8499 Y-120.5091
G01 X146.8636 Y-120.5123
G01 X146.8740 Y-120.5139
G01 X146.8886 Y-120.5148
G01 X146.9082 Y-120.5139
G01 X146.9180 Y-120.5124
G01 X146.9323 Y-120.5091
G01 X146.9508 Y-120.5025
G01 X146.9596 Y-120.4983
G01 X146.9724 Y-120.4909
G01 X146.9881 Y-120.4792
G01 X146.9989 Y-120.4692
G01 X147.0055 Y-120.4619
G01 X147.0172 Y-120.4461
G01 X147.0222 Y-120.4377
G01 X147.0287 Y-120.4245
G01 X147.0339 Y-120.4107
G01 X147.0377 Y-120.3965
G01 X147.0401 Y-120.3820
G01 X147.0412 Y-120.3648
G01 X147.0412 Y-119.2841
G01 X147.0752 Y-119.2501
G01 X147.2122 Y-119.1816
G01 X147.4271 Y-119.1816
G01 X147.5412 Y-119.2386
G01 X147.5982 Y-119.3526
G01 X147.5982 Y-120.3648
G01 X147.5992 Y-120.3820
G01 X147.6007 Y-120.3917
G01 X147.6040 Y-120.4060
G01 X147.6087 Y-120.4200
G01 X147.6171 Y-120.4377
G01 X147.6247 Y-120.4499
G01 X147.6339 Y-120.4619
G01 X147.6439 Y-120.4726
G01 X147.6550 Y-120.4823
G01 X147.6629 Y-120.4882
G01 X147.6754 Y-120.4960
G01 X147.6886 Y-120.5025
G01 X147.7024 Y-120.5077
G01 X147.7208 Y-120.5123
G01 X147.7360 Y-120.5143
G01 X147.7507 Y-120.5148
G01 X147.7654 Y-120.5139
G01 X147.7799 Y-120.5115
G01 X147.7941 Y-120.5077
G01 X147.8034 Y-120.5044
G01 X147.8168 Y-120.4983
G01 X147.8333 Y-120.4884
