(G-CODE GENERATED BY FLATCAM v8.99 - www.flatcam.org - Version Date: 2019/12/15)

(Name: Front Copper)
(Type: G-code from Geometry)
(Units: MM)

(Created on Saturday, 01 November 2025 at 13:50)

(TOOL DIAMETER: 0.1 mm)
(Feedrate: 150.0 mm/min)
(Feedrate_Z: 60.0 mm/min)
(Feedrate rapids 1500.0 mm/min)

(Z_Cut: -0.15 mm)
(Z_Move: 2.0 mm)
(Z Toolchange: 15.0 mm)
(X,Y Toolchange: 0.0000, 0.0000 mm)
(Z Start: None mm)
(Z End: 15.0 mm)
(Steps per circle: 64)
(Preprocessor Geometry: default)

(X range:  106.9000 ...  192.1000  mm)
(Y range: -113.1000 ...  -57.9000  mm)

(Spindle Speed: 6000 RPM)
G21
G90
G94




G01 F150.00
G00 Z2.0000

M03 S6000
G00 X106.9000 Y-63.0000
G01 F60.00
G01 Z-0.1500
G01 F150.00
G01 X106.9000 Y-108.0000
G01 X106.9242 Y-108.4950
G01 X106.9251 Y-108.5048
G01 X106.9971 Y-108.9901
G01 X106.9985 Y-108.9974
G01 X107.1183 Y-109.4757
G01 X107.1211 Y-109.4851
G01 X107.2864 Y-109.9471
G01 X107.2892 Y-109.9539
G01 X107.5000 Y-110.3997
G01 X107.5046 Y-110.4084
G01 X107.7582 Y-110.8313
G01 X107.7623 Y-110.8374
G01 X108.0546 Y-111.2316
G01 X108.0592 Y-111.2373
G01 X108.3904 Y-111.6027
G01 X108.3973 Y-111.6096
G01 X108.7609 Y-111.9392
G01 X108.7665 Y-111.9439
G01 X109.1626 Y-112.2377
G01 X109.1707 Y-112.2431
G01 X109.5937 Y-112.4966
G01 X109.6003 Y-112.5000
G01 X110.0438 Y-112.7098
G01 X110.0506 Y-112.7127
G01 X110.5149 Y-112.8789
G01 X110.5243 Y-112.8817
G01 X111.0026 Y-113.0015
G01 X111.0099 Y-113.0029
G01 X111.4952 Y-113.0749
G01 X111.5050 Y-113.0758
G01 X112.0000 Y-113.1000
G01 X187.0049 Y-113.0999
G01 X187.4974 Y-113.0756
G01 X187.5048 Y-113.0749
G01 X187.9901 Y-113.0029
G01 X187.9998 Y-113.0010
G01 X188.4781 Y-112.8811
G01 X188.4851 Y-112.8789
G01 X188.9471 Y-112.7136
G01 X188.9562 Y-112.7098
G01 X189.3997 Y-112.5000
G01 X189.4063 Y-112.4966
G01 X189.8293 Y-112.2431
G01 X189.8374 Y-112.2377
G01 X190.2335 Y-111.9439
G01 X190.2391 Y-111.9392
G01 X190.6027 Y-111.6096
G01 X190.6096 Y-111.6027
G01 X190.9392 Y-111.2391
G01 X190.9439 Y-111.2335
G01 X191.2377 Y-110.8374
G01 X191.2431 Y-110.8293
G01 X191.4966 Y-110.4063
G01 X191.5000 Y-110.3997
G01 X191.7098 Y-109.9562
G01 X191.7127 Y-109.9494
G01 X191.8789 Y-109.4851
G01 X191.8817 Y-109.4757
G01 X192.0015 Y-108.9974
G01 X192.0029 Y-108.9901
G01 X192.0749 Y-108.5048
G01 X192.0758 Y-108.4950
G01 X192.1000 Y-108.0000
G01 X192.0999 Y-62.9951
G01 X192.0756 Y-62.5026
G01 X192.0749 Y-62.4952
G01 X192.0029 Y-62.0099
G01 X192.0010 Y-62.0002
G01 X191.8811 Y-61.5219
G01 X191.8789 Y-61.5149
G01 X191.7136 Y-61.0529
G01 X191.7098 Y-61.0438
G01 X191.5000 Y-60.6003
G01 X191.4966 Y-60.5937
G01 X191.2431 Y-60.1707
G01 X191.2377 Y-60.1626
G01 X190.9439 Y-59.7665
G01 X190.9392 Y-59.7609
G01 X190.6096 Y-59.3973
G01 X190.6027 Y-59.3904
G01 X190.2391 Y-59.0608
G01 X190.2335 Y-59.0561
G01 X189.8374 Y-58.7623
G01 X189.8293 Y-58.7569
G01 X189.4063 Y-58.5034
G01 X189.3997 Y-58.5000
G01 X188.9562 Y-58.2902
G01 X188.9494 Y-58.2873
G01 X188.4851 Y-58.1211
G01 X188.4757 Y-58.1183
G01 X187.9974 Y-57.9985
G01 X187.9901 Y-57.9971
G01 X187.5048 Y-57.9251
G01 X187.4950 Y-57.9242
G01 X187.0000 Y-57.9000
G01 X112.0000 Y-57.9000
G01 X111.5050 Y-57.9242
G01 X111.4952 Y-57.9251
G01 X111.0075 Y-57.9976
G01 X111.0002 Y-57.9990
G01 X110.5219 Y-58.1189
G01 X110.5149 Y-58.1211
G01 X110.0506 Y-58.2873
G01 X110.0438 Y-58.2902
G01 X109.6003 Y-58.5000
G01 X109.5916 Y-58.5046
G01 X109.1687 Y-58.7582
G01 X109.1626 Y-58.7623
G01 X108.7684 Y-59.0546
G01 X108.7609 Y-59.0608
G01 X108.3973 Y-59.3904
G01 X108.3904 Y-59.3973
G01 X108.0608 Y-59.7609
G01 X108.0561 Y-59.7665
G01 X107.7623 Y-60.1626
G01 X107.7582 Y-60.1687
G01 X107.5046 Y-60.5916
G01 X107.5011 Y-60.5981
G01 X107.2902 Y-61.0438
G01 X107.2873 Y-61.0506
G01 X107.1211 Y-61.5149
G01 X107.1189 Y-61.5219
G01 X106.9990 Y-62.0002
G01 X106.9976 Y-62.0075
G01 X106.9251 Y-62.4952
G01 X106.9244 Y-62.5026
G01 X106.9000 Y-63.0000
G00 Z2.0000
G00 X109.4622 Y-62.7525
G01 F60.00
G01 Z-0.1500
G01 F150.00
G01 X109.4501 Y-63.0025
G01 X109.4626 Y-63.2524
G01 X109.4995 Y-63.4999
G01 X109.5606 Y-63.7426
G01 X109.6451 Y-63.9781
G01 X109.7523 Y-64.2042
G01 X109.8809 Y-64.4184
G01 X110.0304 Y-64.6196
G01 X110.1987 Y-64.8048
G01 X110.3842 Y-64.9727
G01 X110.5854 Y-65.1216
G01 X110.8001 Y-65.2500
G01 X111.0264 Y-65.3568
G01 X111.2621 Y-65.4409
G01 X111.5043 Y-65.5013
G01 X111.7525 Y-65.5379
G01 X112.0025 Y-65.5499
G01 X112.2524 Y-65.5374
G01 X112.4999 Y-65.5005
G01 X112.7426 Y-65.4394
G01 X112.9781 Y-65.3549
G01 X113.2042 Y-65.2477
G01 X113.4184 Y-65.1191
G01 X113.6196 Y-64.9696
G01 X113.8048 Y-64.8013
G01 X113.9727 Y-64.6158
G01 X114.1216 Y-64.4146
G01 X114.2500 Y-64.1999
G01 X114.3568 Y-63.9736
G01 X114.4409 Y-63.7379
G01 X114.5013 Y-63.4959
G01 X114.5379 Y-63.2475
G01 X114.5499 Y-62.9975
G01 X114.5374 Y-62.7476
G01 X114.5005 Y-62.5001
G01 X114.4394 Y-62.2574
G01 X114.3549 Y-62.0219
G01 X114.2477 Y-61.7958
G01 X114.1191 Y-61.5816
G01 X113.9696 Y-61.3804
G01 X113.8013 Y-61.1952
G01 X113.6158 Y-61.0273
G01 X113.4146 Y-60.8784
G01 X113.1999 Y-60.7500
G01 X112.9736 Y-60.6432
G01 X112.7379 Y-60.5591
G01 X112.4957 Y-60.4987
G01 X112.2475 Y-60.4621
G01 X111.9975 Y-60.4501
G01 X111.7476 Y-60.4626
G01 X111.5001 Y-60.4995
G01 X111.2574 Y-60.5606
G01 X111.0219 Y-60.6451
G01 X110.7958 Y-60.7523
G01 X110.5816 Y-60.8809
G01 X110.3804 Y-61.0304
G01 X110.1952 Y-61.1987
G01 X110.0273 Y-61.3842
G01 X109.8784 Y-61.5854
G01 X109.7500 Y-61.8001
G01 X109.6432 Y-62.0264
G01 X109.5591 Y-62.2621
G01 X109.4987 Y-62.5041
G01 X109.4626 Y-62.7476
G01 X109.4622 Y-62.7525
G00 Z2.0000
G00 X115.3836 Y-79.0451
G01 F60.00
G01 Z-0.1500
G01 F150.00
G01 X115.3887 Y-79.0472
G01 X115.3940 Y-79.0487
G01 X115.3995 Y-79.0496
G01 X115.4050 Y-79.0499
G01 X116.0549 Y-79.0499
G01 X116.0549 Y-92.2583
G01 X115.7025 Y-92.2583
G01 X115.6732 Y-92.2600
G01 X115.6489 Y-92.2636
G01 X115.6156 Y-92.2720
G01 X115.5880 Y-92.2821
G01 X115.5658 Y-92.2926
G01 X115.5404 Y-92.3075
G01 X115.5166 Y-92.3249
G01 X115.4912 Y-92.3479
G01 X115.4716 Y-92.3699
G01 X115.4570 Y-92.3896
G01 X115.4416 Y-92.4147
G01 X115.4288 Y-92.4412
G01 X115.4187 Y-92.4689
G01 X115.4103 Y-92.5022
G01 X115.4063 Y-92.5313
G01 X115.4050 Y-92.5583
G01 X115.4050 Y-93.5583
G01 X115.4063 Y-93.5852
G01 X115.4103 Y-93.6144
G01 X115.4173 Y-93.6430
G01 X115.4270 Y-93.6708
G01 X115.4393 Y-93.6975
G01 X115.4542 Y-93.7229
G01 X115.4716 Y-93.7467
G01 X115.4912 Y-93.7686
G01 X115.5128 Y-93.7886
G01 X115.5363 Y-93.8063
G01 X115.5614 Y-93.8216
G01 X115.5925 Y-93.8363
G01 X115.6203 Y-93.8460
G01 X115.6483 Y-93.8528
G01 X115.6732 Y-93.8565
G01 X115.7025 Y-93.8582
G01 X117.2050 Y-93.8583
G01 X117.2368 Y-93.8565
G01 X117.2611 Y-93.8529
G01 X117.2897 Y-93.8460
G01 X117.3220 Y-93.8344
G01 X117.3486 Y-93.8216
G01 X117.3733 Y-93.8065
G01 X117.3934 Y-93.7917
G01 X117.4154 Y-93.7721
G01 X117.4384 Y-93.7467
G01 X117.4558 Y-93.7229
G01 X117.4684 Y-93.7018
G01 X117.4812 Y-93.6753
G01 X117.4913 Y-93.6477
G01 X117.4996 Y-93.6150
G01 X117.5033 Y-93.5901
G01 X117.5049 Y-93.5607
G01 X117.5050 Y-93.2083
G01 X129.7050 Y-93.2083
G01 X129.7051 Y-93.5607
G01 X129.7067 Y-93.5901
G01 X129.7103 Y-93.6144
G01 X129.7187 Y-93.6477
G01 X129.7288 Y-93.6753
G01 X129.7393 Y-93.6975
G01 X129.7542 Y-93.7229
G01 X129.7716 Y-93.7467
G01 X129.7946 Y-93.7721
G01 X129.8166 Y-93.7917
G01 X129.8363 Y-93.8063
G01 X129.8614 Y-93.8216
G01 X129.8880 Y-93.8344
G01 X129.9203 Y-93.8460
G01 X129.9483 Y-93.8528
G01 X129.9732 Y-93.8565
G01 X130.0050 Y-93.8583
G01 X131.5050 Y-93.8583
G01 X131.5320 Y-93.8570
G01 X131.5611 Y-93.8529
G01 X131.5897 Y-93.8460
G01 X131.6175 Y-93.8363
G01 X131.6442 Y-93.8240
G01 X131.6696 Y-93.8090
G01 X131.6934 Y-93.7917
G01 X131.7154 Y-93.7721
G01 X131.7353 Y-93.7504
G01 X131.7558 Y-93.7229
G01 X131.7684 Y-93.7018
G01 X131.7812 Y-93.6753
G01 X131.7927 Y-93.6430
G01 X131.7996 Y-93.6150
G01 X131.8037 Y-93.5852
G01 X131.8050 Y-93.5583
G01 X131.8050 Y-92.5583
G01 X131.8033 Y-92.5264
G01 X131.7997 Y-92.5022
G01 X131.7927 Y-92.4736
G01 X131.7830 Y-92.4458
G01 X131.7707 Y-92.4190
G01 X131.7558 Y-92.3937
G01 X131.7384 Y-92.3699
G01 X131.7154 Y-92.3444
G01 X131.6934 Y-92.3249
G01 X131.6696 Y-92.3075
G01 X131.6486 Y-92.2949
G01 X131.6220 Y-92.2821
G01 X131.5897 Y-92.2705
G01 X131.5617 Y-92.2637
G01 X131.5320 Y-92.2595
G01 X131.5050 Y-92.2583
G01 X130.0050 Y-92.2583
G01 X129.9780 Y-92.2595
G01 X129.9489 Y-92.2636
G01 X129.9156 Y-92.2720
G01 X129.8880 Y-92.2821
G01 X129.8658 Y-92.2926
G01 X129.8404 Y-92.3075
G01 X129.8166 Y-92.3249
G01 X129.7912 Y-92.3479
G01 X129.7716 Y-92.3699
G01 X129.7570 Y-92.3896
G01 X129.7416 Y-92.4147
G01 X129.7288 Y-92.4412
G01 X129.7187 Y-92.4689
G01 X129.7104 Y-92.5016
G01 X129.7067 Y-92.5264
G01 X129.7051 Y-92.5558
G01 X129.7050 Y-92.9082
G01 X117.5050 Y-92.9082
G01 X117.5049 Y-92.5558
G01 X117.5033 Y-92.5264
G01 X117.4997 Y-92.5022
G01 X117.4927 Y-92.4736
G01 X117.4830 Y-92.4458
G01 X117.4707 Y-92.4190
G01 X117.4558 Y-92.3937
G01 X117.4384 Y-92.3699
G01 X117.4188 Y-92.3479
G01 X117.3972 Y-92.3280
G01 X117.3737 Y-92.3102
G01 X117.3486 Y-92.2949
G01 X117.3220 Y-92.2821
G01 X117.2897 Y-92.2705
G01 X117.2617 Y-92.2637
G01 X117.2368 Y-92.2600
G01 X117.2075 Y-92.2583
G01 X116.3551 Y-92.2583
G01 X116.3551 Y-79.0499
G01 X117.0050 Y-79.0499
G01 X117.0105 Y-79.0496
G01 X117.0160 Y-79.0487
G01 X117.0213 Y-79.0472
G01 X117.0264 Y-79.0451
G01 X117.0348 Y-79.0400
G01 X117.0420 Y-79.0335
G01 X117.0452 Y-79.0297
G01 X117.0502 Y-79.0213
G01 X117.0523 Y-79.0161
G01 X117.0538 Y-79.0108
G01 X117.0547 Y-79.0054
G01 X117.0550 Y-78.9999
G01 X117.0550 Y-76.9999
G01 X117.0542 Y-76.9911
G01 X117.0533 Y-76.9868
G01 X117.0502 Y-76.9785
G01 X117.0452 Y-76.9701
G01 X117.0386 Y-76.9628
G01 X117.0348 Y-76.9597
G01 X117.0264 Y-76.9547
G01 X117.0213 Y-76.9526
G01 X117.0160 Y-76.9511
G01 X117.0105 Y-76.9502
G01 X117.0050 Y-76.9499
G01 X115.4050 Y-76.9499
G01 X115.3995 Y-76.9502
G01 X115.3940 Y-76.9511
G01 X115.3887 Y-76.9526
G01 X115.3836 Y-76.9547
G01 X115.3752 Y-76.9597
G01 X115.3714 Y-76.9628
G01 X115.3648 Y-76.9701
G01 X115.3598 Y-76.9785
G01 X115.3577 Y-76.9836
G01 X115.3562 Y-76.9889
G01 X115.3553 Y-76.9944
G01 X115.3550 Y-76.9999
G01 X115.3550 Y-78.9999
G01 X115.3553 Y-79.0054
G01 X115.3562 Y-79.0108
G01 X115.3577 Y-79.0161
G01 X115.3598 Y-79.0213
G01 X115.3621 Y-79.0256
G01 X115.3648 Y-79.0297
G01 X115.3714 Y-79.0369
G01 X115.3752 Y-79.0400
G01 X115.3836 Y-79.0451
G00 Z2.0000
G00 X115.4050 Y-97.5583
G01 F60.00
G01 Z-0.1500
G01 F150.00
G01 X115.4050 Y-98.5583
G01 X115.4067 Y-98.5901
G01 X115.4113 Y-98.6192
G01 X115.4187 Y-98.6477
G01 X115.4288 Y-98.6753
G01 X115.4393 Y-98.6975
G01 X115.4542 Y-98.7229
G01 X115.4747 Y-98.7504
G01 X115.4946 Y-98.7721
G01 X115.5128 Y-98.7886
G01 X115.5404 Y-98.8090
G01 X115.5614 Y-98.8216
G01 X115.5880 Y-98.8344
G01 X115.6203 Y-98.8460
G01 X115.6483 Y-98.8528
G01 X115.6780 Y-98.8570
G01 X115.7050 Y-98.8583
G01 X117.2050 Y-98.8583
G01 X117.2320 Y-98.8570
G01 X117.2611 Y-98.8529
G01 X117.2944 Y-98.8446
G01 X117.3220 Y-98.8344
G01 X117.3442 Y-98.8240
G01 X117.3696 Y-98.8090
G01 X117.3934 Y-98.7917
G01 X117.4188 Y-98.7686
G01 X117.4384 Y-98.7467
G01 X117.4530 Y-98.7269
G01 X117.4684 Y-98.7018
G01 X117.4812 Y-98.6753
G01 X117.4913 Y-98.6477
G01 X117.4996 Y-98.6150
G01 X117.5033 Y-98.5901
G01 X117.5049 Y-98.5607
G01 X117.5050 Y-98.2083
G01 X129.7050 Y-98.2083
G01 X129.7050 Y-98.5583
G01 X129.7063 Y-98.5852
G01 X129.7103 Y-98.6144
G01 X129.7173 Y-98.6430
G01 X129.7288 Y-98.6753
G01 X129.7393 Y-98.6975
G01 X129.7542 Y-98.7229
G01 X129.7747 Y-98.7504
G01 X129.7946 Y-98.7721
G01 X129.8128 Y-98.7886
G01 X129.8404 Y-98.8090
G01 X129.8614 Y-98.8216
G01 X129.8880 Y-98.8344
G01 X129.9203 Y-98.8460
G01 X129.9483 Y-98.8528
G01 X129.9732 Y-98.8565
G01 X130.0050 Y-98.8583
G01 X131.5050 Y-98.8583
G01 X131.5320 Y-98.8570
G01 X131.5611 Y-98.8529
G01 X131.5897 Y-98.8460
G01 X131.6175 Y-98.8363
G01 X131.6442 Y-98.8240
G01 X131.6733 Y-98.8065
G01 X131.6972 Y-98.7886
G01 X131.7188 Y-98.7686
G01 X131.7353 Y-98.7504
G01 X131.7530 Y-98.7269
G01 X131.7684 Y-98.7018
G01 X131.7812 Y-98.6753
G01 X131.7927 Y-98.6430
G01 X131.7996 Y-98.6150
G01 X131.8033 Y-98.5901
G01 X131.8049 Y-98.5607
G01 X131.8050 Y-98.2083
G01 X133.8453 Y-98.2083
G01 X133.8861 Y-98.2491
G01 X133.8766 Y-98.2599
G01 X133.8592 Y-98.2837
G01 X133.8466 Y-98.3047
G01 X133.8338 Y-98.3312
G01 X133.8223 Y-98.3636
G01 X133.8154 Y-98.3916
G01 X133.8113 Y-98.4213
G01 X133.8100 Y-98.4483
G01 X133.8100 Y-98.9733
G01 X133.8117 Y-99.0051
G01 X133.8153 Y-99.0294
G01 X133.8223 Y-99.0580
G01 X133.8320 Y-99.0858
G01 X133.8443 Y-99.1125
G01 X133.8617 Y-99.1416
G01 X133.8797 Y-99.1654
G01 X133.8996 Y-99.1871
G01 X133.9216 Y-99.2067
G01 X133.9413 Y-99.2213
G01 X133.9664 Y-99.2366
G01 X133.9930 Y-99.2494
G01 X134.0253 Y-99.2610
G01 X134.0533 Y-99.2678
G01 X134.0782 Y-99.2715
G01 X134.1075 Y-99.2732
G01 X135.0100 Y-99.2733
G01 X135.0370 Y-99.2720
G01 X135.0661 Y-99.2679
G01 X135.0947 Y-99.2610
G01 X135.1225 Y-99.2513
G01 X135.1536 Y-99.2366
G01 X135.1783 Y-99.2215
G01 X135.1984 Y-99.2067
G01 X135.2204 Y-99.1871
G01 X135.2403 Y-99.1654
G01 X135.2608 Y-99.1379
G01 X135.2734 Y-99.1168
G01 X135.2862 Y-99.0903
G01 X135.2977 Y-99.0580
G01 X135.3046 Y-99.0300
G01 X135.3087 Y-99.0002
G01 X135.3100 Y-98.9733
G01 X135.3100 Y-98.4483
G01 X135.3083 Y-98.4164
G01 X135.3037 Y-98.3873
G01 X135.2977 Y-98.3636
G01 X135.2880 Y-98.3358
G01 X135.2757 Y-98.3090
G01 X135.2608 Y-98.2837
G01 X135.2434 Y-98.2599
G01 X135.2204 Y-98.2344
G01 X135.1984 Y-98.2149
G01 X135.1746 Y-98.1975
G01 X135.1536 Y-98.1849
G01 X135.1270 Y-98.1721
G01 X135.0994 Y-98.1620
G01 X135.0709 Y-98.1546
G01 X135.0418 Y-98.1500
G01 X135.0125 Y-98.1483
G01 X134.2097 Y-98.1483
G01 X134.0136 Y-97.9522
G01 X134.0045 Y-97.9439
G01 X133.9888 Y-97.9322
G01 X133.9804 Y-97.9271
G01 X133.9672 Y-97.9206
G01 X133.9487 Y-97.9140
G01 X133.9350 Y-97.9108
G01 X133.9198 Y-97.9088
G01 X133.9075 Y-97.9082
G01 X131.8050 Y-97.9082
G01 X131.8050 Y-97.5583
G01 X131.8037 Y-97.5313
G01 X131.7997 Y-97.5022
G01 X131.7927 Y-97.4736
G01 X131.7812 Y-97.4412
G01 X131.7707 Y-97.4190
G01 X131.7558 Y-97.3937
G01 X131.7384 Y-97.3699
G01 X131.7154 Y-97.3444
G01 X131.6934 Y-97.3249
G01 X131.6737 Y-97.3102
G01 X131.6442 Y-97.2926
G01 X131.6220 Y-97.2821
G01 X131.5944 Y-97.2720
G01 X131.5617 Y-97.2637
G01 X131.5320 Y-97.2595
G01 X131.5050 Y-97.2583
G01 X130.0050 Y-97.2583
G01 X129.9780 Y-97.2595
G01 X129.9489 Y-97.2636
G01 X129.9156 Y-97.2720
G01 X129.8880 Y-97.2821
G01 X129.8658 Y-97.2926
G01 X129.8404 Y-97.3075
G01 X129.8166 Y-97.3249
G01 X129.7912 Y-97.3479
G01 X129.7716 Y-97.3699
G01 X129.7570 Y-97.3896
G01 X129.7416 Y-97.4147
G01 X129.7288 Y-97.4412
G01 X129.7187 Y-97.4689
G01 X129.7104 Y-97.5016
G01 X129.7067 Y-97.5264
G01 X129.7051 Y-97.5558
G01 X129.7050 Y-97.9082
G01 X117.5050 Y-97.9082
G01 X117.5050 Y-97.5583
G01 X117.5037 Y-97.5313
G01 X117.4997 Y-97.5022
G01 X117.4927 Y-97.4736
G01 X117.4812 Y-97.4412
G01 X117.4707 Y-97.4190
G01 X117.4558 Y-97.3937
G01 X117.4353 Y-97.3661
G01 X117.4154 Y-97.3444
G01 X117.3972 Y-97.3280
G01 X117.3696 Y-97.3075
G01 X117.3486 Y-97.2949
G01 X117.3220 Y-97.2821
G01 X117.2897 Y-97.2705
G01 X117.2617 Y-97.2637
G01 X117.2368 Y-97.2600
G01 X117.2050 Y-97.2583
G01 X115.7050 Y-97.2583
G01 X115.6780 Y-97.2595
G01 X115.6489 Y-97.2636
G01 X115.6203 Y-97.2705
G01 X115.5925 Y-97.2802
G01 X115.5614 Y-97.2949
G01 X115.5367 Y-97.3100
G01 X115.5166 Y-97.3249
G01 X115.4946 Y-97.3444
G01 X115.4747 Y-97.3661
G01 X115.4570 Y-97.3896
G01 X115.4416 Y-97.4147
G01 X115.4270 Y-97.4458
G01 X115.4173 Y-97.4736
G01 X115.4104 Y-97.5016
G01 X115.4063 Y-97.5313
G01 X115.4050 Y-97.5583
G00 Z2.0000
G00 X107.1000 Y-107.9975
G01 F60.00
G01 Z-0.1500
G01 F150.00
G01 X107.1237 Y-108.4803
G01 X107.1943 Y-108.9559
G01 X107.3111 Y-109.4224
G01 X107.4731 Y-109.8751
G01 X107.6787 Y-110.3098
G01 X107.9259 Y-110.7222
G01 X108.2124 Y-111.1084
G01 X108.5353 Y-111.4647
G01 X108.8916 Y-111.7876
G01 X109.2778 Y-112.0741
G01 X109.6902 Y-112.3213
G01 X110.1249 Y-112.5269
G01 X110.5776 Y-112.6889
G01 X111.0441 Y-112.8057
G01 X111.5197 Y-112.8763
G01 X112.0025 Y-112.9000
G01 X186.9975 Y-112.9000
G01 X187.4803 Y-112.8763
G01 X187.9559 Y-112.8057
G01 X188.4224 Y-112.6889
G01 X188.8751 Y-112.5269
G01 X189.3098 Y-112.3213
G01 X189.7222 Y-112.0741
G01 X190.1084 Y-111.7876
G01 X190.4647 Y-111.4647
G01 X190.7876 Y-111.1084
G01 X191.0741 Y-110.7222
G01 X191.3213 Y-110.3098
G01 X191.5269 Y-109.8751
G01 X191.6889 Y-109.4224
G01 X191.8057 Y-108.9559
G01 X191.8763 Y-108.4803
G01 X191.9000 Y-107.9975
G01 X191.9000 Y-63.0025
G01 X191.8763 Y-62.5197
G01 X191.8057 Y-62.0441
G01 X191.6889 Y-61.5776
G01 X191.5269 Y-61.1249
G01 X191.3213 Y-60.6902
G01 X191.0741 Y-60.2778
G01 X190.7876 Y-59.8916
G01 X190.4647 Y-59.5353
G01 X190.1084 Y-59.2124
G01 X189.7222 Y-58.9259
G01 X189.3098 Y-58.6787
G01 X188.8751 Y-58.4731
G01 X188.4224 Y-58.3111
G01 X187.9559 Y-58.1943
G01 X187.4803 Y-58.1237
G01 X186.9975 Y-58.1000
G01 X112.0025 Y-58.1000
G01 X111.5197 Y-58.1237
G01 X111.0441 Y-58.1943
G01 X110.5776 Y-58.3111
G01 X110.1249 Y-58.4731
G01 X109.6902 Y-58.6787
G01 X109.2778 Y-58.9259
G01 X108.8916 Y-59.2124
G01 X108.5353 Y-59.5353
G01 X108.2124 Y-59.8916
G01 X107.9259 Y-60.2778
G01 X107.6787 Y-60.6902
G01 X107.4731 Y-61.1249
G01 X107.3111 Y-61.5776
G01 X107.1943 Y-62.0441
G01 X107.1237 Y-62.5197
G01 X107.1000 Y-63.0025
G01 X107.1000 Y-107.9975
G00 Z2.0000
G00 X126.4948 Y-109.5142
G01 F60.00
G01 Z-0.1500
G01 F150.00
G01 X126.4940 Y-109.5253
G01 X126.4942 Y-109.5338
G01 X126.4963 Y-109.5508
G01 X126.4979 Y-109.5580
G01 X126.5014 Y-109.5698
G01 X126.5084 Y-109.5855
G01 X126.5145 Y-109.5959
G01 X126.5188 Y-109.6021
G01 X126.5300 Y-109.6151
G01 X126.5353 Y-109.6202
G01 X126.5448 Y-109.6280
G01 X126.5550 Y-109.6347
G01 X126.5659 Y-109.6405
G01 X126.5819 Y-109.6467
G01 X126.5931 Y-109.6497
G01 X126.6058 Y-109.6517
G01 X126.6170 Y-109.6524
G01 X126.6255 Y-109.6522
G01 X126.6425 Y-109.6502
G01 X126.6497 Y-109.6486
G01 X126.6614 Y-109.6450
G01 X126.6727 Y-109.6403
G01 X126.6835 Y-109.6345
G01 X126.6976 Y-109.6246
G01 X126.7062 Y-109.6170
G01 X126.7119 Y-109.6111
G01 X126.7196 Y-109.6016
G01 X126.7264 Y-109.5914
G01 X126.7322 Y-109.5806
G01 X126.7377 Y-109.5669
G01 X126.8996 Y-109.0810
G01 X127.6718 Y-109.0810
G01 X127.8338 Y-109.5669
G01 X127.8373 Y-109.5761
G01 X127.8426 Y-109.5871
G01 X127.8490 Y-109.5976
G01 X127.8564 Y-109.6074
G01 X127.8682 Y-109.6198
G01 X127.8738 Y-109.6246
G01 X127.8837 Y-109.6318
G01 X127.8943 Y-109.6381
G01 X127.9100 Y-109.6450
G01 X127.9213 Y-109.6485
G01 X127.9289 Y-109.6502
G01 X127.9411 Y-109.6519
G01 X127.9544 Y-109.6524
G01 X127.9704 Y-109.6511
G01 X127.9825 Y-109.6487
G01 X127.9896 Y-109.6467
G01 X128.0011 Y-109.6425
G01 X128.0160 Y-109.6350
G01 X128.0266 Y-109.6280
G01 X128.0361 Y-109.6202
G01 X128.0414 Y-109.6151
G01 X128.0496 Y-109.6059
G01 X128.0595 Y-109.5919
G01 X128.0631 Y-109.5855
G01 X128.0682 Y-109.5743
G01 X128.0723 Y-109.5628
G01 X128.0752 Y-109.5508
G01 X128.0772 Y-109.5338
G01 X128.0772 Y-109.5215
G01 X128.0761 Y-109.5093
G01 X128.0737 Y-109.4973
G01 X128.0710 Y-109.4878
G01 X127.4043 Y-107.4878
G01 X127.3988 Y-107.4742
G01 X127.3933 Y-107.4638
G01 X127.3859 Y-107.4527
G01 X127.3817 Y-107.4474
G01 X127.3754 Y-107.4402
G01 X127.3657 Y-107.4314
G01 X127.3559 Y-107.4240
G01 X127.3455 Y-107.4176
G01 X127.3327 Y-107.4115
G01 X127.3211 Y-107.4075
G01 X127.3092 Y-107.4046
G01 X127.2970 Y-107.4029
G01 X127.2837 Y-107.4024
G01 X127.2725 Y-107.4031
G01 X127.2604 Y-107.4050
G01 X127.2485 Y-107.4080
G01 X127.2370 Y-107.4123
G01 X127.2259 Y-107.4176
G01 X127.2155 Y-107.4240
G01 X127.2057 Y-107.4314
G01 X127.1967 Y-107.4397
G01 X127.1885 Y-107.4488
G01 X127.1813 Y-107.4587
G01 X127.1750 Y-107.4693
G01 X127.1699 Y-107.4804
G01 X127.1671 Y-107.4878
G01 X126.5004 Y-109.4878
G01 X126.4967 Y-109.5014
G01 X126.4948 Y-109.5142
G00 Z2.0000
G00 X127.2857 Y-107.9228
G01 F60.00
G01 Z-0.1500
G01 F150.00
G01 X126.9830 Y-108.8309
G01 X127.5884 Y-108.8309
G01 X127.2857 Y-107.9228
G00 Z2.0000
G00 X128.3988 Y-108.5750
G01 F60.00
G01 Z-0.1500
G01 F150.00
G01 X128.3988 Y-109.1464
G01 X128.3997 Y-109.1611
G01 X128.4008 Y-109.1684
G01 X128.4026 Y-109.1771
G01 X128.4062 Y-109.1888
G01 X128.4120 Y-109.2023
G01 X128.5072 Y-109.3928
G01 X128.5145 Y-109.4054
G01 X128.5218 Y-109.4155
G01 X128.5306 Y-109.4253
G01 X128.6301 Y-109.5246
G01 X128.6369 Y-109.5303
G01 X128.6428 Y-109.5347
G01 X128.6498 Y-109.5392
G01 X128.6584 Y-109.5440
G01 X128.8488 Y-109.6392
G01 X128.8592 Y-109.6438
G01 X128.8708 Y-109.6477
G01 X128.8822 Y-109.6503
G01 X128.8935 Y-109.6519
G01 X128.9048 Y-109.6524
G01 X129.2857 Y-109.6524
G01 X129.2955 Y-109.6520
G01 X129.3043 Y-109.6510
G01 X129.3125 Y-109.6495
G01 X129.3211 Y-109.6473
G01 X129.3313 Y-109.6438
G01 X129.3416 Y-109.6392
G01 X129.3881 Y-109.6160
G01 X129.3988 Y-109.6255
G01 X129.4088 Y-109.6327
G01 X129.4194 Y-109.6388
G01 X129.4306 Y-109.6438
G01 X129.4376 Y-109.6463
G01 X129.4494 Y-109.6495
G01 X129.4615 Y-109.6515
G01 X129.4737 Y-109.6524
G01 X129.4860 Y-109.6520
G01 X129.5030 Y-109.6495
G01 X129.5148 Y-109.6463
G01 X129.5263 Y-109.6419
G01 X129.5373 Y-109.6364
G01 X129.5473 Y-109.6302
G01 X129.5536 Y-109.6255
G01 X129.5628 Y-109.6175
G01 X129.5712 Y-109.6086
G01 X129.5787 Y-109.5989
G01 X129.5853 Y-109.5885
G01 X129.5907 Y-109.5775
G01 X129.5951 Y-109.5660
G01 X129.5983 Y-109.5542
G01 X129.6003 Y-109.5421
G01 X129.6012 Y-109.5274
G01 X129.6012 Y-107.5274
G01 X129.6008 Y-107.5176
G01 X129.5992 Y-107.5054
G01 X129.5965 Y-107.4935
G01 X129.5926 Y-107.4818
G01 X129.5876 Y-107.4706
G01 X129.5815 Y-107.4600
G01 X129.5744 Y-107.4500
G01 X129.5663 Y-107.4407
G01 X129.5536 Y-107.4292
G01 X129.5436 Y-107.4221
G01 X129.5373 Y-107.4183
G01 X129.5263 Y-107.4129
G01 X129.5101 Y-107.4071
G01 X129.4988 Y-107.4044
G01 X129.4909 Y-107.4032
G01 X129.4786 Y-107.4024
G01 X129.4615 Y-107.4032
G01 X129.4494 Y-107.4053
G01 X129.4423 Y-107.4071
G01 X129.4306 Y-107.4110
G01 X129.4151 Y-107.4183
G01 X129.4047 Y-107.4248
G01 X129.3988 Y-107.4292
G01 X129.3895 Y-107.4373
G01 X129.3780 Y-107.4500
G01 X129.3709 Y-107.4600
G01 X129.3671 Y-107.4663
G01 X129.3617 Y-107.4773
G01 X129.3573 Y-107.4888
G01 X129.3532 Y-107.5048
G01 X129.3516 Y-107.5176
G01 X129.3511 Y-107.5274
G01 X129.3511 Y-108.0870
G01 X129.3358 Y-108.0795
G01 X129.3211 Y-108.0742
G01 X129.3053 Y-108.0706
G01 X129.2921 Y-108.0692
G01 X128.9048 Y-108.0690
G01 X128.8901 Y-108.0699
G01 X128.8813 Y-108.0713
G01 X128.8708 Y-108.0737
G01 X128.8592 Y-108.0776
G01 X128.8511 Y-108.0812
G01 X128.6584 Y-108.1774
G01 X128.6498 Y-108.1822
G01 X128.6431 Y-108.1865
G01 X128.6357 Y-108.1921
G01 X128.6271 Y-108.1996
G01 X128.5306 Y-108.2961
G01 X128.5218 Y-108.3060
G01 X128.5146 Y-108.3159
G01 X128.5072 Y-108.3286
G01 X128.4093 Y-108.5249
G01 X128.4049 Y-108.5364
G01 X128.4017 Y-108.5482
G01 X128.3997 Y-108.5603
G01 X128.3988 Y-108.5750
G00 Z2.0000
G00 X128.6488 Y-109.1169
G01 F60.00
G01 Z-0.1500
G01 F150.00
G01 X128.7218 Y-109.2628
G01 X128.7883 Y-109.3294
G01 X128.9343 Y-109.4023
G01 X129.2562 Y-109.4023
G01 X129.3511 Y-109.3549
G01 X129.3511 Y-108.3666
G01 X129.2562 Y-108.3191
G01 X128.9343 Y-108.3191
G01 X128.7883 Y-108.3920
G01 X128.7218 Y-108.4586
G01 X128.6488 Y-108.6045
G01 X128.6488 Y-109.1169
G00 Z2.0000
G00 X130.2083 Y-108.5750
G01 F60.00
G01 Z-0.1500
G01 F150.00
G01 X130.2083 Y-109.1464
G01 X130.2092 Y-109.1611
G01 X130.2103 Y-109.1684
G01 X130.2121 Y-109.1771
G01 X130.2157 Y-109.1888
G01 X130.2215 Y-109.2023
G01 X130.3167 Y-109.3928
G01 X130.3240 Y-109.4054
G01 X130.3313 Y-109.4155
G01 X130.3402 Y-109.4253
G01 X130.4397 Y-109.5246
G01 X130.4464 Y-109.5303
G01 X130.4523 Y-109.5347
G01 X130.4593 Y-109.5392
G01 X130.4679 Y-109.5440
G01 X130.6584 Y-109.6392
G01 X130.6687 Y-109.6438
G01 X130.6804 Y-109.6477
G01 X130.6917 Y-109.6503
G01 X130.7030 Y-109.6519
G01 X130.7143 Y-109.6524
G01 X131.0952 Y-109.6524
G01 X131.1050 Y-109.6520
G01 X131.1139 Y-109.6510
G01 X131.1220 Y-109.6495
G01 X131.1306 Y-109.6473
G01 X131.1408 Y-109.6438
G01 X131.1512 Y-109.6392
G01 X131.1976 Y-109.6160
G01 X131.2083 Y-109.6255
G01 X131.2183 Y-109.6327
G01 X131.2290 Y-109.6388
G01 X131.2402 Y-109.6438
G01 X131.2471 Y-109.6463
G01 X131.2589 Y-109.6495
G01 X131.2710 Y-109.6515
G01 X131.2833 Y-109.6524
G01 X131.2955 Y-109.6520
G01 X131.3125 Y-109.6495
G01 X131.3243 Y-109.6463
G01 X131.3358 Y-109.6419
G01 X131.3468 Y-109.6364
G01 X131.3569 Y-109.6302
G01 X131.3631 Y-109.6255
G01 X131.3723 Y-109.6175
G01 X131.3808 Y-109.6086
G01 X131.3883 Y-109.5989
G01 X131.3948 Y-109.5885
G01 X131.4002 Y-109.5775
G01 X131.4046 Y-109.5660
G01 X131.4078 Y-109.5542
G01 X131.4098 Y-109.5421
G01 X131.4107 Y-109.5274
G01 X131.4107 Y-107.5274
G01 X131.4103 Y-107.5176
G01 X131.4088 Y-107.5054
G01 X131.4060 Y-107.4935
G01 X131.4021 Y-107.4818
G01 X131.3971 Y-107.4706
G01 X131.3910 Y-107.4600
G01 X131.3839 Y-107.4500
G01 X131.3758 Y-107.4407
G01 X131.3631 Y-107.4292
G01 X131.3531 Y-107.4221
G01 X131.3468 Y-107.4183
G01 X131.3358 Y-107.4129
G01 X131.3196 Y-107.4071
G01 X131.3083 Y-107.4044
G01 X131.3004 Y-107.4032
G01 X131.2882 Y-107.4024
G01 X131.2710 Y-107.4032
G01 X131.2589 Y-107.4053
G01 X131.2518 Y-107.4071
G01 X131.2402 Y-107.4110
G01 X131.2246 Y-107.4183
G01 X131.2142 Y-107.4248
G01 X131.2083 Y-107.4292
G01 X131.1991 Y-107.4373
G01 X131.1875 Y-107.4500
G01 X131.1804 Y-107.4600
G01 X131.1766 Y-107.4663
G01 X131.1712 Y-107.4773
G01 X131.1668 Y-107.4888
G01 X131.1628 Y-107.5048
G01 X131.1611 Y-107.5176
G01 X131.1607 Y-107.5274
G01 X131.1607 Y-108.0870
G01 X131.1453 Y-108.0795
G01 X131.1306 Y-108.0742
G01 X131.1148 Y-108.0706
G01 X131.1016 Y-108.0692
G01 X130.7143 Y-108.0690
G01 X130.6996 Y-108.0699
G01 X130.6908 Y-108.0713
G01 X130.6804 Y-108.0737
G01 X130.6687 Y-108.0776
G01 X130.6606 Y-108.0812
G01 X130.4679 Y-108.1774
G01 X130.4593 Y-108.1822
G01 X130.4527 Y-108.1865
G01 X130.4452 Y-108.1921
G01 X130.4367 Y-108.1996
G01 X130.3402 Y-108.2961
G01 X130.3313 Y-108.3060
G01 X130.3241 Y-108.3159
G01 X130.3167 Y-108.3286
G01 X130.2188 Y-108.5249
G01 X130.2144 Y-108.5364
G01 X130.2112 Y-108.5482
G01 X130.2092 Y-108.5603
G01 X130.2083 Y-108.5750
G00 Z2.0000
G00 X130.4584 Y-109.1169
G01 F60.00
G01 Z-0.1500
G01 F150.00
G01 X130.5313 Y-109.2628
G01 X130.5979 Y-109.3294
G01 X130.7438 Y-109.4023
G01 X131.0657 Y-109.4023
G01 X131.1607 Y-109.3549
G01 X131.1607 Y-108.3666
G01 X131.0657 Y-108.3191
G01 X130.7438 Y-108.3191
G01 X130.5979 Y-108.3920
G01 X130.5313 Y-108.4586
G01 X130.4584 Y-108.6045
G01 X130.4584 Y-109.1169
G00 Z2.0000
G00 X132.1131 Y-108.1940
G01 F60.00
G01 Z-0.1500
G01 F150.00
G01 X132.1131 Y-109.5274
G01 X132.1135 Y-109.5372
G01 X132.1150 Y-109.5494
G01 X132.1178 Y-109.5613
G01 X132.1217 Y-109.5729
G01 X132.1267 Y-109.5841
G01 X132.1328 Y-109.5948
G01 X132.1399 Y-109.6048
G01 X132.1480 Y-109.6140
G01 X132.1569 Y-109.6224
G01 X132.1666 Y-109.6299
G01 X132.1770 Y-109.6364
G01 X132.1880 Y-109.6419
G01 X132.1995 Y-109.6463
G01 X132.2113 Y-109.6495
G01 X132.2234 Y-109.6515
G01 X132.2356 Y-109.6524
G01 X132.2479 Y-109.6520
G01 X132.2649 Y-109.6495
G01 X132.2767 Y-109.6463
G01 X132.2882 Y-109.6419
G01 X132.2992 Y-109.6364
G01 X132.3092 Y-109.6302
G01 X132.3155 Y-109.6255
G01 X132.3247 Y-109.6175
G01 X132.3331 Y-109.6086
G01 X132.3406 Y-109.5989
G01 X132.3495 Y-109.5841
G01 X132.3526 Y-109.5775
G01 X132.3570 Y-109.5660
G01 X132.3602 Y-109.5542
G01 X132.3622 Y-109.5421
G01 X132.3631 Y-109.5274
G01 X132.3631 Y-108.6045
G01 X132.4361 Y-108.4586
G01 X132.5026 Y-108.3920
G01 X132.6486 Y-108.3191
G01 X132.8095 Y-108.3191
G01 X132.8193 Y-108.3187
G01 X132.8315 Y-108.3171
G01 X132.8435 Y-108.3144
G01 X132.8551 Y-108.3105
G01 X132.8663 Y-108.3054
G01 X132.8807 Y-108.2968
G01 X132.8869 Y-108.2922
G01 X132.8962 Y-108.2842
G01 X132.9077 Y-108.2714
G01 X132.9121 Y-108.2655
G01 X132.9186 Y-108.2551
G01 X132.9259 Y-108.2396
G01 X132.9284 Y-108.2327
G01 X132.9316 Y-108.2208
G01 X132.9341 Y-108.2039
G01 X132.9345 Y-108.1916
G01 X132.9341 Y-108.1842
G01 X132.9316 Y-108.1673
G01 X132.9284 Y-108.1554
G01 X132.9240 Y-108.1440
G01 X132.9209 Y-108.1373
G01 X132.9148 Y-108.1267
G01 X132.9046 Y-108.1129
G01 X132.8962 Y-108.1039
G01 X132.8869 Y-108.0959
G01 X132.8810 Y-108.0915
G01 X132.8706 Y-108.0850
G01 X132.8551 Y-108.0776
G01 X132.8435 Y-108.0737
G01 X132.8321 Y-108.0711
G01 X132.8193 Y-108.0694
G01 X132.8095 Y-108.0690
G01 X132.6190 Y-108.0690
G01 X132.6044 Y-108.0699
G01 X132.5971 Y-108.0710
G01 X132.5884 Y-108.0729
G01 X132.5767 Y-108.0764
G01 X132.5631 Y-108.0822
G01 X132.3726 Y-108.1774
G01 X132.3626 Y-108.1831
G01 X132.3611 Y-108.1721
G01 X132.3584 Y-108.1601
G01 X132.3545 Y-108.1485
G01 X132.3495 Y-108.1373
G01 X132.3434 Y-108.1267
G01 X132.3363 Y-108.1167
G01 X132.3282 Y-108.1074
G01 X132.3193 Y-108.0990
G01 X132.3055 Y-108.0888
G01 X132.2948 Y-108.0827
G01 X132.2837 Y-108.0776
G01 X132.2720 Y-108.0737
G01 X132.2607 Y-108.0711
G01 X132.2479 Y-108.0694
G01 X132.2356 Y-108.0691
G01 X132.2234 Y-108.0699
G01 X132.2113 Y-108.0720
G01 X132.1995 Y-108.0752
G01 X132.1880 Y-108.0795
G01 X132.1770 Y-108.0850
G01 X132.1670 Y-108.0913
G01 X132.1569 Y-108.0990
G01 X132.1480 Y-108.1074
G01 X132.1399 Y-108.1167
G01 X132.1328 Y-108.1267
G01 X132.1267 Y-108.1373
G01 X132.1217 Y-108.1485
G01 X132.1178 Y-108.1601
G01 X132.1151 Y-108.1715
G01 X132.1135 Y-108.1842
G01 X132.1131 Y-108.1940
G00 Z2.0000
G00 X133.2559 Y-108.4798
G01 F60.00
G01 Z-0.1500
G01 F150.00
G01 X133.2559 Y-109.2417
G01 X133.2568 Y-109.2564
G01 X133.2589 Y-109.2685
G01 X133.2611 Y-109.2770
G01 X133.2645 Y-109.2872
G01 X133.2691 Y-109.2976
G01 X133.3655 Y-109.4902
G01 X133.3716 Y-109.5006
G01 X133.3760 Y-109.5068
G01 X133.3834 Y-109.5159
G01 X133.3885 Y-109.5212
G01 X133.3962 Y-109.5282
G01 X133.4019 Y-109.5327
G01 X133.4117 Y-109.5392
G01 X133.4203 Y-109.5440
G01 X133.6107 Y-109.6392
G01 X133.6243 Y-109.6450
G01 X133.6356 Y-109.6485
G01 X133.6441 Y-109.6503
G01 X133.6520 Y-109.6515
G01 X133.6667 Y-109.6524
G01 X134.0476 Y-109.6524
G01 X134.0589 Y-109.6519
G01 X134.0711 Y-109.6502
G01 X134.0862 Y-109.6463
G01 X134.0946 Y-109.6432
G01 X134.1035 Y-109.6392
G01 X134.2940 Y-109.5440
G01 X134.3026 Y-109.5392
G01 X134.3128 Y-109.5324
G01 X134.3252 Y-109.5218
G01 X134.3341 Y-109.5122
G01 X134.3387 Y-109.5064
G01 X134.3455 Y-109.4962
G01 X134.3512 Y-109.4853
G01 X134.3574 Y-109.4693
G01 X134.3604 Y-109.4581
G01 X134.3618 Y-109.4502
G01 X134.3631 Y-109.4342
G01 X134.3626 Y-109.4208
G01 X134.3617 Y-109.4135
G01 X134.3593 Y-109.4015
G01 X134.3557 Y-109.3898
G01 X134.3488 Y-109.3741
G01 X134.3427 Y-109.3637
G01 X134.3383 Y-109.3575
G01 X134.3277 Y-109.3450
G01 X134.3181 Y-109.3361
G01 X134.3123 Y-109.3316
G01 X134.3021 Y-109.3248
G01 X134.2868 Y-109.3170
G01 X134.2799 Y-109.3144
G01 X134.2682 Y-109.3108
G01 X134.2513 Y-109.3078
G01 X134.2401 Y-109.3071
G01 X134.2317 Y-109.3073
G01 X134.2146 Y-109.3094
G01 X134.2074 Y-109.3110
G01 X134.1957 Y-109.3145
G01 X134.1822 Y-109.3203
G01 X134.0181 Y-109.4023
G01 X133.6962 Y-109.4023
G01 X133.5694 Y-109.3389
G01 X133.5060 Y-109.2121
G01 X133.5060 Y-108.9632
G01 X134.3579 Y-108.7928
G01 X134.3697 Y-108.7899
G01 X134.3789 Y-108.7866
G01 X134.3923 Y-108.7805
G01 X134.4049 Y-108.7727
G01 X134.4127 Y-108.7669
G01 X134.4200 Y-108.7603
G01 X134.4300 Y-108.7495
G01 X134.4359 Y-108.7417
G01 X134.4448 Y-108.7269
G01 X134.4489 Y-108.7180
G01 X134.4530 Y-108.7064
G01 X134.4560 Y-108.6946
G01 X134.4578 Y-108.6825
G01 X134.4584 Y-108.6702
G01 X134.4584 Y-108.4798
G01 X134.4578 Y-108.4685
G01 X134.4564 Y-108.4578
G01 X134.4545 Y-108.4491
G01 X134.4522 Y-108.4411
G01 X134.4492 Y-108.4328
G01 X134.4452 Y-108.4238
G01 X134.3499 Y-108.2334
G01 X134.3452 Y-108.2248
G01 X134.3387 Y-108.2150
G01 X134.3341 Y-108.2093
G01 X134.3258 Y-108.2002
G01 X134.3181 Y-108.1933
G01 X134.3123 Y-108.1887
G01 X134.3026 Y-108.1822
G01 X134.2940 Y-108.1774
G01 X134.1035 Y-108.0822
G01 X134.0946 Y-108.0782
G01 X134.0862 Y-108.0752
G01 X134.0786 Y-108.0729
G01 X134.0702 Y-108.0711
G01 X134.0589 Y-108.0696
G01 X134.0476 Y-108.0690
G01 X133.6667 Y-108.0690
G01 X133.6520 Y-108.0699
G01 X133.6447 Y-108.0710
G01 X133.6360 Y-108.0729
G01 X133.6243 Y-108.0764
G01 X133.6107 Y-108.0822
G01 X133.4203 Y-108.1774
G01 X133.4117 Y-108.1822
G01 X133.4015 Y-108.1891
G01 X133.3924 Y-108.1965
G01 X133.3838 Y-108.2051
G01 X133.3790 Y-108.2107
G01 X133.3728 Y-108.2191
G01 X133.3688 Y-108.2253
G01 X133.3643 Y-108.2334
G01 X133.2681 Y-108.4261
G01 X133.2633 Y-108.4374
G01 X133.2606 Y-108.4458
G01 X133.2589 Y-108.4530
G01 X133.2568 Y-108.4651
G01 X133.2559 Y-108.4798
G00 Z2.0000
G00 X133.5060 Y-108.7082
G01 F60.00
G01 Z-0.1500
G01 F150.00
G01 X134.2083 Y-108.5677
G01 X134.2083 Y-108.5093
G01 X134.1449 Y-108.3825
G01 X134.0181 Y-108.3191
G01 X133.6962 Y-108.3191
G01 X133.5694 Y-108.3825
G01 X133.5060 Y-108.5093
G01 X133.5060 Y-108.7082
G00 Z2.0000
G00 X134.9702 Y-108.4798
G01 F60.00
G01 Z-0.1500
G01 F150.00
G01 X134.9704 Y-108.5814
G01 X134.9711 Y-108.5897
G01 X134.9725 Y-108.5985
G01 X134.9749 Y-108.6089
G01 X134.9776 Y-108.6174
G01 X134.9834 Y-108.6309
G01 X135.0807 Y-108.8252
G01 X135.0871 Y-108.8357
G01 X135.0945 Y-108.8455
G01 X135.1028 Y-108.8545
G01 X135.1119 Y-108.8627
G01 X135.1218 Y-108.8699
G01 X135.1346 Y-108.8773
G01 X135.3250 Y-108.9726
G01 X135.3386 Y-108.9783
G01 X135.3470 Y-108.9810
G01 X135.3542 Y-108.9828
G01 X135.3663 Y-108.9849
G01 X135.3809 Y-108.9858
G01 X135.6371 Y-108.9858
G01 X135.7639 Y-109.0492
G01 X135.8273 Y-109.1759
G01 X135.8273 Y-109.2121
G01 X135.7639 Y-109.3389
G01 X135.6371 Y-109.4023
G01 X135.3152 Y-109.4023
G01 X135.1512 Y-109.3203
G01 X135.1422 Y-109.3163
G01 X135.1306 Y-109.3123
G01 X135.1139 Y-109.3085
G01 X135.1016 Y-109.3073
G01 X135.0894 Y-109.3073
G01 X135.0772 Y-109.3085
G01 X135.0651 Y-109.3108
G01 X135.0580 Y-109.3128
G01 X135.0465 Y-109.3170
G01 X135.0316 Y-109.3245
G01 X135.0210 Y-109.3316
G01 X135.0115 Y-109.3393
G01 X135.0062 Y-109.3444
G01 X134.9980 Y-109.3536
G01 X134.9908 Y-109.3635
G01 X134.9824 Y-109.3784
G01 X134.9776 Y-109.3898
G01 X134.9741 Y-109.4011
G01 X134.9725 Y-109.4087
G01 X134.9707 Y-109.4208
G01 X134.9704 Y-109.4380
G01 X134.9709 Y-109.4453
G01 X134.9728 Y-109.4575
G01 X134.9759 Y-109.4693
G01 X134.9801 Y-109.4809
G01 X134.9876 Y-109.4957
G01 X134.9947 Y-109.5064
G01 X135.0024 Y-109.5159
G01 X135.0075 Y-109.5212
G01 X135.0167 Y-109.5294
G01 X135.0266 Y-109.5366
G01 X135.0371 Y-109.5428
G01 X135.2298 Y-109.6392
G01 X135.2433 Y-109.6450
G01 X135.2547 Y-109.6485
G01 X135.2631 Y-109.6503
G01 X135.2710 Y-109.6515
G01 X135.2857 Y-109.6524
G01 X135.6667 Y-109.6524
G01 X135.6780 Y-109.6519
G01 X135.6901 Y-109.6502
G01 X135.7053 Y-109.6463
G01 X135.7136 Y-109.6432
G01 X135.7226 Y-109.6392
G01 X135.9131 Y-109.5440
G01 X135.9216 Y-109.5392
G01 X135.9314 Y-109.5327
G01 X135.9372 Y-109.5282
G01 X135.9443 Y-109.5218
G01 X135.9499 Y-109.5159
G01 X135.9574 Y-109.5068
G01 X135.9616 Y-109.5008
G01 X135.9669 Y-109.4919
G01 X136.0642 Y-109.2976
G01 X136.0700 Y-109.2840
G01 X136.0735 Y-109.2727
G01 X136.0753 Y-109.2645
G01 X136.0765 Y-109.2564
G01 X136.0774 Y-109.2417
G01 X136.0772 Y-109.1400
G01 X136.0754 Y-109.1245
G01 X136.0736 Y-109.1158
G01 X136.0713 Y-109.1078
G01 X136.0682 Y-109.0995
G01 X136.0642 Y-109.0905
G01 X135.9690 Y-108.9000
G01 X135.9642 Y-108.8915
G01 X135.9577 Y-108.8817
G01 X135.9499 Y-108.8722
G01 X135.9409 Y-108.8631
G01 X135.9357 Y-108.8587
G01 X135.9274 Y-108.8525
G01 X135.9169 Y-108.8462
G01 X135.7226 Y-108.7489
G01 X135.7136 Y-108.7449
G01 X135.7053 Y-108.7418
G01 X135.6977 Y-108.7396
G01 X135.6862 Y-108.7372
G01 X135.6765 Y-108.7361
G01 X135.6667 Y-108.7357
G01 X135.4105 Y-108.7357
G01 X135.2837 Y-108.6723
G01 X135.2203 Y-108.5455
G01 X135.2203 Y-108.5093
G01 X135.2837 Y-108.3825
G01 X135.4105 Y-108.3191
G01 X135.6371 Y-108.3191
G01 X135.8012 Y-108.4011
G01 X135.8102 Y-108.4051
G01 X135.8218 Y-108.4092
G01 X135.8337 Y-108.4121
G01 X135.8458 Y-108.4138
G01 X135.8630 Y-108.4142
G01 X135.8703 Y-108.4136
G01 X135.8825 Y-108.4117
G01 X135.8943 Y-108.4086
G01 X135.9059 Y-108.4044
G01 X135.9207 Y-108.3969
G01 X135.9314 Y-108.3899
G01 X135.9409 Y-108.3821
G01 X135.9462 Y-108.3770
G01 X135.9544 Y-108.3678
G01 X135.9616 Y-108.3579
G01 X135.9678 Y-108.3474
G01 X135.9730 Y-108.3362
G01 X135.9783 Y-108.3199
G01 X135.9806 Y-108.3088
G01 X135.9816 Y-108.3006
G01 X135.9821 Y-108.2872
G01 X135.9808 Y-108.2712
G01 X135.9785 Y-108.2592
G01 X135.9765 Y-108.2521
G01 X135.9723 Y-108.2406
G01 X135.9669 Y-108.2295
G01 X135.9605 Y-108.2191
G01 X135.9499 Y-108.2055
G01 X135.9413 Y-108.1969
G01 X135.9318 Y-108.1891
G01 X135.9216 Y-108.1822
G01 X135.9131 Y-108.1774
G01 X135.7226 Y-108.0822
G01 X135.7090 Y-108.0764
G01 X135.7006 Y-108.0737
G01 X135.6935 Y-108.0720
G01 X135.6814 Y-108.0699
G01 X135.6667 Y-108.0690
G01 X135.3809 Y-108.0690
G01 X135.3711 Y-108.0694
G01 X135.3623 Y-108.0704
G01 X135.3470 Y-108.0737
G01 X135.3354 Y-108.0776
G01 X135.3250 Y-108.0822
G01 X135.1346 Y-108.1774
G01 X135.1260 Y-108.1822
G01 X135.1158 Y-108.1891
G01 X135.1067 Y-108.1965
G01 X135.0980 Y-108.2051
G01 X135.0932 Y-108.2107
G01 X135.0871 Y-108.2191
G01 X135.0831 Y-108.2253
G01 X135.0786 Y-108.2334
G01 X134.9824 Y-108.4261
G01 X134.9776 Y-108.4374
G01 X134.9749 Y-108.4458
G01 X134.9731 Y-108.4530
G01 X134.9711 Y-108.4651
G01 X134.9702 Y-108.4798
G00 Z2.0000
G00 X136.5892 Y-108.4798
G01 F60.00
G01 Z-0.1500
G01 F150.00
G01 X136.5894 Y-108.5814
G01 X136.5901 Y-108.5897
G01 X136.5915 Y-108.5985
G01 X136.5940 Y-108.6089
G01 X136.5967 Y-108.6174
G01 X136.6024 Y-108.6309
G01 X136.6997 Y-108.8252
G01 X136.7061 Y-108.8357
G01 X136.7135 Y-108.8455
G01 X136.7218 Y-108.8545
G01 X136.7310 Y-108.8627
G01 X136.7409 Y-108.8699
G01 X136.7536 Y-108.8773
G01 X136.9441 Y-108.9726
G01 X136.9576 Y-108.9783
G01 X136.9661 Y-108.9810
G01 X136.9732 Y-108.9828
G01 X136.9853 Y-108.9849
G01 X137.0000 Y-108.9858
G01 X137.2562 Y-108.9858
G01 X137.3830 Y-109.0492
G01 X137.4464 Y-109.1759
G01 X137.4464 Y-109.2121
G01 X137.3830 Y-109.3389
G01 X137.2562 Y-109.4023
G01 X136.9343 Y-109.4023
G01 X136.7702 Y-109.3203
G01 X136.7612 Y-109.3163
G01 X136.7497 Y-109.3123
G01 X136.7329 Y-109.3085
G01 X136.7207 Y-109.3073
G01 X136.7084 Y-109.3073
G01 X136.6962 Y-109.3085
G01 X136.6842 Y-109.3108
G01 X136.6771 Y-109.3128
G01 X136.6656 Y-109.3170
G01 X136.6507 Y-109.3245
G01 X136.6400 Y-109.3316
G01 X136.6305 Y-109.3393
G01 X136.6252 Y-109.3444
G01 X136.6171 Y-109.3536
G01 X136.6098 Y-109.3635
G01 X136.6014 Y-109.3784
G01 X136.5967 Y-109.3898
G01 X136.5932 Y-109.4011
G01 X136.5915 Y-109.4087
G01 X136.5898 Y-109.4208
G01 X136.5894 Y-109.4380
G01 X136.5900 Y-109.4453
G01 X136.5919 Y-109.4575
G01 X136.5949 Y-109.4693
G01 X136.5992 Y-109.4809
G01 X136.6066 Y-109.4957
G01 X136.6137 Y-109.5064
G01 X136.6215 Y-109.5159
G01 X136.6266 Y-109.5212
G01 X136.6357 Y-109.5294
G01 X136.6456 Y-109.5366
G01 X136.6562 Y-109.5428
G01 X136.8488 Y-109.6392
G01 X136.8624 Y-109.6450
G01 X136.8737 Y-109.6485
G01 X136.8822 Y-109.6503
G01 X136.8901 Y-109.6515
G01 X136.9048 Y-109.6524
G01 X137.2857 Y-109.6524
G01 X137.2970 Y-109.6519
G01 X137.3092 Y-109.6502
G01 X137.3243 Y-109.6463
G01 X137.3327 Y-109.6432
G01 X137.3416 Y-109.6392
G01 X137.5321 Y-109.5440
G01 X137.5407 Y-109.5392
G01 X137.5504 Y-109.5327
G01 X137.5562 Y-109.5282
G01 X137.5633 Y-109.5218
G01 X137.5690 Y-109.5159
G01 X137.5764 Y-109.5068
G01 X137.5806 Y-109.5008
G01 X137.5860 Y-109.4919
G01 X137.6833 Y-109.2976
G01 X137.6890 Y-109.2840
G01 X137.6925 Y-109.2727
G01 X137.6944 Y-109.2645
G01 X137.6956 Y-109.2564
G01 X137.6965 Y-109.2417
G01 X137.6963 Y-109.1400
G01 X137.6945 Y-109.1245
G01 X137.6926 Y-109.1158
G01 X137.6903 Y-109.1078
G01 X137.6873 Y-109.0995
G01 X137.6833 Y-109.0905
G01 X137.5880 Y-108.9000
G01 X137.5833 Y-108.8915
G01 X137.5768 Y-108.8817
G01 X137.5690 Y-108.8722
G01 X137.5599 Y-108.8631
G01 X137.5548 Y-108.8587
G01 X137.5464 Y-108.8525
G01 X137.5359 Y-108.8462
G01 X137.3416 Y-108.7489
G01 X137.3327 Y-108.7449
G01 X137.3243 Y-108.7418
G01 X137.3167 Y-108.7396
G01 X137.3053 Y-108.7372
G01 X137.2955 Y-108.7361
G01 X137.2857 Y-108.7357
G01 X137.0295 Y-108.7357
G01 X136.9027 Y-108.6723
G01 X136.8393 Y-108.5455
G01 X136.8393 Y-108.5093
G01 X136.9027 Y-108.3825
G01 X137.0295 Y-108.3191
G01 X137.2562 Y-108.3191
G01 X137.4203 Y-108.4011
G01 X137.4292 Y-108.4051
G01 X137.4408 Y-108.4092
G01 X137.4527 Y-108.4121
G01 X137.4649 Y-108.4138
G01 X137.4820 Y-108.4142
G01 X137.4894 Y-108.4136
G01 X137.5015 Y-108.4117
G01 X137.5134 Y-108.4086
G01 X137.5249 Y-108.4044
G01 X137.5398 Y-108.3969
G01 X137.5504 Y-108.3899
G01 X137.5599 Y-108.3821
G01 X137.5652 Y-108.3770
G01 X137.5734 Y-108.3678
G01 X137.5806 Y-108.3579
G01 X137.5869 Y-108.3474
G01 X137.5920 Y-108.3362
G01 X137.5974 Y-108.3199
G01 X137.5997 Y-108.3088
G01 X137.6007 Y-108.3006
G01 X137.6012 Y-108.2872
G01 X137.5999 Y-108.2712
G01 X137.5975 Y-108.2592
G01 X137.5955 Y-108.2521
G01 X137.5913 Y-108.2406
G01 X137.5860 Y-108.2295
G01 X137.5796 Y-108.2191
G01 X137.5690 Y-108.2055
G01 X137.5603 Y-108.1969
G01 X137.5509 Y-108.1891
G01 X137.5407 Y-108.1822
G01 X137.5321 Y-108.1774
G01 X137.3416 Y-108.0822
G01 X137.3281 Y-108.0764
G01 X137.3196 Y-108.0737
G01 X137.3125 Y-108.0720
G01 X137.3004 Y-108.0699
G01 X137.2857 Y-108.0690
G01 X137.0000 Y-108.0690
G01 X136.9902 Y-108.0694
G01 X136.9814 Y-108.0704
G01 X136.9661 Y-108.0737
G01 X136.9544 Y-108.0776
G01 X136.9441 Y-108.0822
G01 X136.7536 Y-108.1774
G01 X136.7450 Y-108.1822
G01 X136.7348 Y-108.1891
G01 X136.7258 Y-108.1965
G01 X136.7171 Y-108.2051
G01 X136.7123 Y-108.2107
G01 X136.7061 Y-108.2191
G01 X136.7022 Y-108.2253
G01 X136.6977 Y-108.2334
G01 X136.6014 Y-108.4261
G01 X136.5967 Y-108.4374
G01 X136.5940 Y-108.4458
G01 X136.5922 Y-108.4530
G01 X136.5901 Y-108.4651
G01 X136.5892 Y-108.4798
G00 Z2.0000
G00 X138.2084 Y-108.3845
G01 F60.00
G01 Z-0.1500
G01 F150.00
G01 X138.2089 Y-108.3967
G01 X138.2107 Y-108.4089
G01 X138.2137 Y-108.4209
G01 X138.2178 Y-108.4324
G01 X138.2231 Y-108.4435
G01 X138.2293 Y-108.4539
G01 X138.2367 Y-108.4638
G01 X138.2449 Y-108.4729
G01 X138.3402 Y-108.5682
G01 X138.3492 Y-108.5764
G01 X138.3571 Y-108.5823
G01 X138.3718 Y-108.5911
G01 X138.3807 Y-108.5953
G01 X138.3923 Y-108.5994
G01 X138.4066 Y-108.6028
G01 X138.4164 Y-108.6042
G01 X138.4286 Y-108.6048
G01 X138.4409 Y-108.6042
G01 X138.4530 Y-108.6024
G01 X138.4649 Y-108.5994
G01 X138.4764 Y-108.5953
G01 X138.4875 Y-108.5900
G01 X138.4981 Y-108.5837
G01 X138.5079 Y-108.5764
G01 X138.5170 Y-108.5682
G01 X138.6122 Y-108.4729
G01 X138.6205 Y-108.4638
G01 X138.6264 Y-108.4560
G01 X138.6352 Y-108.4413
G01 X138.6393 Y-108.4324
G01 X138.6434 Y-108.4209
G01 X138.6469 Y-108.4065
G01 X138.6482 Y-108.3967
G01 X138.6488 Y-108.3845
G01 X138.6479 Y-108.3698
G01 X138.6464 Y-108.3601
G01 X138.6435 Y-108.3483
G01 X138.6393 Y-108.3366
G01 X138.6352 Y-108.3278
G01 X138.6264 Y-108.3130
G01 X138.6204 Y-108.3052
G01 X138.6123 Y-108.2962
G01 X138.5170 Y-108.2009
G01 X138.5060 Y-108.1911
G01 X138.4960 Y-108.1840
G01 X138.4853 Y-108.1779
G01 X138.4741 Y-108.1729
G01 X138.4625 Y-108.1690
G01 X138.4512 Y-108.1663
G01 X138.4384 Y-108.1647
G01 X138.4261 Y-108.1643
G01 X138.4139 Y-108.1652
G01 X138.4066 Y-108.1662
G01 X138.3899 Y-108.1704
G01 X138.3830 Y-108.1729
G01 X138.3718 Y-108.1779
G01 X138.3574 Y-108.1865
G01 X138.3474 Y-108.1942
G01 X138.3402 Y-108.2009
G01 X138.2449 Y-108.2962
G01 X138.2367 Y-108.3052
G01 X138.2294 Y-108.3150
G01 X138.2230 Y-108.3257
G01 X138.2178 Y-108.3366
G01 X138.2137 Y-108.3483
G01 X138.2107 Y-108.3601
G01 X138.2089 Y-108.3722
G01 X138.2084 Y-108.3845
G00 Z2.0000
G00 X138.2084 Y-109.4321
G01 F60.00
G01 Z-0.1500
G01 F150.00
G01 X138.2092 Y-109.4468
G01 X138.2107 Y-109.4566
G01 X138.2137 Y-109.4684
G01 X138.2178 Y-109.4800
G01 X138.2220 Y-109.4889
G01 X138.2308 Y-109.5036
G01 X138.2367 Y-109.5115
G01 X138.2449 Y-109.5205
G01 X138.3402 Y-109.6158
G01 X138.3512 Y-109.6255
G01 X138.3612 Y-109.6327
G01 X138.3718 Y-109.6388
G01 X138.3830 Y-109.6438
G01 X138.3946 Y-109.6477
G01 X138.4060 Y-109.6503
G01 X138.4188 Y-109.6520
G01 X138.4310 Y-109.6524
G01 X138.4433 Y-109.6515
G01 X138.4505 Y-109.6504
G01 X138.4672 Y-109.6463
G01 X138.4741 Y-109.6438
G01 X138.4853 Y-109.6388
G01 X138.4997 Y-109.6302
G01 X138.5098 Y-109.6224
G01 X138.5170 Y-109.6158
G01 X138.6123 Y-109.5205
G01 X138.6204 Y-109.5115
G01 X138.6277 Y-109.5017
G01 X138.6341 Y-109.4910
G01 X138.6393 Y-109.4800
G01 X138.6435 Y-109.4684
G01 X138.6464 Y-109.4566
G01 X138.6482 Y-109.4444
G01 X138.6488 Y-109.4321
G01 X138.6482 Y-109.4200
G01 X138.6469 Y-109.4102
G01 X138.6434 Y-109.3958
G01 X138.6393 Y-109.3843
G01 X138.6352 Y-109.3754
G01 X138.6264 Y-109.3607
G01 X138.6205 Y-109.3528
G01 X138.6122 Y-109.3437
G01 X138.5170 Y-109.2485
G01 X138.5079 Y-109.2403
G01 X138.4981 Y-109.2330
G01 X138.4875 Y-109.2266
G01 X138.4764 Y-109.2214
G01 X138.4649 Y-109.2173
G01 X138.4530 Y-109.2143
G01 X138.4409 Y-109.2125
G01 X138.4286 Y-109.2119
G01 X138.4164 Y-109.2125
G01 X138.4066 Y-109.2139
G01 X138.3923 Y-109.2173
G01 X138.3807 Y-109.2214
G01 X138.3718 Y-109.2255
G01 X138.3571 Y-109.2344
G01 X138.3492 Y-109.2403
G01 X138.3402 Y-109.2485
G01 X138.2449 Y-109.3437
G01 X138.2367 Y-109.3528
G01 X138.2293 Y-109.3628
G01 X138.2231 Y-109.3732
G01 X138.2178 Y-109.3843
G01 X138.2137 Y-109.3958
G01 X138.2107 Y-109.4077
G01 X138.2089 Y-109.4200
G01 X138.2084 Y-109.4321
G00 Z2.0000
G00 X140.5893 Y-109.5275
G01 F60.00
G01 Z-0.1500
G01 F150.00
G01 X140.5900 Y-109.5407
G01 X140.5918 Y-109.5527
G01 X140.5945 Y-109.5632
G01 X140.5988 Y-109.5754
G01 X140.6037 Y-109.5857
G01 X140.6110 Y-109.5979
G01 X140.6172 Y-109.6062
G01 X140.6251 Y-109.6150
G01 X140.6345 Y-109.6237
G01 X140.6455 Y-109.6318
G01 X140.6541 Y-109.6370
G01 X140.6670 Y-109.6431
G01 X140.6775 Y-109.6469
G01 X140.6907 Y-109.6502
G01 X140.7024 Y-109.6519
G01 X140.7118 Y-109.6524
G01 X141.9548 Y-109.6524
G01 X141.9671 Y-109.6515
G01 X141.9744 Y-109.6504
G01 X141.9863 Y-109.6477
G01 X141.9979 Y-109.6438
G01 X142.0135 Y-109.6364
G01 X142.0239 Y-109.6299
G01 X142.0298 Y-109.6255
G01 X142.0390 Y-109.6175
G01 X142.0505 Y-109.6048
G01 X142.0577 Y-109.5948
G01 X142.0614 Y-109.5885
G01 X142.0669 Y-109.5775
G01 X142.0713 Y-109.5660
G01 X142.0753 Y-109.5500
G01 X142.0770 Y-109.5372
G01 X142.0774 Y-109.5249
G01 X142.0770 Y-109.5176
G01 X142.0754 Y-109.5054
G01 X142.0727 Y-109.4935
G01 X142.0669 Y-109.4773
G01 X142.0638 Y-109.4706
G01 X142.0577 Y-109.4600
G01 X142.0505 Y-109.4500
G01 X142.0425 Y-109.4407
G01 X142.0298 Y-109.4292
G01 X142.0198 Y-109.4221
G01 X142.0135 Y-109.4183
G01 X142.0025 Y-109.4129
G01 X141.9910 Y-109.4085
G01 X141.9750 Y-109.4044
G01 X141.9622 Y-109.4028
G01 X141.9524 Y-109.4023
G01 X141.0162 Y-109.4023
G01 X141.9456 Y-108.4729
G01 X141.9532 Y-108.4646
G01 X141.9605 Y-108.4548
G01 X141.9669 Y-108.4443
G01 X141.9723 Y-108.4332
G01 X141.9758 Y-108.4241
G01 X142.0710 Y-108.1384
G01 X142.0737 Y-108.1289
G01 X142.0753 Y-108.1214
G01 X142.0770 Y-108.1086
G01 X142.0774 Y-108.0988
G01 X142.0774 Y-107.9083
G01 X142.0770 Y-107.8985
G01 X142.0760 Y-107.8897
G01 X142.0745 Y-107.8815
G01 X142.0713 Y-107.8697
G01 X142.0682 Y-107.8614
G01 X142.0642 Y-107.8524
G01 X141.9690 Y-107.6619
G01 X141.9617 Y-107.6494
G01 X141.9544 Y-107.6393
G01 X141.9468 Y-107.6307
G01 X141.8503 Y-107.5342
G01 X141.8393 Y-107.5245
G01 X141.8264 Y-107.5155
G01 X141.8178 Y-107.5108
G01 X141.6273 Y-107.4155
G01 X141.6184 Y-107.4115
G01 X141.6101 Y-107.4085
G01 X141.6025 Y-107.4063
G01 X141.5910 Y-107.4039
G01 X141.5812 Y-107.4028
G01 X141.5714 Y-107.4023
G01 X141.0952 Y-107.4023
G01 X141.0805 Y-107.4032
G01 X141.0684 Y-107.4053
G01 X141.0599 Y-107.4075
G01 X141.0497 Y-107.4110
G01 X141.0393 Y-107.4155
G01 X140.8488 Y-107.5108
G01 X140.8363 Y-107.5180
G01 X140.8262 Y-107.5254
G01 X140.8176 Y-107.5330
G01 X140.7211 Y-107.6294
G01 X140.7114 Y-107.6405
G01 X140.7042 Y-107.6505
G01 X140.7005 Y-107.6568
G01 X140.6950 Y-107.6678
G01 X140.6892 Y-107.6839
G01 X140.6866 Y-107.6953
G01 X140.6854 Y-107.7032
G01 X140.6845 Y-107.7154
G01 X140.6854 Y-107.7325
G01 X140.6874 Y-107.7446
G01 X140.6892 Y-107.7518
G01 X140.6931 Y-107.7634
G01 X140.7005 Y-107.7789
G01 X140.7070 Y-107.7893
G01 X140.7114 Y-107.7952
G01 X140.7194 Y-107.8045
G01 X140.7321 Y-107.8160
G01 X140.7421 Y-107.8231
G01 X140.7484 Y-107.8269
G01 X140.7594 Y-107.8324
G01 X140.7756 Y-107.8382
G01 X140.7869 Y-107.8408
G01 X140.7948 Y-107.8420
G01 X140.8071 Y-107.8428
G01 X140.8242 Y-107.8420
G01 X140.8315 Y-107.8409
G01 X140.8435 Y-107.8382
G01 X140.8596 Y-107.8324
G01 X140.8663 Y-107.8292
G01 X140.8769 Y-107.8231
G01 X140.8869 Y-107.8160
G01 X140.8979 Y-107.8063
G01 X140.9788 Y-107.7254
G01 X141.1248 Y-107.6524
G01 X141.5419 Y-107.6524
G01 X141.6878 Y-107.7254
G01 X141.7544 Y-107.7919
G01 X141.8273 Y-107.9379
G01 X141.8273 Y-108.0785
G01 X141.7479 Y-108.3170
G01 X140.6259 Y-109.4390
G01 X140.6180 Y-109.4476
G01 X140.6098 Y-109.4586
G01 X140.6047 Y-109.4672
G01 X140.5985 Y-109.4801
G01 X140.5948 Y-109.4906
G01 X140.5915 Y-109.5038
G01 X140.5898 Y-109.5155
G01 X140.5893 Y-109.5275
G00 Z2.0000
G00 X142.5893 Y-108.3815
G01 F60.00
G01 Z-0.1500
G01 F150.00
G01 X142.5892 Y-109.1464
G01 X142.5901 Y-109.1611
G01 X142.5922 Y-109.1732
G01 X142.5940 Y-109.1804
G01 X142.5967 Y-109.1888
G01 X142.6024 Y-109.2023
G01 X142.6977 Y-109.3928
G01 X142.7049 Y-109.4054
G01 X142.7123 Y-109.4155
G01 X142.7211 Y-109.4253
G01 X142.8163 Y-109.5206
G01 X142.8262 Y-109.5294
G01 X142.8374 Y-109.5374
G01 X142.8488 Y-109.5440
G01 X143.0393 Y-109.6392
G01 X143.0483 Y-109.6432
G01 X143.0566 Y-109.6463
G01 X143.0642 Y-109.6485
G01 X143.0727 Y-109.6503
G01 X143.0839 Y-109.6519
G01 X143.0952 Y-109.6524
G01 X143.4762 Y-109.6524
G01 X143.4909 Y-109.6515
G01 X143.5030 Y-109.6495
G01 X143.5116 Y-109.6473
G01 X143.5217 Y-109.6438
G01 X143.5321 Y-109.6392
G01 X143.7226 Y-109.5440
G01 X143.7351 Y-109.5367
G01 X143.7452 Y-109.5294
G01 X143.7551 Y-109.5206
G01 X143.8503 Y-109.4253
G01 X143.8591 Y-109.4155
G01 X143.8672 Y-109.4043
G01 X143.8737 Y-109.3928
G01 X143.9690 Y-109.2023
G01 X143.9730 Y-109.1934
G01 X143.9760 Y-109.1851
G01 X143.9782 Y-109.1775
G01 X143.9806 Y-109.1660
G01 X143.9818 Y-109.1562
G01 X143.9822 Y-109.1464
G01 X143.9822 Y-108.6702
G01 X143.9813 Y-108.6555
G01 X143.9792 Y-108.6435
G01 X143.9774 Y-108.6363
G01 X143.9747 Y-108.6279
G01 X143.9700 Y-108.6165
G01 X143.8737 Y-108.4238
G01 X143.8665 Y-108.4113
G01 X143.8570 Y-108.3986
G01 X143.8503 Y-108.3913
G01 X143.7551 Y-108.2961
G01 X143.7452 Y-108.2873
G01 X143.7341 Y-108.2792
G01 X143.7226 Y-108.2727
G01 X143.5321 Y-108.1774
G01 X143.5231 Y-108.1734
G01 X143.5148 Y-108.1704
G01 X143.5072 Y-108.1682
G01 X143.4958 Y-108.1658
G01 X143.4860 Y-108.1647
G01 X143.4762 Y-108.1642
G01 X143.0952 Y-108.1642
G01 X143.0854 Y-108.1647
G01 X143.0766 Y-108.1657
G01 X143.0684 Y-108.1672
G01 X143.0599 Y-108.1694
G01 X143.0497 Y-108.1729
G01 X143.0415 Y-108.1764
G01 X142.8743 Y-108.2600
G01 X142.9256 Y-108.0549
G01 X143.0972 Y-107.7975
G01 X143.1693 Y-107.7254
G01 X143.3152 Y-107.6524
G01 X143.6691 Y-107.6524
G01 X143.6814 Y-107.6515
G01 X143.6935 Y-107.6495
G01 X143.7006 Y-107.6477
G01 X143.7122 Y-107.6438
G01 X143.7234 Y-107.6388
G01 X143.7378 Y-107.6302
G01 X143.7478 Y-107.6224
G01 X143.7568 Y-107.6140
G01 X143.7617 Y-107.6086
G01 X143.7692 Y-107.5989
G01 X143.7757 Y-107.5885
G01 X143.7831 Y-107.5729
G01 X143.7855 Y-107.5660
G01 X143.7888 Y-107.5542
G01 X143.7908 Y-107.5421
G01 X143.7916 Y-107.5298
G01 X143.7908 Y-107.5127
G01 X143.7888 Y-107.5006
G01 X143.7870 Y-107.4935
G01 X143.7831 Y-107.4818
G01 X143.7757 Y-107.4663
G01 X143.7692 Y-107.4559
G01 X143.7648 Y-107.4500
G01 X143.7568 Y-107.4407
G01 X143.7441 Y-107.4292
G01 X143.7381 Y-107.4248
G01 X143.7277 Y-107.4183
G01 X143.7122 Y-107.4110
G01 X143.7053 Y-107.4085
G01 X143.6935 Y-107.4053
G01 X143.6765 Y-107.4028
G01 X143.6667 Y-107.4023
G01 X143.2857 Y-107.4023
G01 X143.2710 Y-107.4032
G01 X143.2589 Y-107.4053
G01 X143.2503 Y-107.4075
G01 X143.2402 Y-107.4110
G01 X143.2298 Y-107.4155
G01 X143.0393 Y-107.5108
G01 X143.0268 Y-107.5180
G01 X143.0167 Y-107.5254
G01 X143.0068 Y-107.5342
G01 X142.9115 Y-107.6295
G01 X142.9018 Y-107.6406
G01 X142.8960 Y-107.6484
G01 X142.7055 Y-107.9342
G01 X142.6976 Y-107.9480
G01 X142.6927 Y-107.9592
G01 X142.6882 Y-107.9732
G01 X142.5930 Y-108.3542
G01 X142.5904 Y-108.3675
G01 X142.5893 Y-108.3815
G00 Z2.0000
G00 X142.8393 Y-108.6998
G01 F60.00
G01 Z-0.1500
G01 F150.00
G01 X142.8393 Y-109.1169
G01 X142.9123 Y-109.2628
G01 X142.9788 Y-109.3294
G01 X143.1248 Y-109.4023
G01 X143.4467 Y-109.4023
G01 X143.5926 Y-109.3294
G01 X143.6591 Y-109.2628
G01 X143.7321 Y-109.1169
G01 X143.7321 Y-108.6998
G01 X143.6591 Y-108.5538
G01 X143.5926 Y-108.4873
G01 X143.4467 Y-108.4143
G01 X143.1248 Y-108.4143
G01 X142.9788 Y-108.4873
G01 X142.9123 Y-108.5538
G01 X142.8393 Y-108.6998
G00 Z2.0000
G00 X144.3988 Y-109.5275
G01 F60.00
G01 Z-0.1500
G01 F150.00
G01 X144.3995 Y-109.5407
G01 X144.4014 Y-109.5527
G01 X144.4040 Y-109.5632
G01 X144.4084 Y-109.5754
G01 X144.4132 Y-109.5857
G01 X144.4205 Y-109.5979
G01 X144.4268 Y-109.6062
G01 X144.4346 Y-109.6150
G01 X144.4440 Y-109.6237
G01 X144.4551 Y-109.6318
G01 X144.4636 Y-109.6370
G01 X144.4765 Y-109.6431
G01 X144.4871 Y-109.6469
G01 X144.5002 Y-109.6502
G01 X144.5119 Y-109.6519
G01 X144.5214 Y-109.6524
G01 X145.7644 Y-109.6524
G01 X145.7766 Y-109.6515
G01 X145.7839 Y-109.6504
G01 X145.7958 Y-109.6477
G01 X145.8075 Y-109.6438
G01 X145.8230 Y-109.6364
G01 X145.8334 Y-109.6299
G01 X145.8393 Y-109.6255
G01 X145.8485 Y-109.6175
G01 X145.8601 Y-109.6048
G01 X145.8672 Y-109.5948
G01 X145.8710 Y-109.5885
G01 X145.8764 Y-109.5775
G01 X145.8808 Y-109.5660
G01 X145.8849 Y-109.5500
G01 X145.8865 Y-109.5372
G01 X145.8869 Y-109.5249
G01 X145.8865 Y-109.5176
G01 X145.8850 Y-109.5054
G01 X145.8822 Y-109.4935
G01 X145.8764 Y-109.4773
G01 X145.8733 Y-109.4706
G01 X145.8672 Y-109.4600
G01 X145.8601 Y-109.4500
G01 X145.8520 Y-109.4407
G01 X145.8393 Y-109.4292
G01 X145.8293 Y-109.4221
G01 X145.8230 Y-109.4183
G01 X145.8120 Y-109.4129
G01 X145.8005 Y-109.4085
G01 X145.7845 Y-109.4044
G01 X145.7717 Y-109.4028
G01 X145.7619 Y-109.4023
G01 X144.8257 Y-109.4023
G01 X145.7551 Y-108.4729
G01 X145.7627 Y-108.4646
G01 X145.7701 Y-108.4548
G01 X145.7765 Y-108.4443
G01 X145.7818 Y-108.4332
G01 X145.7853 Y-108.4241
G01 X145.8805 Y-108.1384
G01 X145.8832 Y-108.1289
G01 X145.8849 Y-108.1214
G01 X145.8865 Y-108.1086
G01 X145.8869 Y-108.0988
G01 X145.8869 Y-107.9083
G01 X145.8865 Y-107.8985
G01 X145.8855 Y-107.8897
G01 X145.8840 Y-107.8815
G01 X145.8808 Y-107.8697
G01 X145.8777 Y-107.8614
G01 X145.8737 Y-107.8524
G01 X145.7785 Y-107.6619
G01 X145.7713 Y-107.6494
G01 X145.7639 Y-107.6393
G01 X145.7563 Y-107.6307
G01 X145.6598 Y-107.5342
G01 X145.6488 Y-107.5245
G01 X145.6359 Y-107.5155
G01 X145.6273 Y-107.5108
G01 X145.4369 Y-107.4155
G01 X145.4279 Y-107.4115
G01 X145.4196 Y-107.4085
G01 X145.4120 Y-107.4063
G01 X145.4005 Y-107.4039
G01 X145.3908 Y-107.4028
G01 X145.3810 Y-107.4023
G01 X144.9048 Y-107.4023
G01 X144.8901 Y-107.4032
G01 X144.8780 Y-107.4053
G01 X144.8694 Y-107.4075
G01 X144.8592 Y-107.4110
G01 X144.8488 Y-107.4155
G01 X144.6584 Y-107.5108
G01 X144.6458 Y-107.5180
G01 X144.6357 Y-107.5254
G01 X144.6271 Y-107.5330
G01 X144.5306 Y-107.6294
G01 X144.5209 Y-107.6405
G01 X144.5138 Y-107.6505
G01 X144.5100 Y-107.6568
G01 X144.5045 Y-107.6678
G01 X144.4987 Y-107.6839
G01 X144.4961 Y-107.6953
G01 X144.4949 Y-107.7032
G01 X144.4941 Y-107.7154
G01 X144.4949 Y-107.7325
G01 X144.4969 Y-107.7446
G01 X144.4987 Y-107.7518
G01 X144.5026 Y-107.7634
G01 X144.5100 Y-107.7789
G01 X144.5165 Y-107.7893
G01 X144.5209 Y-107.7952
G01 X144.5289 Y-107.8045
G01 X144.5417 Y-107.8160
G01 X144.5517 Y-107.8231
G01 X144.5580 Y-107.8269
G01 X144.5690 Y-107.8324
G01 X144.5851 Y-107.8382
G01 X144.5965 Y-107.8408
G01 X144.6044 Y-107.8420
G01 X144.6166 Y-107.8428
G01 X144.6337 Y-107.8420
G01 X144.6410 Y-107.8409
G01 X144.6530 Y-107.8382
G01 X144.6691 Y-107.8324
G01 X144.6758 Y-107.8292
G01 X144.6864 Y-107.8231
G01 X144.6964 Y-107.8160
G01 X144.7075 Y-107.8063
G01 X144.7884 Y-107.7254
G01 X144.9343 Y-107.6524
G01 X145.3514 Y-107.6524
G01 X145.4974 Y-107.7254
G01 X145.5639 Y-107.7919
G01 X145.6369 Y-107.9379
G01 X145.6369 Y-108.0785
G01 X145.5574 Y-108.3170
G01 X144.4354 Y-109.4390
G01 X144.4275 Y-109.4476
G01 X144.4194 Y-109.4586
G01 X144.4142 Y-109.4672
G01 X144.4081 Y-109.4801
G01 X144.4043 Y-109.4906
G01 X144.4010 Y-109.5038
G01 X144.3993 Y-109.5155
G01 X144.3988 Y-109.5275
G00 Z2.0000
G00 X146.3040 Y-107.5176
G01 F60.00
G01 Z-0.1500
G01 F150.00
G01 X146.3036 Y-107.5249
G01 X146.3040 Y-107.5372
G01 X146.3056 Y-107.5500
G01 X146.3083 Y-107.5613
G01 X146.3122 Y-107.5729
G01 X146.3172 Y-107.5841
G01 X146.3233 Y-107.5948
G01 X146.3304 Y-107.6048
G01 X146.3385 Y-107.6140
G01 X146.3474 Y-107.6224
G01 X146.3571 Y-107.6299
G01 X146.3675 Y-107.6364
G01 X146.3785 Y-107.6419
G01 X146.3899 Y-107.6463
G01 X146.4018 Y-107.6495
G01 X146.4139 Y-107.6515
G01 X146.4286 Y-107.6524
G01 X147.5723 Y-107.6524
G01 X146.7898 Y-109.4781
G01 X146.7849 Y-109.4920
G01 X146.7821 Y-109.5032
G01 X146.7808 Y-109.5112
G01 X146.7797 Y-109.5265
G01 X146.7805 Y-109.5406
G01 X146.7814 Y-109.5479
G01 X146.7840 Y-109.5598
G01 X146.7896 Y-109.5761
G01 X146.7950 Y-109.5871
G01 X146.8012 Y-109.5973
G01 X146.8057 Y-109.6036
G01 X146.8170 Y-109.6164
G01 X146.8262 Y-109.6246
G01 X146.8320 Y-109.6291
G01 X146.8424 Y-109.6357
G01 X146.8578 Y-109.6432
G01 X146.8647 Y-109.6458
G01 X146.8765 Y-109.6491
G01 X146.8934 Y-109.6519
G01 X146.9038 Y-109.6524
G01 X146.9130 Y-109.6521
G01 X146.9252 Y-109.6507
G01 X146.9419 Y-109.6467
G01 X146.9535 Y-109.6425
G01 X146.9645 Y-109.6372
G01 X146.9750 Y-109.6308
G01 X146.9809 Y-109.6265
G01 X146.9903 Y-109.6185
G01 X146.9988 Y-109.6097
G01 X147.0064 Y-109.6001
G01 X147.0131 Y-109.5898
G01 X147.0197 Y-109.5766
G01 X147.8773 Y-107.5755
G01 X147.8812 Y-107.5648
G01 X147.8843 Y-107.5530
G01 X147.8862 Y-107.5409
G01 X147.8868 Y-107.5314
G01 X147.8866 Y-107.5191
G01 X147.8860 Y-107.5127
G01 X147.8846 Y-107.5033
G01 X147.8816 Y-107.4914
G01 X147.8779 Y-107.4807
G01 X147.8740 Y-107.4720
G01 X147.8660 Y-107.4582
G01 X147.8593 Y-107.4490
G01 X147.8531 Y-107.4418
G01 X147.8415 Y-107.4309
G01 X147.8324 Y-107.4241
G01 X147.8243 Y-107.4191
G01 X147.8100 Y-107.4120
G01 X147.7994 Y-107.4081
G01 X147.7902 Y-107.4056
G01 X147.7839 Y-107.4043
G01 X147.7717 Y-107.4028
G01 X147.7619 Y-107.4023
G01 X146.4286 Y-107.4023
G01 X146.4188 Y-107.4028
G01 X146.4066 Y-107.4043
G01 X146.3946 Y-107.4071
G01 X146.3830 Y-107.4110
G01 X146.3718 Y-107.4160
G01 X146.3612 Y-107.4221
G01 X146.3512 Y-107.4292
G01 X146.3419 Y-107.4373
G01 X146.3335 Y-107.4462
G01 X146.3260 Y-107.4559
G01 X146.3195 Y-107.4663
G01 X146.3140 Y-107.4773
G01 X146.3097 Y-107.4888
G01 X146.3065 Y-107.5006
G01 X146.3044 Y-107.5127
G01 X146.3040 Y-107.5176
G00 Z2.0000
G00 X145.5536 Y-105.8970
G01 F60.00
G01 Z-0.1500
G01 F150.00
G01 X145.6266 Y-106.0430
G01 X145.6931 Y-106.1095
G01 X145.8390 Y-106.1825
G01 X146.1610 Y-106.1825
G01 X146.2559 Y-106.1350
G01 X146.2559 Y-105.1467
G01 X146.1610 Y-105.0992
G01 X145.8390 Y-105.0992
G01 X145.6931 Y-105.1722
G01 X145.6266 Y-105.2387
G01 X145.5536 Y-105.3846
G01 X145.5536 Y-105.8970
G00 Z2.0000
G00 X145.3035 Y-105.3551
G01 F60.00
G01 Z-0.1500
G01 F150.00
G01 X145.3035 Y-105.9265
G01 X145.3040 Y-105.9363
G01 X145.3050 Y-105.9452
G01 X145.3065 Y-105.9533
G01 X145.3097 Y-105.9652
G01 X145.3127 Y-105.9735
G01 X145.3167 Y-105.9825
G01 X145.4120 Y-106.1729
G01 X145.4167 Y-106.1815
G01 X145.4210 Y-106.1882
G01 X145.4256 Y-106.1944
G01 X145.4314 Y-106.2012
G01 X145.5306 Y-106.3007
G01 X145.5405 Y-106.3095
G01 X145.5504 Y-106.3167
G01 X145.5631 Y-106.3241
G01 X145.7536 Y-106.4193
G01 X145.7671 Y-106.4251
G01 X145.7785 Y-106.4286
G01 X145.7869 Y-106.4305
G01 X145.7948 Y-106.4316
G01 X145.8095 Y-106.4325
G01 X146.1929 Y-106.4325
G01 X146.2003 Y-106.4321
G01 X146.2091 Y-106.4311
G01 X146.2244 Y-106.4278
G01 X146.2374 Y-106.4233
G01 X146.2559 Y-106.4146
G01 X146.2559 Y-106.5637
G01 X146.1830 Y-106.7096
G01 X146.1164 Y-106.7762
G01 X145.9705 Y-106.8491
G01 X145.7438 Y-106.8491
G01 X145.5797 Y-106.7671
G01 X145.5662 Y-106.7613
G01 X145.5548 Y-106.7578
G01 X145.5473 Y-106.7561
G01 X145.5302 Y-106.7541
G01 X145.5218 Y-106.7539
G01 X145.5106 Y-106.7546
G01 X145.4937 Y-106.7576
G01 X145.4820 Y-106.7611
G01 X145.4751 Y-106.7638
G01 X145.4640 Y-106.7691
G01 X145.4536 Y-106.7755
G01 X145.4438 Y-106.7829
G01 X145.4314 Y-106.7948
G01 X145.4236 Y-106.8042
G01 X145.4167 Y-106.8144
G01 X145.4131 Y-106.8208
G01 X145.4080 Y-106.8320
G01 X145.4039 Y-106.8435
G01 X145.4003 Y-106.8594
G01 X145.3990 Y-106.8725
G01 X145.3989 Y-106.8848
G01 X145.3995 Y-106.8921
G01 X145.4014 Y-106.9042
G01 X145.4045 Y-106.9161
G01 X145.4087 Y-106.9276
G01 X145.4162 Y-106.9425
G01 X145.4232 Y-106.9532
G01 X145.4310 Y-106.9627
G01 X145.4361 Y-106.9680
G01 X145.4491 Y-106.9792
G01 X145.4552 Y-106.9834
G01 X145.4657 Y-106.9896
G01 X145.6642 Y-107.0887
G01 X145.6719 Y-107.0918
G01 X145.6833 Y-107.0953
G01 X145.6947 Y-107.0976
G01 X145.7079 Y-107.0990
G01 X146.0000 Y-107.0992
G01 X146.0147 Y-107.0983
G01 X146.0268 Y-107.0963
G01 X146.0354 Y-107.0941
G01 X146.0424 Y-107.0918
G01 X146.0559 Y-107.0860
G01 X146.2464 Y-106.9908
G01 X146.2550 Y-106.9860
G01 X146.2616 Y-106.9817
G01 X146.2679 Y-106.9771
G01 X146.2789 Y-106.9673
G01 X146.3741 Y-106.8721
G01 X146.3829 Y-106.8622
G01 X146.3902 Y-106.8523
G01 X146.3975 Y-106.8396
G01 X146.4928 Y-106.6491
G01 X146.4974 Y-106.6388
G01 X146.5008 Y-106.6286
G01 X146.5039 Y-106.6158
G01 X146.5051 Y-106.6079
G01 X146.5060 Y-106.5932
G01 X146.5060 Y-104.9742
G01 X146.5051 Y-104.9595
G01 X146.5040 Y-104.9522
G01 X146.5013 Y-104.9402
G01 X146.4974 Y-104.9286
G01 X146.4900 Y-104.9131
G01 X146.4835 Y-104.9027
G01 X146.4791 Y-104.8968
G01 X146.4711 Y-104.8875
G01 X146.4583 Y-104.8760
G01 X146.4483 Y-104.8689
G01 X146.4420 Y-104.8651
G01 X146.4310 Y-104.8596
G01 X146.4196 Y-104.8553
G01 X146.4035 Y-104.8512
G01 X146.3908 Y-104.8495
G01 X146.3785 Y-104.8492
G01 X146.3663 Y-104.8500
G01 X146.3542 Y-104.8521
G01 X146.3470 Y-104.8539
G01 X146.3354 Y-104.8578
G01 X146.3242 Y-104.8628
G01 X146.3136 Y-104.8689
G01 X146.3036 Y-104.8760
G01 X146.2928 Y-104.8855
G01 X146.2464 Y-104.8623
G01 X146.2360 Y-104.8578
G01 X146.2259 Y-104.8543
G01 X146.2173 Y-104.8521
G01 X146.2100 Y-104.8507
G01 X146.1969 Y-104.8493
G01 X145.8095 Y-104.8491
G01 X145.7982 Y-104.8497
G01 X145.7875 Y-104.8511
G01 X145.7789 Y-104.8530
G01 X145.7671 Y-104.8566
G01 X145.7536 Y-104.8623
G01 X145.5631 Y-104.9576
G01 X145.5506 Y-104.9648
G01 X145.5405 Y-104.9722
G01 X145.5306 Y-104.9810
G01 X145.4314 Y-105.0805
G01 X145.4256 Y-105.0872
G01 X145.4213 Y-105.0932
G01 X145.4167 Y-105.1001
G01 X145.4120 Y-105.1087
G01 X145.3157 Y-105.3014
G01 X145.3110 Y-105.3127
G01 X145.3083 Y-105.3212
G01 X145.3065 Y-105.3283
G01 X145.3044 Y-105.3404
G01 X145.3035 Y-105.3551
G00 Z2.0000
G00 X147.1131 Y-105.8313
G01 F60.00
G01 Z-0.1500
G01 F150.00
G01 X147.1131 Y-106.0218
G01 X147.1140 Y-106.0365
G01 X147.1150 Y-106.0438
G01 X147.1169 Y-106.0524
G01 X147.1205 Y-106.0642
G01 X147.1263 Y-106.0777
G01 X147.2215 Y-106.2682
G01 X147.2257 Y-106.2758
G01 X147.2331 Y-106.2869
G01 X147.2373 Y-106.2923
G01 X147.2437 Y-106.2994
G01 X147.2548 Y-106.3095
G01 X147.2631 Y-106.3157
G01 X147.2693 Y-106.3196
G01 X147.2774 Y-106.3241
G01 X147.4679 Y-106.4193
G01 X147.4814 Y-106.4251
G01 X147.4928 Y-106.4286
G01 X147.5012 Y-106.4305
G01 X147.5091 Y-106.4316
G01 X147.5238 Y-106.4325
G01 X148.0064 Y-106.4323
G01 X148.0147 Y-106.4316
G01 X148.0268 Y-106.4296
G01 X148.0354 Y-106.4274
G01 X148.0456 Y-106.4239
G01 X148.0559 Y-106.4193
G01 X148.1024 Y-106.3961
G01 X148.1131 Y-106.4057
G01 X148.1231 Y-106.4128
G01 X148.1337 Y-106.4189
G01 X148.1449 Y-106.4239
G01 X148.1565 Y-106.4278
G01 X148.1679 Y-106.4305
G01 X148.1807 Y-106.4321
G01 X148.1929 Y-106.4325
G01 X148.2052 Y-106.4316
G01 X148.2125 Y-106.4305
G01 X148.2244 Y-106.4278
G01 X148.2360 Y-106.4239
G01 X148.2516 Y-106.4166
G01 X148.2616 Y-106.4103
G01 X148.2679 Y-106.4057
G01 X148.2771 Y-106.3976
G01 X148.2886 Y-106.3849
G01 X148.2958 Y-106.3749
G01 X148.3019 Y-106.3642
G01 X148.3069 Y-106.3531
G01 X148.3094 Y-106.3461
G01 X148.3126 Y-106.3343
G01 X148.3146 Y-106.3222
G01 X148.3155 Y-106.3099
G01 X148.3153 Y-105.2535
G01 X148.3141 Y-105.2413
G01 X148.3117 Y-105.2292
G01 X148.3081 Y-105.2175
G01 X148.3034 Y-105.2062
G01 X148.2071 Y-105.0135
G01 X148.2023 Y-105.0049
G01 X148.1955 Y-104.9947
G01 X148.1913 Y-104.9894
G01 X148.1849 Y-104.9822
G01 X148.1753 Y-104.9734
G01 X148.1639 Y-104.9649
G01 X148.1512 Y-104.9576
G01 X147.9549 Y-104.8596
G01 X147.9434 Y-104.8553
G01 X147.9315 Y-104.8521
G01 X147.9195 Y-104.8500
G01 X147.9072 Y-104.8492
G01 X147.5238 Y-104.8491
G01 X147.5125 Y-104.8497
G01 X147.5004 Y-104.8514
G01 X147.4852 Y-104.8553
G01 X147.4769 Y-104.8583
G01 X147.4679 Y-104.8623
G01 X147.2774 Y-104.9576
G01 X147.2688 Y-104.9623
G01 X147.2586 Y-104.9692
G01 X147.2462 Y-104.9798
G01 X147.2373 Y-104.9894
G01 X147.2328 Y-104.9952
G01 X147.2260 Y-105.0054
G01 X147.2202 Y-105.0162
G01 X147.2140 Y-105.0322
G01 X147.2109 Y-105.0441
G01 X147.2096 Y-105.0513
G01 X147.2085 Y-105.0635
G01 X147.2088 Y-105.0807
G01 X147.2106 Y-105.0929
G01 X147.2121 Y-105.1000
G01 X147.2157 Y-105.1118
G01 X147.2226 Y-105.1275
G01 X147.2287 Y-105.1379
G01 X147.2331 Y-105.1441
G01 X147.2437 Y-105.1565
G01 X147.2533 Y-105.1654
G01 X147.2591 Y-105.1700
G01 X147.2693 Y-105.1768
G01 X147.2801 Y-105.1825
G01 X147.2915 Y-105.1872
G01 X147.3032 Y-105.1907
G01 X147.3153 Y-105.1931
G01 X147.3275 Y-105.1943
G01 X147.3397 Y-105.1942
G01 X147.3519 Y-105.1930
G01 X147.3687 Y-105.1893
G01 X147.3803 Y-105.1852
G01 X147.3893 Y-105.1812
G01 X147.5533 Y-105.0992
G01 X147.8752 Y-105.0992
G01 X148.0020 Y-105.1626
G01 X148.0654 Y-105.2894
G01 X148.0654 Y-105.3731
G01 X147.9705 Y-105.4206
G01 X147.5214 Y-105.4206
G01 X147.5140 Y-105.4210
G01 X147.5052 Y-105.4220
G01 X147.4932 Y-105.4244
G01 X147.4814 Y-105.4280
G01 X147.4679 Y-105.4338
G01 X147.2736 Y-105.5310
G01 X147.2649 Y-105.5362
G01 X147.2548 Y-105.5436
G01 X147.2462 Y-105.5512
G01 X147.2405 Y-105.5571
G01 X147.2361 Y-105.5623
G01 X147.2299 Y-105.5706
G01 X147.2260 Y-105.5768
G01 X147.2215 Y-105.5849
G01 X147.1252 Y-105.7776
G01 X147.1205 Y-105.7889
G01 X147.1178 Y-105.7974
G01 X147.1160 Y-105.8045
G01 X147.1140 Y-105.8166
G01 X147.1131 Y-105.8313
G00 Z2.0000
G00 X147.3631 Y-105.9923
G01 F60.00
G01 Z-0.1500
G01 F150.00
G01 X147.4265 Y-106.1191
G01 X147.5533 Y-106.1825
G01 X147.9705 Y-106.1825
G01 X148.0654 Y-106.1350
G01 X148.0654 Y-105.6527
G01 X148.0470 Y-105.6614
G01 X148.0339 Y-105.6659
G01 X148.0186 Y-105.6692
G01 X148.0098 Y-105.6702
G01 X148.0025 Y-105.6706
G01 X147.5533 Y-105.6706
G01 X147.4265 Y-105.7340
G01 X147.3631 Y-105.8608
G01 X147.3631 Y-105.9923
G00 Z2.0000
G00 X149.0178 Y-104.9742
G01 F60.00
G01 Z-0.1500
G01 F150.00
G01 X149.0178 Y-106.3075
G01 X149.0182 Y-106.3173
G01 X149.0198 Y-106.3295
G01 X149.0240 Y-106.3461
G01 X149.0265 Y-106.3531
G01 X149.0315 Y-106.3642
G01 X149.0401 Y-106.3786
G01 X149.0447 Y-106.3849
G01 X149.0527 Y-106.3941
G01 X149.0655 Y-106.4057
G01 X149.0714 Y-106.4100
G01 X149.0818 Y-106.4166
G01 X149.0973 Y-106.4239
G01 X149.1042 Y-106.4264
G01 X149.1161 Y-106.4296
G01 X149.1330 Y-106.4321
G01 X149.1453 Y-106.4325
G01 X149.1527 Y-106.4321
G01 X149.1696 Y-106.4296
G01 X149.1768 Y-106.4278
G01 X149.1884 Y-106.4239
G01 X149.2039 Y-106.4166
G01 X149.2140 Y-106.4103
G01 X149.2202 Y-106.4057
G01 X149.2330 Y-106.3941
G01 X149.2410 Y-106.3849
G01 X149.2454 Y-106.3790
G01 X149.2542 Y-106.3642
G01 X149.2574 Y-106.3576
G01 X149.2617 Y-106.3461
G01 X149.2658 Y-106.3301
G01 X149.2675 Y-106.3173
G01 X149.2679 Y-106.3075
G01 X149.2679 Y-105.2164
G01 X149.3122 Y-105.1722
G01 X149.4581 Y-105.0992
G01 X149.6848 Y-105.0992
G01 X149.8116 Y-105.1626
G01 X149.8750 Y-105.2894
G01 X149.8750 Y-106.3075
G01 X149.8759 Y-106.3222
G01 X149.8769 Y-106.3295
G01 X149.8797 Y-106.3414
G01 X149.8836 Y-106.3531
G01 X149.8909 Y-106.3686
G01 X149.8972 Y-106.3786
G01 X149.9049 Y-106.3887
G01 X149.9134 Y-106.3976
G01 X149.9188 Y-106.4025
G01 X149.9285 Y-106.4100
G01 X149.9389 Y-106.4166
G01 X149.9544 Y-106.4239
G01 X149.9614 Y-106.4264
G01 X149.9732 Y-106.4296
G01 X149.9853 Y-106.4316
G01 X149.9975 Y-106.4325
G01 X150.0147 Y-106.4316
G01 X150.0268 Y-106.4296
G01 X150.0339 Y-106.4278
G01 X150.0456 Y-106.4239
G01 X150.0567 Y-106.4189
G01 X150.0711 Y-106.4103
G01 X150.0812 Y-106.4025
G01 X150.0901 Y-106.3941
G01 X150.0982 Y-106.3849
G01 X150.1026 Y-106.3790
G01 X150.1091 Y-106.3686
G01 X150.1164 Y-106.3531
G01 X150.1203 Y-106.3414
G01 X150.1230 Y-106.3301
G01 X150.1241 Y-106.3222
G01 X150.1250 Y-106.3099
G01 X150.1248 Y-105.2535
G01 X150.1236 Y-105.2413
G01 X150.1212 Y-105.2292
G01 X150.1176 Y-105.2175
G01 X150.1129 Y-105.2062
G01 X150.0166 Y-105.0135
G01 X150.0118 Y-105.0049
G01 X150.0053 Y-104.9952
G01 X150.0008 Y-104.9894
G01 X149.9944 Y-104.9822
G01 X149.9848 Y-104.9734
G01 X149.9734 Y-104.9649
G01 X149.9607 Y-104.9576
G01 X149.7644 Y-104.8596
G01 X149.7529 Y-104.8553
G01 X149.7411 Y-104.8521
G01 X149.7290 Y-104.8500
G01 X149.7143 Y-104.8491
G01 X149.4286 Y-104.8491
G01 X149.4188 Y-104.8495
G01 X149.4100 Y-104.8506
G01 X149.3946 Y-104.8539
G01 X149.3862 Y-104.8566
G01 X149.3785 Y-104.8596
G01 X149.2558 Y-104.9207
G01 X149.2519 Y-104.9131
G01 X149.2457 Y-104.9030
G01 X149.2410 Y-104.8968
G01 X149.2330 Y-104.8875
G01 X149.2240 Y-104.8791
G01 X149.2143 Y-104.8716
G01 X149.1996 Y-104.8628
G01 X149.1929 Y-104.8596
G01 X149.1815 Y-104.8553
G01 X149.1696 Y-104.8521
G01 X149.1575 Y-104.8500
G01 X149.1404 Y-104.8492
G01 X149.1282 Y-104.8500
G01 X149.1209 Y-104.8511
G01 X149.1089 Y-104.8539
G01 X149.0973 Y-104.8578
G01 X149.0818 Y-104.8651
G01 X149.0717 Y-104.8714
G01 X149.0655 Y-104.8760
G01 X149.0562 Y-104.8841
G01 X149.0478 Y-104.8930
G01 X149.0376 Y-104.9068
G01 X149.0315 Y-104.9174
G01 X149.0265 Y-104.9286
G01 X149.0225 Y-104.9402
G01 X149.0199 Y-104.9516
G01 X149.0182 Y-104.9644
G01 X149.0178 Y-104.9742
G00 Z2.0000
G00 X150.5421 Y-104.9644
G01 F60.00
G01 Z-0.1500
G01 F150.00
G01 X150.5417 Y-104.9717
G01 X150.5421 Y-104.9840
G01 X150.5446 Y-105.0009
G01 X150.5464 Y-105.0081
G01 X150.5503 Y-105.0197
G01 X150.5576 Y-105.0352
G01 X150.5639 Y-105.0453
G01 X150.5685 Y-105.0515
G01 X150.5800 Y-105.0643
G01 X150.5893 Y-105.0723
G01 X150.5952 Y-105.0767
G01 X150.6056 Y-105.0832
G01 X150.6166 Y-105.0887
G01 X150.6280 Y-105.0930
G01 X150.6399 Y-105.0963
G01 X150.6569 Y-105.0988
G01 X150.6667 Y-105.0992
G01 X150.8273 Y-105.0992
G01 X150.8273 Y-106.0218
G01 X150.8279 Y-106.0331
G01 X150.8293 Y-106.0438
G01 X150.8321 Y-106.0557
G01 X150.8360 Y-106.0673
G01 X150.8395 Y-106.0755
G01 X150.9358 Y-106.2682
G01 X150.9430 Y-106.2807
G01 X150.9516 Y-106.2923
G01 X150.9580 Y-106.2994
G01 X150.9635 Y-106.3047
G01 X150.9734 Y-106.3128
G01 X150.9790 Y-106.3167
G01 X150.9879 Y-106.3220
G01 X151.1822 Y-106.4193
G01 X151.1957 Y-106.4251
G01 X151.2071 Y-106.4286
G01 X151.2155 Y-106.4305
G01 X151.2234 Y-106.4316
G01 X151.2381 Y-106.4325
G01 X151.4286 Y-106.4325
G01 X151.4384 Y-106.4321
G01 X151.4505 Y-106.4305
G01 X151.4672 Y-106.4264
G01 X151.4787 Y-106.4220
G01 X151.4853 Y-106.4189
G01 X151.4960 Y-106.4128
G01 X151.5060 Y-106.4057
G01 X151.5187 Y-106.3941
G01 X151.5267 Y-106.3849
G01 X151.5338 Y-106.3749
G01 X151.5376 Y-106.3686
G01 X151.5431 Y-106.3576
G01 X151.5475 Y-106.3461
G01 X151.5507 Y-106.3343
G01 X151.5527 Y-106.3222
G01 X151.5535 Y-106.3099
G01 X151.5532 Y-106.2977
G01 X151.5516 Y-106.2855
G01 X151.5475 Y-106.2689
G01 X151.5431 Y-106.2574
G01 X151.5399 Y-106.2507
G01 X151.5338 Y-106.2401
G01 X151.5267 Y-106.2301
G01 X151.5187 Y-106.2209
G01 X151.5060 Y-106.2093
G01 X151.5000 Y-106.2049
G01 X151.4896 Y-106.1984
G01 X151.4741 Y-106.1911
G01 X151.4625 Y-106.1872
G01 X151.4505 Y-106.1844
G01 X151.4384 Y-106.1829
G01 X151.4286 Y-106.1825
G01 X151.2676 Y-106.1825
G01 X151.1408 Y-106.1191
G01 X151.0774 Y-105.9923
G01 X151.0774 Y-105.0992
G01 X151.4286 Y-105.0992
G01 X151.4384 Y-105.0988
G01 X151.4505 Y-105.0972
G01 X151.4672 Y-105.0930
G01 X151.4787 Y-105.0887
G01 X151.4896 Y-105.0832
G01 X151.4997 Y-105.0770
G01 X151.5060 Y-105.0723
G01 X151.5152 Y-105.0643
G01 X151.5236 Y-105.0553
G01 X151.5311 Y-105.0456
G01 X151.5376 Y-105.0352
G01 X151.5431 Y-105.0243
G01 X151.5475 Y-105.0128
G01 X151.5507 Y-105.0009
G01 X151.5527 Y-104.9889
G01 X151.5535 Y-104.9766
G01 X151.5532 Y-104.9644
G01 X151.5507 Y-104.9474
G01 X151.5489 Y-104.9402
G01 X151.5450 Y-104.9286
G01 X151.5376 Y-104.9131
G01 X151.5314 Y-104.9030
G01 X151.5267 Y-104.8968
G01 X151.5152 Y-104.8841
G01 X151.5060 Y-104.8760
G01 X151.5000 Y-104.8716
G01 X151.4896 Y-104.8651
G01 X151.4741 Y-104.8578
G01 X151.4672 Y-104.8553
G01 X151.4554 Y-104.8521
G01 X151.4433 Y-104.8500
G01 X151.4286 Y-104.8491
G01 X151.0774 Y-104.8491
G01 X151.0774 Y-104.3075
G01 X151.0770 Y-104.2977
G01 X151.0754 Y-104.2855
G01 X151.0713 Y-104.2689
G01 X151.0669 Y-104.2574
G01 X151.0638 Y-104.2507
G01 X151.0577 Y-104.2401
G01 X151.0505 Y-104.2301
G01 X151.0390 Y-104.2174
G01 X151.0298 Y-104.2093
G01 X151.0198 Y-104.2022
G01 X151.0135 Y-104.1984
G01 X151.0025 Y-104.1930
G01 X150.9910 Y-104.1886
G01 X150.9750 Y-104.1845
G01 X150.9622 Y-104.1829
G01 X150.9499 Y-104.1825
G01 X150.9377 Y-104.1834
G01 X150.9256 Y-104.1854
G01 X150.9184 Y-104.1872
G01 X150.9068 Y-104.1911
G01 X150.8956 Y-104.1961
G01 X150.8812 Y-104.2047
G01 X150.8712 Y-104.2124
G01 X150.8623 Y-104.2209
G01 X150.8573 Y-104.2263
G01 X150.8498 Y-104.2360
G01 X150.8433 Y-104.2464
G01 X150.8360 Y-104.2619
G01 X150.8321 Y-104.2736
G01 X150.8294 Y-104.2849
G01 X150.8282 Y-104.2928
G01 X150.8273 Y-104.3075
G01 X150.8273 Y-104.8491
G01 X150.6642 Y-104.8492
G01 X150.6520 Y-104.8500
G01 X150.6447 Y-104.8511
G01 X150.6327 Y-104.8539
G01 X150.6211 Y-104.8578
G01 X150.6056 Y-104.8651
G01 X150.5955 Y-104.8714
G01 X150.5893 Y-104.8760
G01 X150.5766 Y-104.8875
G01 X150.5685 Y-104.8968
G01 X150.5641 Y-104.9027
G01 X150.5553 Y-104.9174
G01 X150.5521 Y-104.9241
G01 X150.5478 Y-104.9355
G01 X150.5437 Y-104.9516
G01 X150.5421 Y-104.9644
G00 Z2.0000
G00 X151.8750 Y-105.3551
G01 F60.00
G01 Z-0.1500
G01 F150.00
G01 X151.8750 Y-105.9265
G01 X151.8759 Y-105.9412
G01 X151.8769 Y-105.9485
G01 X151.8788 Y-105.9572
G01 X151.8824 Y-105.9689
G01 X151.8882 Y-105.9825
G01 X151.9834 Y-106.1729
G01 X151.9882 Y-106.1815
G01 X151.9924 Y-106.1882
G01 X152.0002 Y-106.1982
G01 X152.0068 Y-106.2054
G01 X152.1021 Y-106.3007
G01 X152.1093 Y-106.3073
G01 X152.1190 Y-106.3148
G01 X152.1260 Y-106.3193
G01 X152.1346 Y-106.3241
G01 X152.3250 Y-106.4193
G01 X152.3386 Y-106.4251
G01 X152.3470 Y-106.4278
G01 X152.3542 Y-106.4296
G01 X152.3663 Y-106.4316
G01 X152.3810 Y-106.4325
G01 X152.6667 Y-106.4325
G01 X152.6765 Y-106.4321
G01 X152.6853 Y-106.4311
G01 X152.6935 Y-106.4296
G01 X152.7053 Y-106.4264
G01 X152.7136 Y-106.4233
G01 X152.7226 Y-106.4193
G01 X152.9131 Y-106.3241
G01 X152.9256 Y-106.3168
G01 X152.9357 Y-106.3095
G01 X152.9456 Y-106.3007
G01 X153.0408 Y-106.2054
G01 X153.0474 Y-106.1982
G01 X153.0549 Y-106.1885
G01 X153.0595 Y-106.1815
G01 X153.0642 Y-106.1729
G01 X153.1595 Y-105.9825
G01 X153.1635 Y-105.9735
G01 X153.1665 Y-105.9652
G01 X153.1687 Y-105.9576
G01 X153.1711 Y-105.9461
G01 X153.1722 Y-105.9363
G01 X153.1727 Y-105.9265
G01 X153.1727 Y-105.3551
G01 X153.1721 Y-105.3438
G01 X153.1707 Y-105.3331
G01 X153.1679 Y-105.3212
G01 X153.1640 Y-105.3096
G01 X153.1605 Y-105.3014
G01 X153.0642 Y-105.1087
G01 X153.0570 Y-105.0962
G01 X153.0496 Y-105.0861
G01 X153.0408 Y-105.0762
G01 X152.9456 Y-104.9810
G01 X152.9383 Y-104.9743
G01 X152.9286 Y-104.9668
G01 X152.9216 Y-104.9623
G01 X152.9131 Y-104.9576
G01 X152.7226 Y-104.8623
G01 X152.7136 Y-104.8583
G01 X152.7053 Y-104.8553
G01 X152.6977 Y-104.8531
G01 X152.6892 Y-104.8512
G01 X152.6780 Y-104.8497
G01 X152.6667 Y-104.8491
G01 X152.3810 Y-104.8491
G01 X152.3696 Y-104.8497
G01 X152.3590 Y-104.8511
G01 X152.3503 Y-104.8530
G01 X152.3386 Y-104.8566
G01 X152.3250 Y-104.8623
G01 X152.1346 Y-104.9576
G01 X152.1220 Y-104.9648
G01 X152.1119 Y-104.9722
G01 X152.1021 Y-104.9810
G01 X152.0028 Y-105.0805
G01 X151.9971 Y-105.0872
G01 X151.9927 Y-105.0932
G01 X151.9882 Y-105.1001
G01 X151.9834 Y-105.1087
G01 X151.8871 Y-105.3014
G01 X151.8824 Y-105.3127
G01 X151.8797 Y-105.3212
G01 X151.8779 Y-105.3283
G01 X151.8759 Y-105.3404
G01 X151.8750 Y-105.3551
G00 Z2.0000
G00 X152.1250 Y-105.8970
G01 F60.00
G01 Z-0.1500
G01 F150.00
G01 X152.1980 Y-106.0430
G01 X152.2645 Y-106.1095
G01 X152.4105 Y-106.1825
G01 X152.6371 Y-106.1825
G01 X152.7831 Y-106.1095
G01 X152.8496 Y-106.0430
G01 X152.9226 Y-105.8970
G01 X152.9226 Y-105.3846
G01 X152.8496 Y-105.2387
G01 X152.7831 Y-105.1722
G01 X152.6371 Y-105.0992
G01 X152.4105 Y-105.0992
G01 X152.2645 Y-105.1722
G01 X152.1980 Y-105.2387
G01 X152.1250 Y-105.3846
G01 X152.1250 Y-105.8970
G00 Z2.0000
G00 X153.7797 Y-104.9742
G01 F60.00
G01 Z-0.1500
G01 F150.00
G01 X153.7797 Y-106.3075
G01 X153.7801 Y-106.3173
G01 X153.7817 Y-106.3295
G01 X153.7859 Y-106.3461
G01 X153.7884 Y-106.3531
G01 X153.7934 Y-106.3642
G01 X153.8020 Y-106.3786
G01 X153.8066 Y-106.3849
G01 X153.8147 Y-106.3941
G01 X153.8274 Y-106.4057
G01 X153.8333 Y-106.4100
G01 X153.8437 Y-106.4166
G01 X153.8592 Y-106.4239
G01 X153.8661 Y-106.4264
G01 X153.8780 Y-106.4296
G01 X153.8950 Y-106.4321
G01 X153.9072 Y-106.4325
G01 X153.9146 Y-106.4321
G01 X153.9315 Y-106.4296
G01 X153.9387 Y-106.4278
G01 X153.9503 Y-106.4239
G01 X153.9658 Y-106.4166
G01 X153.9759 Y-106.4103
G01 X153.9821 Y-106.4057
G01 X153.9949 Y-106.3941
G01 X154.0029 Y-106.3849
G01 X154.0073 Y-106.3790
G01 X154.0161 Y-106.3642
G01 X154.0193 Y-106.3576
G01 X154.0236 Y-106.3461
G01 X154.0277 Y-106.3301
G01 X154.0294 Y-106.3173
G01 X154.0298 Y-106.3075
G01 X154.0298 Y-105.2164
G01 X154.0741 Y-105.1722
G01 X154.2200 Y-105.0992
G01 X154.4467 Y-105.0992
G01 X154.5735 Y-105.1626
G01 X154.6369 Y-105.2894
G01 X154.6369 Y-106.3075
G01 X154.6378 Y-106.3222
G01 X154.6388 Y-106.3295
G01 X154.6416 Y-106.3414
G01 X154.6455 Y-106.3531
G01 X154.6528 Y-106.3686
G01 X154.6591 Y-106.3786
G01 X154.6669 Y-106.3887
G01 X154.6753 Y-106.3976
G01 X154.6807 Y-106.4025
G01 X154.6904 Y-106.4100
G01 X154.7008 Y-106.4166
G01 X154.7163 Y-106.4239
G01 X154.7233 Y-106.4264
G01 X154.7351 Y-106.4296
G01 X154.7472 Y-106.4316
G01 X154.7595 Y-106.4325
G01 X154.7766 Y-106.4316
G01 X154.7887 Y-106.4296
G01 X154.7958 Y-106.4278
G01 X154.8075 Y-106.4239
G01 X154.8187 Y-106.4189
G01 X154.8330 Y-106.4103
G01 X154.8431 Y-106.4025
G01 X154.8520 Y-106.3941
G01 X154.8601 Y-106.3849
G01 X154.8645 Y-106.3790
G01 X154.8710 Y-106.3686
G01 X154.8783 Y-106.3531
G01 X154.8822 Y-106.3414
G01 X154.8849 Y-106.3301
G01 X154.8860 Y-106.3222
G01 X154.8869 Y-106.3099
G01 X154.8867 Y-105.2535
G01 X154.8855 Y-105.2413
G01 X154.8831 Y-105.2292
G01 X154.8795 Y-105.2175
G01 X154.8748 Y-105.2062
G01 X154.7785 Y-105.0135
G01 X154.7737 Y-105.0049
G01 X154.7672 Y-104.9952
G01 X154.7627 Y-104.9894
G01 X154.7563 Y-104.9822
G01 X154.7467 Y-104.9734
G01 X154.7353 Y-104.9649
G01 X154.7226 Y-104.9576
G01 X154.5263 Y-104.8596
G01 X154.5148 Y-104.8553
G01 X154.5030 Y-104.8521
G01 X154.4909 Y-104.8500
G01 X154.4762 Y-104.8491
G01 X154.1905 Y-104.8491
G01 X154.1807 Y-104.8495
G01 X154.1719 Y-104.8506
G01 X154.1565 Y-104.8539
G01 X154.1481 Y-104.8566
G01 X154.1404 Y-104.8596
G01 X154.0177 Y-104.9207
G01 X154.0138 Y-104.9131
G01 X154.0076 Y-104.9030
G01 X154.0029 Y-104.8968
G01 X153.9949 Y-104.8875
G01 X153.9859 Y-104.8791
G01 X153.9762 Y-104.8716
G01 X153.9615 Y-104.8628
G01 X153.9549 Y-104.8596
G01 X153.9434 Y-104.8553
G01 X153.9315 Y-104.8521
G01 X153.9195 Y-104.8500
G01 X153.9023 Y-104.8492
G01 X153.8901 Y-104.8500
G01 X153.8828 Y-104.8511
G01 X153.8708 Y-104.8539
G01 X153.8592 Y-104.8578
G01 X153.8437 Y-104.8651
G01 X153.8336 Y-104.8714
G01 X153.8274 Y-104.8760
G01 X153.8181 Y-104.8841
G01 X153.8097 Y-104.8930
G01 X153.7995 Y-104.9068
G01 X153.7934 Y-104.9174
G01 X153.7884 Y-104.9286
G01 X153.7845 Y-104.9402
G01 X153.7818 Y-104.9516
G01 X153.7801 Y-104.9644
G01 X153.7797 Y-104.9742
G00 Z2.0000
G00 X155.4940 Y-105.3551
G01 F60.00
G01 Z-0.1500
G01 F150.00
G01 X155.4940 Y-105.9265
G01 X155.4949 Y-105.9412
G01 X155.4960 Y-105.9485
G01 X155.4979 Y-105.9572
G01 X155.5014 Y-105.9689
G01 X155.5072 Y-105.9825
G01 X155.6024 Y-106.1729
G01 X155.6072 Y-106.1815
G01 X155.6115 Y-106.1882
G01 X155.6192 Y-106.1982
G01 X155.6259 Y-106.2054
G01 X155.7211 Y-106.3007
G01 X155.7283 Y-106.3073
G01 X155.7380 Y-106.3148
G01 X155.7450 Y-106.3193
G01 X155.7536 Y-106.3241
G01 X155.9441 Y-106.4193
G01 X155.9576 Y-106.4251
G01 X155.9661 Y-106.4278
G01 X155.9732 Y-106.4296
G01 X155.9853 Y-106.4316
G01 X156.0000 Y-106.4325
G01 X156.2857 Y-106.4325
G01 X156.2955 Y-106.4321
G01 X156.3043 Y-106.4311
G01 X156.3125 Y-106.4296
G01 X156.3243 Y-106.4264
G01 X156.3327 Y-106.4233
G01 X156.3416 Y-106.4193
G01 X156.5321 Y-106.3241
G01 X156.5447 Y-106.3168
G01 X156.5548 Y-106.3095
G01 X156.5646 Y-106.3007
G01 X156.6598 Y-106.2054
G01 X156.6665 Y-106.1982
G01 X156.6740 Y-106.1885
G01 X156.6785 Y-106.1815
G01 X156.6833 Y-106.1729
G01 X156.7785 Y-105.9825
G01 X156.7825 Y-105.9735
G01 X156.7855 Y-105.9652
G01 X156.7878 Y-105.9576
G01 X156.7901 Y-105.9461
G01 X156.7913 Y-105.9363
G01 X156.7917 Y-105.9265
G01 X156.7917 Y-105.3551
G01 X156.7912 Y-105.3438
G01 X156.7897 Y-105.3331
G01 X156.7870 Y-105.3212
G01 X156.7831 Y-105.3096
G01 X156.7795 Y-105.3014
G01 X156.6833 Y-105.1087
G01 X156.6760 Y-105.0962
G01 X156.6687 Y-105.0861
G01 X156.6598 Y-105.0762
G01 X156.5646 Y-104.9810
G01 X156.5574 Y-104.9743
G01 X156.5477 Y-104.9668
G01 X156.5407 Y-104.9623
G01 X156.5321 Y-104.9576
G01 X156.3416 Y-104.8623
G01 X156.3327 Y-104.8583
G01 X156.3243 Y-104.8553
G01 X156.3167 Y-104.8531
G01 X156.3083 Y-104.8512
G01 X156.2970 Y-104.8497
G01 X156.2857 Y-104.8491
G01 X156.0000 Y-104.8491
G01 X155.9887 Y-104.8497
G01 X155.9780 Y-104.8511
G01 X155.9694 Y-104.8530
G01 X155.9576 Y-104.8566
G01 X155.9441 Y-104.8623
G01 X155.7536 Y-104.9576
G01 X155.7410 Y-104.9648
G01 X155.7310 Y-104.9722
G01 X155.7211 Y-104.9810
G01 X155.6219 Y-105.0805
G01 X155.6161 Y-105.0872
G01 X155.6117 Y-105.0932
G01 X155.6072 Y-105.1001
G01 X155.6024 Y-105.1087
G01 X155.5062 Y-105.3014
G01 X155.5014 Y-105.3127
G01 X155.4987 Y-105.3212
G01 X155.4969 Y-105.3283
G01 X155.4949 Y-105.3404
G01 X155.4940 Y-105.3551
G00 Z2.0000
G00 X155.7441 Y-105.8970
G01 F60.00
G01 Z-0.1500
G01 F150.00
G01 X155.8170 Y-106.0430
G01 X155.8836 Y-106.1095
G01 X156.0295 Y-106.1825
G01 X156.2562 Y-106.1825
G01 X156.4021 Y-106.1095
G01 X156.4687 Y-106.0430
G01 X156.5416 Y-105.8970
G01 X156.5416 Y-105.3846
G01 X156.4687 Y-105.2387
G01 X156.4021 Y-105.1722
G01 X156.2562 Y-105.0992
G01 X156.0295 Y-105.0992
G01 X155.8836 Y-105.1722
G01 X155.8170 Y-105.2387
G01 X155.7441 Y-105.3846
G01 X155.7441 Y-105.8970
G00 Z2.0000
G00 X157.2094 Y-104.9582
G01 F60.00
G01 Z-0.1500
G01 F150.00
G01 X157.2084 Y-104.9704
G01 X157.2084 Y-104.9778
G01 X157.2093 Y-104.9900
G01 X157.2115 Y-105.0021
G01 X157.2156 Y-105.0162
G01 X157.6918 Y-106.3496
G01 X157.6965 Y-106.3609
G01 X157.7023 Y-106.3717
G01 X157.7091 Y-106.3819
G01 X157.7168 Y-106.3914
G01 X157.7255 Y-106.4001
G01 X157.7350 Y-106.4079
G01 X157.7452 Y-106.4147
G01 X157.7560 Y-106.4205
G01 X157.7674 Y-106.4252
G01 X157.7791 Y-106.4288
G01 X157.7911 Y-106.4312
G01 X157.8033 Y-106.4324
G01 X157.8156 Y-106.4324
G01 X157.8278 Y-106.4312
G01 X157.8399 Y-106.4288
G01 X157.8516 Y-106.4252
G01 X157.8629 Y-106.4205
G01 X157.8738 Y-106.4148
G01 X157.8840 Y-106.4080
G01 X157.8935 Y-106.4002
G01 X157.9021 Y-106.3915
G01 X157.9099 Y-106.3820
G01 X157.9167 Y-106.3718
G01 X157.9225 Y-106.3610
G01 X157.9272 Y-106.3497
G01 X158.4035 Y-105.0162
G01 X158.4075 Y-105.0026
G01 X158.4096 Y-104.9912
G01 X158.4104 Y-104.9827
G01 X158.4107 Y-104.9704
G01 X158.4097 Y-104.9582
G01 X158.4075 Y-104.9461
G01 X158.4042 Y-104.9343
G01 X158.3997 Y-104.9229
G01 X158.3916 Y-104.9078
G01 X158.3875 Y-104.9016
G01 X158.3799 Y-104.8920
G01 X158.3714 Y-104.8832
G01 X158.3581 Y-104.8723
G01 X158.3520 Y-104.8682
G01 X158.3413 Y-104.8622
G01 X158.3254 Y-104.8556
G01 X158.3141 Y-104.8524
G01 X158.3064 Y-104.8509
G01 X158.2894 Y-104.8492
G01 X158.2771 Y-104.8495
G01 X158.2649 Y-104.8509
G01 X158.2577 Y-104.8523
G01 X158.2412 Y-104.8573
G01 X158.2344 Y-104.8602
G01 X158.2235 Y-104.8657
G01 X158.2092 Y-104.8753
G01 X158.1999 Y-104.8833
G01 X158.1947 Y-104.8885
G01 X158.1867 Y-104.8978
G01 X158.1772 Y-104.9121
G01 X158.1717 Y-104.9230
G01 X158.1680 Y-104.9321
G01 X157.8095 Y-105.9357
G01 X157.4511 Y-104.9321
G01 X157.4453 Y-104.9186
G01 X157.4393 Y-104.9079
G01 X157.4352 Y-104.9017
G01 X157.4276 Y-104.8921
G01 X157.4155 Y-104.8800
G01 X157.4059 Y-104.8724
G01 X157.3998 Y-104.8683
G01 X157.3846 Y-104.8602
G01 X157.3732 Y-104.8557
G01 X157.3619 Y-104.8525
G01 X157.3505 Y-104.8503
G01 X157.3420 Y-104.8495
G01 X157.3248 Y-104.8494
G01 X157.3126 Y-104.8509
G01 X157.3054 Y-104.8523
G01 X157.2890 Y-104.8573
G01 X157.2822 Y-104.8601
G01 X157.2712 Y-104.8657
G01 X157.2570 Y-104.8752
G01 X157.2476 Y-104.8832
G01 X157.2424 Y-104.8884
G01 X157.2345 Y-104.8977
G01 X157.2274 Y-104.9077
G01 X157.2193 Y-104.9229
G01 X157.2165 Y-104.9297
G01 X157.2127 Y-104.9413
G01 X157.2101 Y-104.9533
G01 X157.2094 Y-104.9582
G00 Z2.0000
G00 X158.8275 Y-105.1691
G01 F60.00
G01 Z-0.1500
G01 F150.00
G01 X158.8288 Y-105.1833
G01 X158.8312 Y-105.1953
G01 X158.8348 Y-105.2070
G01 X158.8405 Y-105.2206
G01 X158.9358 Y-105.4110
G01 X158.9405 Y-105.4196
G01 X158.9448 Y-105.4263
G01 X158.9504 Y-105.4337
G01 X158.9580 Y-105.4423
G01 X159.0544 Y-105.5388
G01 X159.0643 Y-105.5476
G01 X159.0742 Y-105.5548
G01 X159.0869 Y-105.5622
G01 X159.2774 Y-105.6574
G01 X159.2910 Y-105.6632
G01 X159.3023 Y-105.6667
G01 X159.3108 Y-105.6685
G01 X159.3220 Y-105.6701
G01 X159.3333 Y-105.6706
G01 X159.7143 Y-105.6706
G01 X159.7241 Y-105.6702
G01 X159.7329 Y-105.6692
G01 X159.7411 Y-105.6677
G01 X159.7497 Y-105.6655
G01 X159.7598 Y-105.6620
G01 X159.7680 Y-105.6585
G01 X159.9352 Y-105.5749
G01 X159.8839 Y-105.7800
G01 X159.7124 Y-106.0374
G01 X159.6402 Y-106.1095
G01 X159.4943 Y-106.1825
G01 X159.1404 Y-106.1825
G01 X159.1282 Y-106.1834
G01 X159.1161 Y-106.1854
G01 X159.1042 Y-106.1886
G01 X159.0928 Y-106.1930
G01 X159.0861 Y-106.1961
G01 X159.0755 Y-106.2022
G01 X159.0655 Y-106.2093
G01 X159.0562 Y-106.2174
G01 X159.0447 Y-106.2301
G01 X159.0376 Y-106.2401
G01 X159.0338 Y-106.2464
G01 X159.0283 Y-106.2574
G01 X159.0240 Y-106.2689
G01 X159.0208 Y-106.2807
G01 X159.0187 Y-106.2928
G01 X159.0179 Y-106.3099
G01 X159.0187 Y-106.3222
G01 X159.0208 Y-106.3343
G01 X159.0225 Y-106.3414
G01 X159.0265 Y-106.3531
G01 X159.0315 Y-106.3642
G01 X159.0401 Y-106.3786
G01 X159.0478 Y-106.3887
G01 X159.0562 Y-106.3976
G01 X159.0655 Y-106.4057
G01 X159.0755 Y-106.4128
G01 X159.0861 Y-106.4189
G01 X159.0973 Y-106.4239
G01 X159.1089 Y-106.4278
G01 X159.1203 Y-106.4305
G01 X159.1330 Y-106.4321
G01 X159.1429 Y-106.4325
G01 X159.5238 Y-106.4325
G01 X159.5385 Y-106.4316
G01 X159.5506 Y-106.4296
G01 X159.5592 Y-106.4274
G01 X159.5694 Y-106.4239
G01 X159.5797 Y-106.4193
G01 X159.7702 Y-106.3241
G01 X159.7828 Y-106.3168
G01 X159.7955 Y-106.3073
G01 X159.8027 Y-106.3007
G01 X159.8980 Y-106.2054
G01 X159.9078 Y-106.1943
G01 X159.9135 Y-106.1865
G01 X160.1040 Y-105.9007
G01 X160.1114 Y-105.8879
G01 X160.1169 Y-105.8757
G01 X160.1213 Y-105.8616
G01 X160.2165 Y-105.4807
G01 X160.2191 Y-105.4674
G01 X160.2199 Y-105.4589
G01 X160.2203 Y-105.4504
G01 X160.2203 Y-104.6884
G01 X160.2194 Y-104.6738
G01 X160.2173 Y-104.6617
G01 X160.2151 Y-104.6531
G01 X160.2116 Y-104.6429
G01 X160.2071 Y-104.6325
G01 X160.1118 Y-104.4421
G01 X160.1046 Y-104.4295
G01 X160.0951 Y-104.4168
G01 X160.0884 Y-104.4096
G01 X159.9932 Y-104.3143
G01 X159.9833 Y-104.3055
G01 X159.9722 Y-104.2975
G01 X159.9607 Y-104.2909
G01 X159.7680 Y-104.1946
G01 X159.7598 Y-104.1911
G01 X159.7482 Y-104.1872
G01 X159.7369 Y-104.1845
G01 X159.7290 Y-104.1834
G01 X159.7143 Y-104.1825
G01 X159.3333 Y-104.1825
G01 X159.3220 Y-104.1830
G01 X159.3114 Y-104.1844
G01 X159.3027 Y-104.1863
G01 X159.2947 Y-104.1886
G01 X159.2864 Y-104.1916
G01 X159.2774 Y-104.1957
G01 X159.0869 Y-104.2909
G01 X159.0784 Y-104.2957
G01 X159.0717 Y-104.2999
G01 X159.0655 Y-104.3046
G01 X159.0544 Y-104.3143
G01 X158.9592 Y-104.4096
G01 X158.9526 Y-104.4168
G01 X158.9451 Y-104.4265
G01 X158.9405 Y-104.4335
G01 X158.9358 Y-104.4421
G01 X158.8405 Y-104.6325
G01 X158.8360 Y-104.6429
G01 X158.8321 Y-104.6545
G01 X158.8289 Y-104.6689
G01 X158.8278 Y-104.6786
G01 X158.8273 Y-104.6884
G01 X158.8275 Y-105.1691
G00 Z2.0000
G00 X159.0774 Y-105.1351
G01 F60.00
G01 Z-0.1500
G01 F150.00
G01 X159.1504 Y-105.2810
G01 X159.2169 Y-105.3476
G01 X159.3629 Y-105.4206
G01 X159.6848 Y-105.4206
G01 X159.8307 Y-105.3476
G01 X159.8972 Y-105.2810
G01 X159.9702 Y-105.1351
G01 X159.9702 Y-104.7180
G01 X159.8972 Y-104.5720
G01 X159.8307 Y-104.5055
G01 X159.6848 Y-104.4325
G01 X159.3629 Y-104.4325
G01 X159.2169 Y-104.5055
G01 X159.1504 Y-104.5720
G01 X159.0774 Y-104.7180
G01 X159.0774 Y-105.1351
G00 Z2.0000
G00 X160.7322 Y-105.6408
G01 F60.00
G01 Z-0.1500
G01 F150.00
G01 X160.7327 Y-105.6521
G01 X160.7344 Y-105.6643
G01 X160.7373 Y-105.6762
G01 X160.7407 Y-105.6864
G01 X160.7458 Y-105.6976
G01 X160.7519 Y-105.7082
G01 X160.7569 Y-105.7155
G01 X160.7647 Y-105.7250
G01 X160.7734 Y-105.7336
G01 X160.7829 Y-105.7414
G01 X160.7897 Y-105.7461
G01 X160.8004 Y-105.7522
G01 X160.8084 Y-105.7559
G01 X160.8199 Y-105.7602
G01 X160.8312 Y-105.7631
G01 X160.8425 Y-105.7650
G01 X160.8571 Y-105.7659
G01 X161.6845 Y-105.7659
G01 X161.6845 Y-106.3075
G01 X161.6849 Y-106.3173
G01 X161.6865 Y-106.3295
G01 X161.6892 Y-106.3414
G01 X161.6931 Y-106.3531
G01 X161.7005 Y-106.3686
G01 X161.7067 Y-106.3786
G01 X161.7114 Y-106.3849
G01 X161.7229 Y-106.3976
G01 X161.7321 Y-106.4057
G01 X161.7381 Y-106.4100
G01 X161.7484 Y-106.4166
G01 X161.7640 Y-106.4239
G01 X161.7709 Y-106.4264
G01 X161.7827 Y-106.4296
G01 X161.7997 Y-106.4321
G01 X161.8120 Y-106.4325
G01 X161.8193 Y-106.4321
G01 X161.8315 Y-106.4305
G01 X161.8482 Y-106.4264
G01 X161.8551 Y-106.4239
G01 X161.8663 Y-106.4189
G01 X161.8807 Y-106.4103
G01 X161.8869 Y-106.4057
G01 X161.8962 Y-106.3976
G01 X161.9077 Y-106.3849
G01 X161.9148 Y-106.3749
G01 X161.9186 Y-106.3686
G01 X161.9240 Y-106.3576
G01 X161.9298 Y-106.3414
G01 X161.9325 Y-106.3301
G01 X161.9337 Y-106.3222
G01 X161.9345 Y-106.3099
G01 X161.9346 Y-105.7659
G01 X162.0952 Y-105.7659
G01 X162.1050 Y-105.7654
G01 X162.1220 Y-105.7629
G01 X162.1339 Y-105.7597
G01 X162.1453 Y-105.7554
G01 X162.1520 Y-105.7522
G01 X162.1626 Y-105.7461
G01 X162.1764 Y-105.7359
G01 X162.1853 Y-105.7275
G01 X162.1903 Y-105.7220
G01 X162.2005 Y-105.7082
G01 X162.2043 Y-105.7019
G01 X162.2098 Y-105.6909
G01 X162.2155 Y-105.6748
G01 X162.2182 Y-105.6634
G01 X162.2194 Y-105.6555
G01 X162.2202 Y-105.6384
G01 X162.2194 Y-105.6261
G01 X162.2183 Y-105.6189
G01 X162.2141 Y-105.6022
G01 X162.2116 Y-105.5953
G01 X162.2066 Y-105.5841
G01 X162.1980 Y-105.5697
G01 X162.1903 Y-105.5596
G01 X162.1819 Y-105.5507
G01 X162.1764 Y-105.5458
G01 X162.1626 Y-105.5355
G01 X162.1563 Y-105.5318
G01 X162.1453 Y-105.5263
G01 X162.1339 Y-105.5219
G01 X162.1220 Y-105.5187
G01 X162.1050 Y-105.5162
G01 X162.0952 Y-105.5158
G01 X161.9346 Y-105.5158
G01 X161.9346 Y-104.9742
G01 X161.9341 Y-104.9644
G01 X161.9316 Y-104.9474
G01 X161.9284 Y-104.9355
G01 X161.9240 Y-104.9241
G01 X161.9186 Y-104.9131
G01 X161.9123 Y-104.9030
G01 X161.9046 Y-104.8930
G01 X161.8962 Y-104.8841
G01 X161.8869 Y-104.8760
G01 X161.8810 Y-104.8716
G01 X161.8706 Y-104.8651
G01 X161.8551 Y-104.8578
G01 X161.8435 Y-104.8539
G01 X161.8321 Y-104.8512
G01 X161.8242 Y-104.8500
G01 X161.8120 Y-104.8492
G01 X161.7948 Y-104.8500
G01 X161.7827 Y-104.8521
G01 X161.7756 Y-104.8539
G01 X161.7640 Y-104.8578
G01 X161.7484 Y-104.8651
G01 X161.7381 Y-104.8716
G01 X161.7321 Y-104.8760
G01 X161.7229 Y-104.8841
G01 X161.7114 Y-104.8968
G01 X161.7042 Y-104.9068
G01 X161.7005 Y-104.9131
G01 X161.6950 Y-104.9241
G01 X161.6906 Y-104.9355
G01 X161.6866 Y-104.9516
G01 X161.6849 Y-104.9644
G01 X161.6845 Y-104.9742
G01 X161.6845 Y-105.5158
G01 X161.0306 Y-105.5158
G01 X161.4520 Y-104.2518
G01 X161.4547 Y-104.2424
G01 X161.4570 Y-104.2303
G01 X161.4582 Y-104.2181
G01 X161.4578 Y-104.2009
G01 X161.4561 Y-104.1888
G01 X161.4532 Y-104.1769
G01 X161.4509 Y-104.1699
G01 X161.4462 Y-104.1586
G01 X161.4404 Y-104.1478
G01 X161.4336 Y-104.1376
G01 X161.4258 Y-104.1281
G01 X161.4171 Y-104.1194
G01 X161.4036 Y-104.1089
G01 X161.3931 Y-104.1025
G01 X161.3820 Y-104.0971
G01 X161.3705 Y-104.0929
G01 X161.3593 Y-104.0900
G01 X161.3465 Y-104.0880
G01 X161.3354 Y-104.0872
G01 X161.3220 Y-104.0878
G01 X161.3099 Y-104.0895
G01 X161.2980 Y-104.0924
G01 X161.2864 Y-104.0964
G01 X161.2752 Y-104.1016
G01 X161.2649 Y-104.1077
G01 X161.2548 Y-104.1150
G01 X161.2462 Y-104.1226
G01 X161.2373 Y-104.1322
G01 X161.2299 Y-104.1420
G01 X161.2235 Y-104.1525
G01 X161.2182 Y-104.1635
G01 X161.2147 Y-104.1727
G01 X160.7385 Y-105.6013
G01 X160.7358 Y-105.6107
G01 X160.7335 Y-105.6228
G01 X160.7325 Y-105.6310
G01 X160.7322 Y-105.6408
G00 Z2.0000
G00 X160.8750 Y-107.5274
G01 F60.00
G01 Z-0.1500
G01 F150.00
G01 X160.8750 Y-109.2417
G01 X160.8759 Y-109.2564
G01 X160.8779 Y-109.2685
G01 X160.8801 Y-109.2770
G01 X160.8824 Y-109.2840
G01 X160.8882 Y-109.2976
G01 X160.9834 Y-109.4881
G01 X160.9882 Y-109.4966
G01 X160.9950 Y-109.5068
G01 X161.0028 Y-109.5163
G01 X161.0115 Y-109.5250
G01 X161.0167 Y-109.5294
G01 X161.0250 Y-109.5355
G01 X161.0312 Y-109.5395
G01 X161.0393 Y-109.5440
G01 X161.2298 Y-109.6392
G01 X161.2388 Y-109.6432
G01 X161.2547 Y-109.6485
G01 X161.2662 Y-109.6509
G01 X161.2744 Y-109.6519
G01 X161.2916 Y-109.6522
G01 X161.2989 Y-109.6517
G01 X161.3110 Y-109.6498
G01 X161.3229 Y-109.6467
G01 X161.3389 Y-109.6405
G01 X161.3493 Y-109.6350
G01 X161.3600 Y-109.6280
G01 X161.3695 Y-109.6202
G01 X161.3748 Y-109.6151
G01 X161.3829 Y-109.6059
G01 X161.3902 Y-109.5960
G01 X161.3964 Y-109.5855
G01 X161.4016 Y-109.5743
G01 X161.4068 Y-109.5584
G01 X161.4092 Y-109.5469
G01 X161.4106 Y-109.5338
G01 X161.4106 Y-109.5215
G01 X161.4100 Y-109.5142
G01 X161.4081 Y-109.5021
G01 X161.4051 Y-109.4902
G01 X161.4008 Y-109.4787
G01 X161.3933 Y-109.4638
G01 X161.3891 Y-109.4571
G01 X161.3817 Y-109.4474
G01 X161.3699 Y-109.4349
G01 X161.3643 Y-109.4302
G01 X161.3544 Y-109.4229
G01 X161.3416 Y-109.4155
G01 X161.1884 Y-109.3389
G01 X161.1250 Y-109.2121
G01 X161.1250 Y-107.5274
G01 X161.1241 Y-107.5127
G01 X161.1221 Y-107.5006
G01 X161.1189 Y-107.4888
G01 X161.1145 Y-107.4773
G01 X161.1091 Y-107.4663
G01 X161.1028 Y-107.4562
G01 X161.0982 Y-107.4500
G01 X161.0901 Y-107.4407
G01 X161.0812 Y-107.4323
G01 X161.0715 Y-107.4248
G01 X161.0611 Y-107.4183
G01 X161.0501 Y-107.4129
G01 X161.0386 Y-107.4085
G01 X161.0268 Y-107.4053
G01 X161.0098 Y-107.4028
G01 X160.9975 Y-107.4024
G01 X160.9853 Y-107.4032
G01 X160.9732 Y-107.4053
G01 X160.9614 Y-107.4085
G01 X160.9499 Y-107.4129
G01 X160.9389 Y-107.4183
G01 X160.9289 Y-107.4246
G01 X160.9226 Y-107.4292
G01 X160.9134 Y-107.4373
G01 X160.9049 Y-107.4462
G01 X160.8947 Y-107.4600
G01 X160.8886 Y-107.4706
G01 X160.8836 Y-107.4818
G01 X160.8797 Y-107.4935
G01 X160.8770 Y-107.5048
G01 X160.8754 Y-107.5176
G01 X160.8750 Y-107.5274
G00 Z2.0000
G00 X161.8274 Y-107.6251
G01 F60.00
G01 Z-0.1500
G01 F150.00
G01 X161.8282 Y-107.6373
G01 X161.8293 Y-107.6446
G01 X161.8335 Y-107.6612
G01 X161.8360 Y-107.6682
G01 X161.8410 Y-107.6794
G01 X161.8496 Y-107.6938
G01 X161.8573 Y-107.7038
G01 X161.8640 Y-107.7110
G01 X161.9592 Y-107.8063
G01 X161.9702 Y-107.8160
G01 X161.9802 Y-107.8231
G01 X161.9909 Y-107.8292
G01 X162.0021 Y-107.8343
G01 X162.0137 Y-107.8382
G01 X162.0250 Y-107.8408
G01 X162.0378 Y-107.8425
G01 X162.0501 Y-107.8428
G01 X162.0623 Y-107.8420
G01 X162.0696 Y-107.8409
G01 X162.0862 Y-107.8367
G01 X162.0932 Y-107.8343
G01 X162.1044 Y-107.8292
G01 X162.1188 Y-107.8207
G01 X162.1288 Y-107.8129
G01 X162.1360 Y-107.8063
G01 X162.2313 Y-107.7110
G01 X162.2410 Y-107.7000
G01 X162.2481 Y-107.6900
G01 X162.2542 Y-107.6794
G01 X162.2593 Y-107.6682
G01 X162.2632 Y-107.6566
G01 X162.2658 Y-107.6452
G01 X162.2675 Y-107.6324
G01 X162.2678 Y-107.6202
G01 X162.2670 Y-107.6079
G01 X162.2659 Y-107.6006
G01 X162.2617 Y-107.5840
G01 X162.2593 Y-107.5771
G01 X162.2542 Y-107.5659
G01 X162.2457 Y-107.5515
G01 X162.2379 Y-107.5414
G01 X162.2313 Y-107.5342
G01 X162.1360 Y-107.4390
G01 X162.1250 Y-107.4292
G01 X162.1150 Y-107.4221
G01 X162.1044 Y-107.4160
G01 X162.0932 Y-107.4110
G01 X162.0816 Y-107.4071
G01 X162.0702 Y-107.4044
G01 X162.0574 Y-107.4028
G01 X162.0452 Y-107.4024
G01 X162.0329 Y-107.4032
G01 X162.0256 Y-107.4043
G01 X162.0090 Y-107.4085
G01 X162.0021 Y-107.4110
G01 X161.9909 Y-107.4160
G01 X161.9765 Y-107.4246
G01 X161.9664 Y-107.4323
